(.../PCBGCODE/pcb-gcode.ulp)
(Copyright 2005 - 2012 by John Johnson)
(See readme.txt for licensing terms.)
(This file generated from the board:)
(.../hun220/Desktop/middle_man/final.brd)
(Current profile is .../PCBGCODE/profiles/generic.pp  )
(This file generated 3/3/2017 18:45)
(Settings from pcb-machine.h)
(spindle on time = 3.0000)
(  Tool Size)
(0.1250 )
(spindle speed = 30000.0000)
(tool change at 0.0000 0.0000 70.0000 )
(feed rate xy = F254.00 )
(feed rate z  = F127.00 )
(Z Axis Settings)
(  High     Up        Down     Drill)
(12.7000 	2.5400 	-0.1778 	-0.8128 )
(Settings from pcb-defaults.h)
(isolate min = 0.0254)
(isolate max = 0.5080)
(isolate step = 0.1270)
(Generated bottom outlines, bottom drill, bottom stencil)
(Unit of measure: mm)
(Metric Mode)
G21
(Absolute Coordinates)
G90
S30000
G00 Z12.7000 
G00 X0.0000 Y0.0000 
M03
G04 P3.000000
G00 Z2.5400 
G00 X12.5463 Y7.1139 
G01 Z-0.1778 F127.00 
G01 X12.6139 Y7.0463 F254.00 
G01 X12.7022 Y7.0097 
G01 X18.3847 Y7.0097 
G01 X18.3847 Y5.4522 
G01 X18.4213 Y5.3639 
G01 X18.4889 Y5.2963 
G01 X18.5772 Y5.2597 
G01 X27.7978 Y5.2597 
G01 X27.8861 Y5.2963 
G01 X27.9537 Y5.3639 
G01 X28.4537 Y5.8639 
G01 X28.4903 Y5.9522 
G01 X28.4903 Y15.0478 
G01 X28.4537 Y15.1361 
G01 X28.3861 Y15.2037 
G01 X26.5635 Y17.0264 
G01 X26.7038 Y17.1198 
G01 X26.8222 Y17.2382 
G01 X26.9152 Y17.3774 
G01 X26.9792 Y17.5321 
G01 X27.0119 Y17.6963 
G01 X27.0119 Y17.8637 
G01 X26.9792 Y18.0279 
G01 X26.9152 Y18.1826 
G01 X26.8222 Y18.3218 
G01 X26.7038 Y18.4402 
G01 X26.5646 Y18.5332 
G01 X26.4099 Y18.5972 
G01 X26.2457 Y18.6299 
G01 X24.5543 Y18.6299 
G01 X24.3901 Y18.5972 
G01 X24.2354 Y18.5332 
G01 X24.0962 Y18.4402 
G01 X23.9778 Y18.3218 
G01 X23.8848 Y18.1826 
G01 X23.8208 Y18.0279 
G01 X23.7881 Y17.8637 
G01 X23.7881 Y17.6963 
G01 X23.8208 Y17.5321 
G01 X23.8848 Y17.3774 
G01 X23.9778 Y17.2382 
G01 X24.0962 Y17.1198 
G01 X24.2354 Y17.0268 
G01 X24.3901 Y16.9628 
G01 X24.5543 Y16.9301 
G01 X25.9801 Y16.9301 
G01 X28.0097 Y14.9005 
G01 X28.0097 Y6.0995 
G01 X27.6505 Y5.7403 
G01 X18.8653 Y5.7403 
G01 X18.8653 Y7.1505 
G01 X19.2037 Y7.4889 
G01 X19.2403 Y7.5772 
G01 X19.2403 Y8.2755 
G01 X19.9901 Y9.0253 
G01 X20.0836 Y8.9866 
G01 X20.2269 Y8.9581 
G01 X20.3731 Y8.9581 
G01 X20.5164 Y8.9866 
G01 X20.6514 Y9.0425 
G01 X20.7729 Y9.1237 
G01 X20.8763 Y9.2271 
G01 X20.9575 Y9.3486 
G01 X21.0134 Y9.4836 
G01 X21.0419 Y9.6269 
G01 X21.0419 Y9.7731 
G01 X21.0134 Y9.9164 
G01 X20.9575 Y10.0514 
G01 X20.8763 Y10.1729 
G01 X20.7729 Y10.2763 
G01 X20.6514 Y10.3575 
G01 X20.5164 Y10.4134 
G01 X20.3731 Y10.4419 
G01 X20.2269 Y10.4419 
G01 X20.0836 Y10.4134 
G01 X19.9486 Y10.3575 
G01 X19.8271 Y10.2763 
G01 X19.7237 Y10.1729 
G01 X19.6425 Y10.0514 
G01 X19.5866 Y9.9164 
G01 X19.5581 Y9.7731 
G01 X19.5581 Y9.6269 
G01 X19.5866 Y9.4836 
G01 X19.6400 Y9.3548 
G01 X18.8639 Y8.5787 
G01 X18.7963 Y8.5111 
G01 X18.7597 Y8.4228 
G01 X18.7597 Y7.7245 
G01 X18.5255 Y7.4903 
G01 X12.9903 Y7.4903 
G01 X12.9903 Y18.2001 
G01 X13.5457 Y18.2001 
G01 X13.7099 Y18.2328 
G01 X13.8646 Y18.2968 
G01 X14.0038 Y18.3898 
G01 X14.1222 Y18.5082 
G01 X14.2152 Y18.6474 
G01 X14.2792 Y18.8021 
G01 X14.3119 Y18.9663 
G01 X14.3119 Y19.1337 
G01 X14.2792 Y19.2979 
G01 X14.2152 Y19.4526 
G01 X14.1222 Y19.5918 
G01 X14.0038 Y19.7102 
G01 X13.8646 Y19.8032 
G01 X13.7099 Y19.8672 
G01 X13.5457 Y19.8999 
G01 X11.8543 Y19.8999 
G01 X11.6901 Y19.8672 
G01 X11.5354 Y19.8032 
G01 X11.3962 Y19.7102 
G01 X11.2778 Y19.5918 
G01 X11.1848 Y19.4526 
G01 X11.1208 Y19.2979 
G01 X11.0881 Y19.1337 
G01 X11.0881 Y18.9663 
G01 X11.1208 Y18.8021 
G01 X11.1848 Y18.6474 
G01 X11.2778 Y18.5082 
G01 X11.3962 Y18.3898 
G01 X11.5354 Y18.2968 
G01 X11.6901 Y18.2328 
G01 X11.8543 Y18.2001 
G01 X12.5097 Y18.2001 
G01 X12.5097 Y7.2022 
G01 X12.5463 Y7.1139 
G00 Z2.5400 
G00 X14.6713 Y9.6139 
G01 Z-0.1778 F127.00 
G01 X14.7389 Y9.5463 F254.00 
G01 X14.8272 Y9.5097 
G01 X18.2978 Y9.5097 
G01 X18.3861 Y9.5463 
G01 X18.4537 Y9.6139 
G01 X19.2037 Y10.3639 
G01 X19.2403 Y10.4522 
G01 X19.2403 Y12.2978 
G01 X19.2037 Y12.3861 
G01 X19.1361 Y12.4537 
G01 X18.4550 Y13.1349 
G01 X18.4575 Y13.1386 
G01 X18.5134 Y13.2736 
G01 X18.5419 Y13.4169 
G01 X18.5419 Y13.5631 
G01 X18.5134 Y13.7064 
G01 X18.4575 Y13.8414 
G01 X18.3763 Y13.9629 
G01 X18.2729 Y14.0663 
G01 X18.1514 Y14.1475 
G01 X18.0164 Y14.2034 
G01 X17.8731 Y14.2319 
G01 X17.7269 Y14.2319 
G01 X17.5836 Y14.2034 
G01 X17.4486 Y14.1475 
G01 X17.3271 Y14.0663 
G01 X17.2237 Y13.9629 
G01 X17.1425 Y13.8414 
G01 X17.0866 Y13.7064 
G01 X17.0581 Y13.5631 
G01 X17.0581 Y13.4169 
G01 X17.0866 Y13.2736 
G01 X17.1425 Y13.1386 
G01 X17.2237 Y13.0171 
G01 X17.3271 Y12.9137 
G01 X17.4486 Y12.8325 
G01 X17.5836 Y12.7766 
G01 X17.7269 Y12.7481 
G01 X17.8731 Y12.7481 
G01 X18.0164 Y12.7766 
G01 X18.0992 Y12.8109 
G01 X18.7597 Y12.1505 
G01 X18.7597 Y10.5995 
G01 X18.1505 Y9.9903 
G01 X15.1153 Y9.9903 
G01 X15.1153 Y19.5478 
G01 X15.0787 Y19.6361 
G01 X13.8726 Y20.8422 
G01 X14.0038 Y20.9298 
G01 X14.1222 Y21.0482 
G01 X14.2152 Y21.1874 
G01 X14.2792 Y21.3421 
G01 X14.3119 Y21.5063 
G01 X14.3119 Y21.6737 
G01 X14.2792 Y21.8379 
G01 X14.2152 Y21.9926 
G01 X14.1222 Y22.1318 
G01 X14.0038 Y22.2502 
G01 X13.8646 Y22.3432 
G01 X13.7099 Y22.4072 
G01 X13.5457 Y22.4399 
G01 X12.9903 Y22.4399 
G01 X12.9903 Y28.5097 
G01 X20.7755 Y28.5097 
G01 X21.3847 Y27.9005 
G01 X21.3847 Y24.0772 
G01 X21.4213 Y23.9889 
G01 X21.4889 Y23.9213 
G01 X24.3072 Y21.1029 
G01 X24.2354 Y21.0732 
G01 X24.0962 Y20.9802 
G01 X23.9778 Y20.8618 
G01 X23.8848 Y20.7226 
G01 X23.8208 Y20.5679 
G01 X23.7881 Y20.4037 
G01 X23.7881 Y20.2363 
G01 X23.8208 Y20.0721 
G01 X23.8848 Y19.9174 
G01 X23.9778 Y19.7782 
G01 X24.0962 Y19.6598 
G01 X24.2354 Y19.5668 
G01 X24.3901 Y19.5028 
G01 X24.5543 Y19.4701 
G01 X26.2457 Y19.4701 
G01 X26.4099 Y19.5028 
G01 X26.5646 Y19.5668 
G01 X26.7038 Y19.6598 
G01 X26.8222 Y19.7782 
G01 X26.9152 Y19.9174 
G01 X26.9792 Y20.0721 
G01 X27.0119 Y20.2363 
G01 X27.0119 Y20.4037 
G01 X26.9792 Y20.5679 
G01 X26.9152 Y20.7226 
G01 X26.8222 Y20.8618 
G01 X26.7038 Y20.9802 
G01 X26.5646 Y21.0732 
G01 X26.4099 Y21.1372 
G01 X26.2457 Y21.1699 
G01 X24.9199 Y21.1699 
G01 X21.8653 Y24.2245 
G01 X21.8653 Y28.0478 
G01 X21.8287 Y28.1361 
G01 X21.0787 Y28.8861 
G01 X21.0111 Y28.9537 
G01 X20.9228 Y28.9903 
G01 X12.7022 Y28.9903 
G01 X12.6139 Y28.9537 
G01 X12.5463 Y28.8861 
G01 X12.5097 Y28.7978 
G01 X12.5097 Y22.4399 
G01 X11.8543 Y22.4399 
G01 X11.6901 Y22.4072 
G01 X11.5354 Y22.3432 
G01 X11.3962 Y22.2502 
G01 X11.2778 Y22.1318 
G01 X11.1848 Y21.9926 
G01 X11.1208 Y21.8379 
G01 X11.0881 Y21.6737 
G01 X11.0881 Y21.5063 
G01 X11.1208 Y21.3421 
G01 X11.1848 Y21.1874 
G01 X11.2778 Y21.0482 
G01 X11.3962 Y20.9298 
G01 X11.5354 Y20.8368 
G01 X11.6901 Y20.7728 
G01 X11.8543 Y20.7401 
G01 X13.2951 Y20.7401 
G01 X14.6347 Y19.4005 
G01 X14.6347 Y9.7022 
G01 X14.6713 Y9.6139 
G00 Z2.5400 
G00 X17.0962 Y9.2185 
G01 Z-0.1778 F127.00 
G01 X17.0715 Y9.1938 F254.00 
G01 X17.0581 Y9.1615 
G01 X17.0581 Y7.8185 
G01 X17.0715 Y7.7862 
G01 X17.0962 Y7.7615 
G01 X17.1285 Y7.7481 
G01 X18.4715 Y7.7481 
G01 X18.5038 Y7.7615 
G01 X18.5285 Y7.7862 
G01 X18.5419 Y7.8185 
G01 X18.5419 Y9.1615 
G01 X18.5285 Y9.1938 
G01 X18.5038 Y9.2185 
G01 X18.4715 Y9.2319 
G01 X17.1285 Y9.2319 
G01 X17.0962 Y9.2185 
G00 Z2.5400 
G00 X17.2237 Y10.5171 
G01 Z-0.1778 F127.00 
G01 X17.3271 Y10.4137 F254.00 
G01 X17.4486 Y10.3325 
G01 X17.5836 Y10.2766 
G01 X17.7269 Y10.2481 
G01 X17.8731 Y10.2481 
G01 X18.0164 Y10.2766 
G01 X18.1514 Y10.3325 
G01 X18.2729 Y10.4137 
G01 X18.3763 Y10.5171 
G01 X18.4575 Y10.6386 
G01 X18.5134 Y10.7736 
G01 X18.5419 Y10.9169 
G01 X18.5419 Y11.0631 
G01 X18.5134 Y11.2064 
G01 X18.4575 Y11.3414 
G01 X18.3763 Y11.4629 
G01 X18.2729 Y11.5663 
G01 X18.1514 Y11.6475 
G01 X18.0164 Y11.7034 
G01 X17.8731 Y11.7319 
G01 X17.7269 Y11.7319 
G01 X17.5836 Y11.7034 
G01 X17.4486 Y11.6475 
G01 X17.4449 Y11.6450 
G01 X16.7403 Y12.3495 
G01 X16.7403 Y25.2755 
G01 X17.0103 Y25.5454 
G01 X17.0268 Y25.5054 
G01 X17.1198 Y25.3662 
G01 X17.2382 Y25.2478 
G01 X17.3774 Y25.1548 
G01 X17.5321 Y25.0908 
G01 X17.6963 Y25.0581 
G01 X17.8637 Y25.0581 
G01 X18.0279 Y25.0908 
G01 X18.1826 Y25.1548 
G01 X18.3218 Y25.2478 
G01 X18.4402 Y25.3662 
G01 X18.5332 Y25.5054 
G01 X18.5972 Y25.6601 
G01 X18.6299 Y25.8243 
G01 X18.6299 Y27.5157 
G01 X18.5972 Y27.6799 
G01 X18.5332 Y27.8346 
G01 X18.4402 Y27.9738 
G01 X18.3218 Y28.0922 
G01 X18.1826 Y28.1852 
G01 X18.0279 Y28.2492 
G01 X17.8637 Y28.2819 
G01 X17.6963 Y28.2819 
G01 X17.5321 Y28.2492 
G01 X17.3774 Y28.1852 
G01 X17.2382 Y28.0922 
G01 X17.1198 Y27.9738 
G01 X17.0268 Y27.8346 
G01 X16.9628 Y27.6799 
G01 X16.9301 Y27.5157 
G01 X16.9301 Y26.1449 
G01 X16.2963 Y25.5111 
G01 X16.2597 Y25.4228 
G01 X16.2597 Y12.2022 
G01 X16.2963 Y12.1139 
G01 X16.3639 Y12.0463 
G01 X17.1209 Y11.2892 
G01 X17.0866 Y11.2064 
G01 X17.0581 Y11.0631 
G01 X17.0581 Y10.9169 
G01 X17.0866 Y10.7736 
G01 X17.1425 Y10.6386 
G01 X17.2237 Y10.5171 
G00 Z2.5400 
G00 X19.7237 Y11.7271 
G01 Z-0.1778 F127.00 
G01 X19.8271 Y11.6237 F254.00 
G01 X19.9486 Y11.5425 
G01 X20.0836 Y11.4866 
G01 X20.2269 Y11.4581 
G01 X20.3731 Y11.4581 
G01 X20.5164 Y11.4866 
G01 X20.6514 Y11.5425 
G01 X20.7729 Y11.6237 
G01 X20.8763 Y11.7271 
G01 X20.9575 Y11.8486 
G01 X21.0134 Y11.9836 
G01 X21.0419 Y12.1269 
G01 X21.0419 Y12.2731 
G01 X21.0134 Y12.4164 
G01 X20.9575 Y12.5514 
G01 X20.8763 Y12.6729 
G01 X20.7729 Y12.7763 
G01 X20.6514 Y12.8575 
G01 X20.5164 Y12.9134 
G01 X20.3731 Y12.9419 
G01 X20.2269 Y12.9419 
G01 X20.0836 Y12.9134 
G01 X19.9486 Y12.8575 
G01 X19.8271 Y12.7763 
G01 X19.7237 Y12.6729 
G01 X19.6425 Y12.5514 
G01 X19.5866 Y12.4164 
G01 X19.5581 Y12.2731 
G01 X19.5581 Y12.1269 
G01 X19.5866 Y11.9836 
G01 X19.6425 Y11.8486 
G01 X19.7237 Y11.7271 
G00 Z2.5400 
G00 X19.7022 Y13.2597 
G01 Z-0.1778 F127.00 
G01 X21.5097 Y13.2597 F254.00 
G01 X21.5097 Y8.5772 
G01 X21.5463 Y8.4889 
G01 X23.9213 Y6.1139 
G01 X23.9889 Y6.0463 
G01 X24.0772 Y6.0097 
G01 X27.5478 Y6.0097 
G01 X27.6361 Y6.0463 
G01 X27.7037 Y6.1139 
G01 X27.7403 Y6.2022 
G01 X27.7403 Y8.1728 
G01 X27.7037 Y8.2611 
G01 X26.5599 Y9.4049 
G01 X26.5646 Y9.4068 
G01 X26.7038 Y9.4998 
G01 X26.8222 Y9.6182 
G01 X26.9152 Y9.7574 
G01 X26.9792 Y9.9121 
G01 X27.0119 Y10.0763 
G01 X27.0119 Y10.2437 
G01 X26.9792 Y10.4079 
G01 X26.9152 Y10.5626 
G01 X26.8222 Y10.7018 
G01 X26.7038 Y10.8202 
G01 X26.5646 Y10.9132 
G01 X26.4099 Y10.9772 
G01 X26.2457 Y11.0099 
G01 X24.5543 Y11.0099 
G01 X24.3901 Y10.9772 
G01 X24.2354 Y10.9132 
G01 X24.0962 Y10.8202 
G01 X23.9778 Y10.7018 
G01 X23.8848 Y10.5626 
G01 X23.8208 Y10.4079 
G01 X23.7881 Y10.2437 
G01 X23.7881 Y10.0763 
G01 X23.8208 Y9.9121 
G01 X23.8848 Y9.7574 
G01 X23.9778 Y9.6182 
G01 X24.0962 Y9.4998 
G01 X24.2354 Y9.4068 
G01 X24.3901 Y9.3428 
G01 X24.5543 Y9.3101 
G01 X25.9751 Y9.3101 
G01 X27.2597 Y8.0255 
G01 X27.2597 Y6.4903 
G01 X24.2245 Y6.4903 
G01 X21.9903 Y8.7245 
G01 X21.9903 Y13.5478 
G01 X21.9537 Y13.6361 
G01 X21.8861 Y13.7037 
G01 X21.7978 Y13.7403 
G01 X19.8495 Y13.7403 
G01 X19.2403 Y14.3495 
G01 X19.2403 Y17.2978 
G01 X19.2037 Y17.3861 
G01 X19.1361 Y17.4537 
G01 X18.4550 Y18.1349 
G01 X18.4575 Y18.1386 
G01 X18.5134 Y18.2736 
G01 X18.5419 Y18.4169 
G01 X18.5419 Y18.5631 
G01 X18.5134 Y18.7064 
G01 X18.4575 Y18.8414 
G01 X18.3763 Y18.9629 
G01 X18.2729 Y19.0663 
G01 X18.1514 Y19.1475 
G01 X18.0164 Y19.2034 
G01 X17.8731 Y19.2319 
G01 X17.7269 Y19.2319 
G01 X17.5836 Y19.2034 
G01 X17.4486 Y19.1475 
G01 X17.3271 Y19.0663 
G01 X17.2237 Y18.9629 
G01 X17.1425 Y18.8414 
G01 X17.0866 Y18.7064 
G01 X17.0581 Y18.5631 
G01 X17.0581 Y18.4169 
G01 X17.0866 Y18.2736 
G01 X17.1425 Y18.1386 
G01 X17.2237 Y18.0171 
G01 X17.3271 Y17.9137 
G01 X17.4486 Y17.8325 
G01 X17.5836 Y17.7766 
G01 X17.7269 Y17.7481 
G01 X17.8731 Y17.7481 
G01 X18.0164 Y17.7766 
G01 X18.0992 Y17.8109 
G01 X18.7597 Y17.1505 
G01 X18.7597 Y14.2022 
G01 X18.7963 Y14.1139 
G01 X19.5463 Y13.3639 
G01 X19.6139 Y13.2963 
G01 X19.7022 Y13.2597 
G00 Z2.5400 
G00 X19.7237 Y14.2271 
G01 Z-0.1778 F127.00 
G01 X19.8271 Y14.1237 F254.00 
G01 X19.9486 Y14.0425 
G01 X20.0836 Y13.9866 
G01 X20.2269 Y13.9581 
G01 X20.3731 Y13.9581 
G01 X20.5164 Y13.9866 
G01 X20.6514 Y14.0425 
G01 X20.7729 Y14.1237 
G01 X20.8763 Y14.2271 
G01 X20.9575 Y14.3486 
G01 X21.0134 Y14.4836 
G01 X21.0419 Y14.6269 
G01 X21.0419 Y14.7731 
G01 X21.0134 Y14.9164 
G01 X20.9575 Y15.0514 
G01 X20.8763 Y15.1729 
G01 X20.7729 Y15.2763 
G01 X20.6514 Y15.3575 
G01 X20.5164 Y15.4134 
G01 X20.3731 Y15.4419 
G01 X20.2269 Y15.4419 
G01 X20.0836 Y15.4134 
G01 X19.9486 Y15.3575 
G01 X19.8271 Y15.2763 
G01 X19.7237 Y15.1729 
G01 X19.6425 Y15.0514 
G01 X19.5866 Y14.9164 
G01 X19.5581 Y14.7731 
G01 X19.5581 Y14.6269 
G01 X19.5866 Y14.4836 
G01 X19.6425 Y14.3486 
G01 X19.7237 Y14.2271 
G00 Z2.5400 
G00 X19.7237 Y16.7271 
G01 Z-0.1778 F127.00 
G01 X19.8271 Y16.6237 F254.00 
G01 X19.9486 Y16.5425 
G01 X20.0836 Y16.4866 
G01 X20.2269 Y16.4581 
G01 X20.3731 Y16.4581 
G01 X20.5164 Y16.4866 
G01 X20.6275 Y16.5326 
G01 X22.2597 Y14.9005 
G01 X22.2597 Y10.3272 
G01 X22.2963 Y10.2389 
G01 X24.1914 Y8.3438 
G01 X24.0962 Y8.2802 
G01 X23.9778 Y8.1618 
G01 X23.8848 Y8.0226 
G01 X23.8208 Y7.8679 
G01 X23.7881 Y7.7037 
G01 X23.7881 Y7.5363 
G01 X23.8208 Y7.3721 
G01 X23.8848 Y7.2174 
G01 X23.9778 Y7.0782 
G01 X24.0962 Y6.9598 
G01 X24.2354 Y6.8668 
G01 X24.3901 Y6.8028 
G01 X24.5543 Y6.7701 
G01 X26.2457 Y6.7701 
G01 X26.4099 Y6.8028 
G01 X26.5646 Y6.8668 
G01 X26.7038 Y6.9598 
G01 X26.8222 Y7.0782 
G01 X26.9152 Y7.2174 
G01 X26.9792 Y7.3721 
G01 X27.0119 Y7.5363 
G01 X27.0119 Y7.7037 
G01 X26.9792 Y7.8679 
G01 X26.9152 Y8.0226 
G01 X26.8222 Y8.1618 
G01 X26.7038 Y8.2802 
G01 X26.5646 Y8.3732 
G01 X26.4099 Y8.4372 
G01 X26.2457 Y8.4699 
G01 X24.7449 Y8.4699 
G01 X22.7403 Y10.4745 
G01 X22.7403 Y15.0478 
G01 X22.7037 Y15.1361 
G01 X22.6361 Y15.2037 
G01 X20.9674 Y16.8725 
G01 X21.0134 Y16.9836 
G01 X21.0419 Y17.1269 
G01 X21.0419 Y17.2731 
G01 X21.0134 Y17.4164 
G01 X20.9575 Y17.5514 
G01 X20.8763 Y17.6729 
G01 X20.7729 Y17.7763 
G01 X20.6514 Y17.8575 
G01 X20.5164 Y17.9134 
G01 X20.3731 Y17.9419 
G01 X20.2269 Y17.9419 
G01 X20.0836 Y17.9134 
G01 X19.9486 Y17.8575 
G01 X19.8271 Y17.7763 
G01 X19.7237 Y17.6729 
G01 X19.6425 Y17.5514 
G01 X19.5866 Y17.4164 
G01 X19.5581 Y17.2731 
G01 X19.5581 Y17.1269 
G01 X19.5866 Y16.9836 
G01 X19.6425 Y16.8486 
G01 X19.7237 Y16.7271 
G00 Z2.5400 
G00 X18.3763 Y16.4629 
G01 Z-0.1778 F127.00 
G01 X18.2729 Y16.5663 F254.00 
G01 X18.1514 Y16.6475 
G01 X18.0164 Y16.7034 
G01 X17.8731 Y16.7319 
G01 X17.7269 Y16.7319 
G01 X17.5836 Y16.7034 
G01 X17.4486 Y16.6475 
G01 X17.3271 Y16.5663 
G01 X17.2237 Y16.4629 
G01 X17.1425 Y16.3414 
G01 X17.0866 Y16.2064 
G01 X17.0581 Y16.0631 
G01 X17.0581 Y15.9169 
G01 X17.0866 Y15.7736 
G01 X17.1425 Y15.6386 
G01 X17.2237 Y15.5171 
G01 X17.3271 Y15.4137 
G01 X17.4486 Y15.3325 
G01 X17.5836 Y15.2766 
G01 X17.7269 Y15.2481 
G01 X17.8731 Y15.2481 
G01 X18.0164 Y15.2766 
G01 X18.1514 Y15.3325 
G01 X18.2729 Y15.4137 
G01 X18.3763 Y15.5171 
G01 X18.4575 Y15.6386 
G01 X18.5134 Y15.7736 
G01 X18.5419 Y15.9169 
G01 X18.5419 Y16.0631 
G01 X18.5134 Y16.2064 
G01 X18.4575 Y16.3414 
G01 X18.3763 Y16.4629 
G00 Z2.5400 
G00 X18.2729 Y20.4137 
G01 Z-0.1778 F127.00 
G01 X18.3763 Y20.5171 F254.00 
G01 X18.4575 Y20.6386 
G01 X18.5076 Y20.7597 
G01 X23.0097 Y20.7597 
G01 X23.0097 Y17.2022 
G01 X23.0463 Y17.1139 
G01 X24.1944 Y15.9658 
G01 X24.0962 Y15.9002 
G01 X23.9778 Y15.7818 
G01 X23.8848 Y15.6426 
G01 X23.8208 Y15.4879 
G01 X23.7881 Y15.3237 
G01 X23.7881 Y15.1563 
G01 X23.8208 Y14.9921 
G01 X23.8848 Y14.8374 
G01 X23.9778 Y14.6982 
G01 X24.0962 Y14.5798 
G01 X24.2354 Y14.4868 
G01 X24.3901 Y14.4228 
G01 X24.5543 Y14.3901 
G01 X26.2457 Y14.3901 
G01 X26.4099 Y14.4228 
G01 X26.5646 Y14.4868 
G01 X26.7038 Y14.5798 
G01 X26.8222 Y14.6982 
G01 X26.9152 Y14.8374 
G01 X26.9792 Y14.9921 
G01 X27.0119 Y15.1563 
G01 X27.0119 Y15.3237 
G01 X26.9792 Y15.4879 
G01 X26.9152 Y15.6426 
G01 X26.8222 Y15.7818 
G01 X26.7038 Y15.9002 
G01 X26.5646 Y15.9932 
G01 X26.4099 Y16.0572 
G01 X26.2457 Y16.0899 
G01 X24.7499 Y16.0899 
G01 X23.4903 Y17.3495 
G01 X23.4903 Y21.0478 
G01 X23.4537 Y21.1361 
G01 X23.3861 Y21.2037 
G01 X23.2978 Y21.2403 
G01 X18.4993 Y21.2403 
G01 X18.4575 Y21.3414 
G01 X18.3763 Y21.4629 
G01 X18.2729 Y21.5663 
G01 X18.1514 Y21.6475 
G01 X18.0164 Y21.7034 
G01 X17.8731 Y21.7319 
G01 X17.7269 Y21.7319 
G01 X17.5836 Y21.7034 
G01 X17.4486 Y21.6475 
G01 X17.3271 Y21.5663 
G01 X17.2237 Y21.4629 
G01 X17.1425 Y21.3414 
G01 X17.0866 Y21.2064 
G01 X17.0581 Y21.0631 
G01 X17.0581 Y20.9169 
G01 X17.0866 Y20.7736 
G01 X17.1425 Y20.6386 
G01 X17.2237 Y20.5171 
G01 X17.3271 Y20.4137 
G01 X17.4486 Y20.3325 
G01 X17.5836 Y20.2766 
G01 X17.7269 Y20.2481 
G01 X17.8731 Y20.2481 
G01 X18.0164 Y20.2766 
G01 X18.1514 Y20.3325 
G01 X18.2729 Y20.4137 
G00 Z2.5400 
G00 X19.8271 Y20.2763 
G01 Z-0.1778 F127.00 
G01 X19.7237 Y20.1729 F254.00 
G01 X19.6425 Y20.0514 
G01 X19.5866 Y19.9164 
G01 X19.5581 Y19.7731 
G01 X19.5581 Y19.6269 
G01 X19.5866 Y19.4836 
G01 X19.6425 Y19.3486 
G01 X19.7237 Y19.2271 
G01 X19.8271 Y19.1237 
G01 X19.9486 Y19.0425 
G01 X20.0836 Y18.9866 
G01 X20.2269 Y18.9581 
G01 X20.3731 Y18.9581 
G01 X20.5164 Y18.9866 
G01 X20.6275 Y19.0326 
G01 X22.2597 Y17.4005 
G01 X22.2597 Y15.9522 
G01 X22.2963 Y15.8639 
G01 X23.0097 Y15.1505 
G01 X23.0097 Y14.7022 
G01 X23.0463 Y14.6139 
G01 X24.2184 Y13.4418 
G01 X24.0962 Y13.3602 
G01 X23.9778 Y13.2418 
G01 X23.8848 Y13.1026 
G01 X23.8208 Y12.9479 
G01 X23.7881 Y12.7837 
G01 X23.7881 Y12.6163 
G01 X23.8208 Y12.4521 
G01 X23.8848 Y12.2974 
G01 X23.9778 Y12.1582 
G01 X24.0962 Y12.0398 
G01 X24.2354 Y11.9468 
G01 X24.3901 Y11.8828 
G01 X24.5543 Y11.8501 
G01 X26.2457 Y11.8501 
G01 X26.4099 Y11.8828 
G01 X26.5646 Y11.9468 
G01 X26.7038 Y12.0398 
G01 X26.8222 Y12.1582 
G01 X26.9152 Y12.2974 
G01 X26.9792 Y12.4521 
G01 X27.0119 Y12.6163 
G01 X27.0119 Y12.7837 
G01 X26.9792 Y12.9479 
G01 X26.9152 Y13.1026 
G01 X26.8222 Y13.2418 
G01 X26.7038 Y13.3602 
G01 X26.5646 Y13.4532 
G01 X26.4099 Y13.5172 
G01 X26.2457 Y13.5499 
G01 X24.7899 Y13.5499 
G01 X23.4903 Y14.8495 
G01 X23.4903 Y15.2978 
G01 X23.4537 Y15.3861 
G01 X23.3861 Y15.4537 
G01 X22.7403 Y16.0995 
G01 X22.7403 Y17.5478 
G01 X22.7037 Y17.6361 
G01 X22.6361 Y17.7037 
G01 X20.9674 Y19.3725 
G01 X21.0134 Y19.4836 
G01 X21.0419 Y19.6269 
G01 X21.0419 Y19.7731 
G01 X21.0134 Y19.9164 
G01 X20.9575 Y20.0514 
G01 X20.8763 Y20.1729 
G01 X20.7729 Y20.2763 
G01 X20.6514 Y20.3575 
G01 X20.5164 Y20.4134 
G01 X20.3731 Y20.4419 
G01 X20.2269 Y20.4419 
G01 X20.0836 Y20.4134 
G01 X19.9486 Y20.3575 
G01 X19.8271 Y20.2763 
G00 Z2.5400 
G00 X19.9174 Y25.1548 
G01 Z-0.1778 F127.00 
G01 X20.0721 Y25.0908 F254.00 
G01 X20.2363 Y25.0581 
G01 X20.4037 Y25.0581 
G01 X20.5679 Y25.0908 
G01 X20.7226 Y25.1548 
G01 X20.8618 Y25.2478 
G01 X20.9802 Y25.3662 
G01 X21.0732 Y25.5054 
G01 X21.1372 Y25.6601 
G01 X21.1699 Y25.8243 
G01 X21.1699 Y27.5157 
G01 X21.1372 Y27.6799 
G01 X21.0732 Y27.8346 
G01 X20.9802 Y27.9738 
G01 X20.8618 Y28.0922 
G01 X20.7226 Y28.1852 
G01 X20.5679 Y28.2492 
G01 X20.4037 Y28.2819 
G01 X20.2363 Y28.2819 
G01 X20.0721 Y28.2492 
G01 X19.9174 Y28.1852 
G01 X19.7782 Y28.0922 
G01 X19.6598 Y27.9738 
G01 X19.5668 Y27.8346 
G01 X19.5028 Y27.6799 
G01 X19.4701 Y27.5157 
G01 X19.4701 Y25.8243 
G01 X19.5028 Y25.6601 
G01 X19.5668 Y25.5054 
G01 X19.6598 Y25.3662 
G01 X19.7782 Y25.2478 
G01 X19.9174 Y25.1548 
G00 Z2.5400 
G00 X19.9486 Y7.8575 
G01 Z-0.1778 F127.00 
G01 X19.8271 Y7.7763 F254.00 
G01 X19.7237 Y7.6729 
G01 X19.6425 Y7.5514 
G01 X19.5866 Y7.4164 
G01 X19.5581 Y7.2731 
G01 X19.5581 Y7.1269 
G01 X19.5866 Y6.9836 
G01 X19.6425 Y6.8486 
G01 X19.7237 Y6.7271 
G01 X19.8271 Y6.6237 
G01 X19.9486 Y6.5425 
G01 X20.0836 Y6.4866 
G01 X20.2269 Y6.4581 
G01 X20.3731 Y6.4581 
G01 X20.5164 Y6.4866 
G01 X20.6514 Y6.5425 
G01 X20.7729 Y6.6237 
G01 X20.8763 Y6.7271 
G01 X20.9575 Y6.8486 
G01 X21.0134 Y6.9836 
G01 X21.0419 Y7.1269 
G01 X21.0419 Y7.2731 
G01 X21.0134 Y7.4164 
G01 X20.9575 Y7.5514 
G01 X20.8763 Y7.6729 
G01 X20.7729 Y7.7763 
G01 X20.6514 Y7.8575 
G01 X20.5164 Y7.9134 
G01 X20.3731 Y7.9419 
G01 X20.2269 Y7.9419 
G01 X20.0836 Y7.9134 
G01 X19.9486 Y7.8575 
G00 Z2.5400 
G00 X12.4561 Y7.0245 
G01 Z-0.1778 F127.00 
G01 X12.5245 Y6.9561 F254.00 
G01 X12.6082 Y6.9077 
G01 X12.7016 Y6.8827 
G01 X18.2577 Y6.8827 
G01 X18.2577 Y5.4516 
G01 X18.2827 Y5.3582 
G01 X18.3311 Y5.2745 
G01 X18.3995 Y5.2061 
G01 X18.4832 Y5.1577 
G01 X18.5766 Y5.1327 
G01 X27.7984 Y5.1327 
G01 X27.8918 Y5.1577 
G01 X27.9755 Y5.2061 
G01 X28.0439 Y5.2745 
G01 X28.5439 Y5.7745 
G01 X28.5923 Y5.8582 
G01 X28.6173 Y5.9516 
G01 X28.6173 Y15.0484 
G01 X28.5923 Y15.1418 
G01 X28.5439 Y15.2255 
G01 X28.4755 Y15.2939 
G01 X26.7629 Y17.0066 
G01 X26.7847 Y17.0212 
G01 X26.9208 Y17.1573 
G01 X27.0277 Y17.3173 
G01 X27.1014 Y17.4950 
G01 X27.1389 Y17.6838 
G01 X27.1389 Y17.8762 
G01 X27.1014 Y18.0649 
G01 X27.0277 Y18.2427 
G01 X26.9208 Y18.4027 
G01 X26.7847 Y18.5388 
G01 X26.6247 Y18.6457 
G01 X26.4470 Y18.7194 
G01 X26.2582 Y18.7569 
G01 X24.5418 Y18.7569 
G01 X24.3530 Y18.7194 
G01 X24.1753 Y18.6457 
G01 X24.0153 Y18.5388 
G01 X23.8792 Y18.4027 
G01 X23.7723 Y18.2427 
G01 X23.6986 Y18.0649 
G01 X23.6611 Y17.8762 
G01 X23.6611 Y17.6838 
G01 X23.6986 Y17.4950 
G01 X23.7723 Y17.3173 
G01 X23.8792 Y17.1573 
G01 X24.0153 Y17.0212 
G01 X24.1753 Y16.9143 
G01 X24.3530 Y16.8406 
G01 X24.5418 Y16.8031 
G01 X25.9275 Y16.8031 
G01 X26.6251 Y16.1055 
G01 X26.4470 Y16.1794 
G01 X26.2582 Y16.2169 
G01 X24.8025 Y16.2169 
G01 X23.6173 Y17.4021 
G01 X23.6173 Y21.0484 
G01 X23.5923 Y21.1418 
G01 X23.5439 Y21.2255 
G01 X23.4755 Y21.2939 
G01 X23.3918 Y21.3423 
G01 X23.2984 Y21.3673 
G01 X18.5842 Y21.3673 
G01 X18.5700 Y21.4016 
G01 X18.4749 Y21.5439 
G01 X18.3539 Y21.6649 
G01 X18.2116 Y21.7600 
G01 X18.0534 Y21.8255 
G01 X17.8856 Y21.8589 
G01 X17.7144 Y21.8589 
G01 X17.5465 Y21.8255 
G01 X17.3884 Y21.7600 
G01 X17.2461 Y21.6649 
G01 X17.1251 Y21.5439 
G01 X17.0300 Y21.4016 
G01 X16.9645 Y21.2434 
G01 X16.9311 Y21.0756 
G01 X16.9311 Y20.9044 
G01 X16.9645 Y20.7366 
G01 X17.0300 Y20.5784 
G01 X17.1251 Y20.4361 
G01 X17.2461 Y20.3151 
G01 X17.3884 Y20.2200 
G01 X17.5465 Y20.1545 
G01 X17.7144 Y20.1211 
G01 X17.8856 Y20.1211 
G01 X18.0534 Y20.1545 
G01 X18.2116 Y20.2200 
G01 X18.3539 Y20.3151 
G01 X18.4749 Y20.4361 
G01 X18.5700 Y20.5784 
G01 X18.5925 Y20.6327 
G01 X22.8827 Y20.6327 
G01 X22.8827 Y17.2016 
G01 X22.9077 Y17.1082 
G01 X22.9561 Y17.0245 
G01 X23.9985 Y15.9820 
G01 X23.8792 Y15.8627 
G01 X23.7723 Y15.7027 
G01 X23.6986 Y15.5250 
G01 X23.6611 Y15.3362 
G01 X23.6611 Y15.1438 
G01 X23.6986 Y14.9550 
G01 X23.7723 Y14.7773 
G01 X23.8329 Y14.6865 
G01 X23.6173 Y14.9021 
G01 X23.6173 Y15.2984 
G01 X23.5923 Y15.3918 
G01 X23.5439 Y15.4755 
G01 X23.4755 Y15.5439 
G01 X22.8673 Y16.1521 
G01 X22.8673 Y17.5484 
G01 X22.8423 Y17.6418 
G01 X22.7939 Y17.7255 
G01 X22.7255 Y17.7939 
G01 X21.1172 Y19.4023 
G01 X21.1355 Y19.4465 
G01 X21.1689 Y19.6144 
G01 X21.1689 Y19.7856 
G01 X21.1355 Y19.9534 
G01 X21.0700 Y20.1116 
G01 X20.9749 Y20.2539 
G01 X20.8539 Y20.3749 
G01 X20.7116 Y20.4700 
G01 X20.5534 Y20.5355 
G01 X20.3856 Y20.5689 
G01 X20.2144 Y20.5689 
G01 X20.0465 Y20.5355 
G01 X19.8884 Y20.4700 
G01 X19.7461 Y20.3749 
G01 X19.6251 Y20.2539 
G01 X19.5300 Y20.1116 
G01 X19.4645 Y19.9534 
G01 X19.4311 Y19.7856 
G01 X19.4311 Y19.6144 
G01 X19.4645 Y19.4465 
G01 X19.5300 Y19.2884 
G01 X19.6251 Y19.1461 
G01 X19.7461 Y19.0251 
G01 X19.8884 Y18.9300 
G01 X20.0465 Y18.8645 
G01 X20.2144 Y18.8311 
G01 X20.3856 Y18.8311 
G01 X20.5534 Y18.8645 
G01 X20.5977 Y18.8828 
G01 X22.1327 Y17.3479 
G01 X22.1327 Y15.9516 
G01 X22.1565 Y15.8630 
G01 X21.1172 Y16.9023 
G01 X21.1355 Y16.9465 
G01 X21.1689 Y17.1144 
G01 X21.1689 Y17.2856 
G01 X21.1355 Y17.4534 
G01 X21.0700 Y17.6116 
G01 X20.9749 Y17.7539 
G01 X20.8539 Y17.8749 
G01 X20.7116 Y17.9700 
G01 X20.5534 Y18.0355 
G01 X20.3856 Y18.0689 
G01 X20.2144 Y18.0689 
G01 X20.0465 Y18.0355 
G01 X19.8884 Y17.9700 
G01 X19.7461 Y17.8749 
G01 X19.6251 Y17.7539 
G01 X19.5300 Y17.6116 
G01 X19.4645 Y17.4534 
G01 X19.4311 Y17.2856 
G01 X19.4311 Y17.1144 
G01 X19.4645 Y16.9465 
G01 X19.5300 Y16.7884 
G01 X19.6251 Y16.6461 
G01 X19.7461 Y16.5251 
G01 X19.8884 Y16.4300 
G01 X20.0465 Y16.3645 
G01 X20.2144 Y16.3311 
G01 X20.3856 Y16.3311 
G01 X20.5534 Y16.3645 
G01 X20.5977 Y16.3828 
G01 X22.1327 Y14.8479 
G01 X22.1327 Y10.3266 
G01 X22.1577 Y10.2332 
G01 X22.2061 Y10.1495 
G01 X23.9960 Y8.3596 
G01 X23.8792 Y8.2427 
G01 X23.7723 Y8.0827 
G01 X23.6986 Y7.9050 
G01 X23.6611 Y7.7162 
G01 X23.6611 Y7.5238 
G01 X23.6986 Y7.3350 
G01 X23.7723 Y7.1573 
G01 X23.8430 Y7.0514 
G01 X22.1173 Y8.7771 
G01 X22.1173 Y13.5484 
G01 X22.0923 Y13.6418 
G01 X22.0439 Y13.7255 
G01 X21.9755 Y13.7939 
G01 X21.8918 Y13.8423 
G01 X21.7984 Y13.8673 
G01 X20.5602 Y13.8673 
G01 X20.7116 Y13.9300 
G01 X20.8539 Y14.0251 
G01 X20.9749 Y14.1461 
G01 X21.0700 Y14.2884 
G01 X21.1355 Y14.4466 
G01 X21.1689 Y14.6144 
G01 X21.1689 Y14.7856 
G01 X21.1355 Y14.9534 
G01 X21.0700 Y15.1116 
G01 X20.9749 Y15.2539 
G01 X20.8539 Y15.3749 
G01 X20.7116 Y15.4700 
G01 X20.5534 Y15.5355 
G01 X20.3856 Y15.5689 
G01 X20.2144 Y15.5689 
G01 X20.0465 Y15.5355 
G01 X19.8884 Y15.4700 
G01 X19.7461 Y15.3749 
G01 X19.6251 Y15.2539 
G01 X19.5300 Y15.1116 
G01 X19.4645 Y14.9534 
G01 X19.4311 Y14.7856 
G01 X19.4311 Y14.6144 
G01 X19.4645 Y14.4466 
G01 X19.5300 Y14.2884 
G01 X19.6251 Y14.1461 
G01 X19.7461 Y14.0251 
G01 X19.8884 Y13.9300 
G01 X20.0398 Y13.8673 
G01 X19.9021 Y13.8673 
G01 X19.3673 Y14.4021 
G01 X19.3673 Y17.2984 
G01 X19.3423 Y17.3918 
G01 X19.2939 Y17.4755 
G01 X19.2255 Y17.5439 
G01 X18.6054 Y18.1640 
G01 X18.6355 Y18.2366 
G01 X18.6689 Y18.4044 
G01 X18.6689 Y18.5756 
G01 X18.6355 Y18.7434 
G01 X18.5700 Y18.9016 
G01 X18.4749 Y19.0439 
G01 X18.3539 Y19.1649 
G01 X18.2116 Y19.2600 
G01 X18.0534 Y19.3255 
G01 X17.8856 Y19.3589 
G01 X17.7144 Y19.3589 
G01 X17.5465 Y19.3255 
G01 X17.3884 Y19.2600 
G01 X17.2461 Y19.1649 
G01 X17.1251 Y19.0439 
G01 X17.0300 Y18.9016 
G01 X16.9645 Y18.7434 
G01 X16.9311 Y18.5756 
G01 X16.9311 Y18.4044 
G01 X16.9645 Y18.2366 
G01 X17.0300 Y18.0784 
G01 X17.1251 Y17.9361 
G01 X17.2461 Y17.8151 
G01 X17.3884 Y17.7200 
G01 X17.5465 Y17.6545 
G01 X17.7144 Y17.6211 
G01 X17.8856 Y17.6211 
G01 X18.0534 Y17.6545 
G01 X18.0694 Y17.6611 
G01 X18.6327 Y17.0979 
G01 X18.6327 Y16.2502 
G01 X18.5700 Y16.4016 
G01 X18.4749 Y16.5439 
G01 X18.3539 Y16.6649 
G01 X18.2116 Y16.7600 
G01 X18.0534 Y16.8255 
G01 X17.8856 Y16.8589 
G01 X17.7144 Y16.8589 
G01 X17.5465 Y16.8255 
G01 X17.3884 Y16.7600 
G01 X17.2461 Y16.6649 
G01 X17.1251 Y16.5439 
G01 X17.0300 Y16.4016 
G01 X16.9645 Y16.2434 
G01 X16.9311 Y16.0756 
G01 X16.9311 Y15.9044 
G01 X16.9645 Y15.7365 
G01 X17.0300 Y15.5784 
G01 X17.1251 Y15.4361 
G01 X17.2461 Y15.3151 
G01 X17.3884 Y15.2200 
G01 X17.5465 Y15.1545 
G01 X17.7144 Y15.1211 
G01 X17.8856 Y15.1211 
G01 X18.0534 Y15.1545 
G01 X18.2116 Y15.2200 
G01 X18.3539 Y15.3151 
G01 X18.4749 Y15.4361 
G01 X18.5700 Y15.5784 
G01 X18.6327 Y15.7298 
G01 X18.6327 Y14.2016 
G01 X18.6577 Y14.1082 
G01 X18.7061 Y14.0245 
G01 X19.4561 Y13.2745 
G01 X19.5245 Y13.2061 
G01 X19.6082 Y13.1577 
G01 X19.7016 Y13.1327 
G01 X21.3827 Y13.1327 
G01 X21.3827 Y8.5766 
G01 X21.4077 Y8.4832 
G01 X21.4561 Y8.3995 
G01 X23.8311 Y6.0245 
G01 X23.8995 Y5.9561 
G01 X23.9832 Y5.9077 
G01 X24.0766 Y5.8827 
G01 X27.5484 Y5.8827 
G01 X27.6370 Y5.9065 
G01 X27.5979 Y5.8673 
G01 X18.9923 Y5.8673 
G01 X18.9923 Y7.0979 
G01 X19.2939 Y7.3995 
G01 X19.3423 Y7.4832 
G01 X19.3673 Y7.5766 
G01 X19.3673 Y8.2229 
G01 X20.0199 Y8.8755 
G01 X20.0465 Y8.8645 
G01 X20.2144 Y8.8311 
G01 X20.3856 Y8.8311 
G01 X20.5534 Y8.8645 
G01 X20.7116 Y8.9300 
G01 X20.8539 Y9.0251 
G01 X20.9749 Y9.1461 
G01 X21.0700 Y9.2884 
G01 X21.1355 Y9.4466 
G01 X21.1689 Y9.6144 
G01 X21.1689 Y9.7856 
G01 X21.1355 Y9.9534 
G01 X21.0700 Y10.1116 
G01 X20.9749 Y10.2539 
G01 X20.8539 Y10.3749 
G01 X20.7116 Y10.4700 
G01 X20.5534 Y10.5355 
G01 X20.3856 Y10.5689 
G01 X20.2144 Y10.5689 
G01 X20.0465 Y10.5355 
G01 X19.8884 Y10.4700 
G01 X19.7461 Y10.3749 
G01 X19.6251 Y10.2539 
G01 X19.5300 Y10.1116 
G01 X19.4645 Y9.9534 
G01 X19.4311 Y9.7856 
G01 X19.4311 Y9.6144 
G01 X19.4645 Y9.4466 
G01 X19.4902 Y9.3846 
G01 X18.7745 Y8.6689 
G01 X18.7061 Y8.6005 
G01 X18.6689 Y8.5361 
G01 X18.6689 Y9.1867 
G01 X18.6362 Y9.2657 
G01 X18.5757 Y9.3262 
G01 X18.4967 Y9.3589 
G01 X17.1032 Y9.3589 
G01 X17.0243 Y9.3262 
G01 X16.9638 Y9.2657 
G01 X16.9311 Y9.1867 
G01 X16.9311 Y7.7932 
G01 X16.9638 Y7.7143 
G01 X17.0243 Y7.6538 
G01 X17.1032 Y7.6211 
G01 X18.4767 Y7.6211 
G01 X18.4729 Y7.6173 
G01 X13.1173 Y7.6173 
G01 X13.1173 Y18.0731 
G01 X13.5582 Y18.0731 
G01 X13.7470 Y18.1106 
G01 X13.9247 Y18.1843 
G01 X14.0847 Y18.2912 
G01 X14.2208 Y18.4273 
G01 X14.3277 Y18.5873 
G01 X14.4014 Y18.7650 
G01 X14.4389 Y18.9538 
G01 X14.4389 Y19.1462 
G01 X14.4014 Y19.3349 
G01 X14.3277 Y19.5127 
G01 X14.2973 Y19.5583 
G01 X14.5077 Y19.3479 
G01 X14.5077 Y9.7016 
G01 X14.5327 Y9.6082 
G01 X14.5811 Y9.5245 
G01 X14.6495 Y9.4561 
G01 X14.7332 Y9.4077 
G01 X14.8266 Y9.3827 
G01 X18.2984 Y9.3827 
G01 X18.3918 Y9.4077 
G01 X18.4755 Y9.4561 
G01 X18.5439 Y9.5245 
G01 X19.2939 Y10.2745 
G01 X19.3423 Y10.3582 
G01 X19.3673 Y10.4516 
G01 X19.3673 Y12.2984 
G01 X19.3423 Y12.3918 
G01 X19.2939 Y12.4755 
G01 X19.2255 Y12.5439 
G01 X18.6054 Y13.1640 
G01 X18.6355 Y13.2365 
G01 X18.6689 Y13.4044 
G01 X18.6689 Y13.5756 
G01 X18.6355 Y13.7434 
G01 X18.5700 Y13.9016 
G01 X18.4749 Y14.0439 
G01 X18.3539 Y14.1649 
G01 X18.2116 Y14.2600 
G01 X18.0534 Y14.3255 
G01 X17.8856 Y14.3589 
G01 X17.7144 Y14.3589 
G01 X17.5465 Y14.3255 
G01 X17.3884 Y14.2600 
G01 X17.2461 Y14.1649 
G01 X17.1251 Y14.0439 
G01 X17.0300 Y13.9016 
G01 X16.9645 Y13.7434 
G01 X16.9311 Y13.5756 
G01 X16.9311 Y13.4044 
G01 X16.9645 Y13.2365 
G01 X17.0300 Y13.0784 
G01 X17.1251 Y12.9361 
G01 X17.2461 Y12.8151 
G01 X17.3884 Y12.7200 
G01 X17.5465 Y12.6545 
G01 X17.7144 Y12.6211 
G01 X17.8856 Y12.6211 
G01 X18.0534 Y12.6545 
G01 X18.0694 Y12.6611 
G01 X18.6327 Y12.0979 
G01 X18.6327 Y11.2502 
G01 X18.5700 Y11.4016 
G01 X18.4749 Y11.5439 
G01 X18.3539 Y11.6649 
G01 X18.2116 Y11.7600 
G01 X18.0534 Y11.8255 
G01 X17.8856 Y11.8589 
G01 X17.7144 Y11.8589 
G01 X17.5465 Y11.8255 
G01 X17.4740 Y11.7954 
G01 X16.8673 Y12.4021 
G01 X16.8673 Y25.2229 
G01 X16.9845 Y25.3401 
G01 X17.0212 Y25.2853 
G01 X17.1573 Y25.1492 
G01 X17.3173 Y25.0423 
G01 X17.4950 Y24.9686 
G01 X17.6838 Y24.9311 
G01 X17.8762 Y24.9311 
G01 X18.0649 Y24.9686 
G01 X18.2427 Y25.0423 
G01 X18.4027 Y25.1492 
G01 X18.5388 Y25.2853 
G01 X18.6457 Y25.4453 
G01 X18.7194 Y25.6230 
G01 X18.7569 Y25.8118 
G01 X18.7569 Y27.5282 
G01 X18.7194 Y27.7170 
G01 X18.6457 Y27.8947 
G01 X18.5388 Y28.0547 
G01 X18.4027 Y28.1908 
G01 X18.2427 Y28.2977 
G01 X18.0649 Y28.3714 
G01 X18.0079 Y28.3827 
G01 X20.0921 Y28.3827 
G01 X20.0350 Y28.3714 
G01 X19.8573 Y28.2977 
G01 X19.6973 Y28.1908 
G01 X19.5612 Y28.0547 
G01 X19.4543 Y27.8947 
G01 X19.3806 Y27.7170 
G01 X19.3431 Y27.5282 
G01 X19.3431 Y25.8118 
G01 X19.3806 Y25.6230 
G01 X19.4543 Y25.4453 
G01 X19.5612 Y25.2853 
G01 X19.6973 Y25.1492 
G01 X19.8573 Y25.0423 
G01 X20.0350 Y24.9686 
G01 X20.2238 Y24.9311 
G01 X20.4162 Y24.9311 
G01 X20.6049 Y24.9686 
G01 X20.7827 Y25.0423 
G01 X20.9427 Y25.1492 
G01 X21.0788 Y25.2853 
G01 X21.1857 Y25.4453 
G01 X21.2577 Y25.6191 
G01 X21.2577 Y24.0766 
G01 X21.2827 Y23.9832 
G01 X21.3311 Y23.8995 
G01 X21.3995 Y23.8311 
G01 X24.0971 Y21.1335 
G01 X24.0153 Y21.0788 
G01 X23.8792 Y20.9427 
G01 X23.7723 Y20.7827 
G01 X23.6986 Y20.6049 
G01 X23.6611 Y20.4162 
G01 X23.6611 Y20.2238 
G01 X23.6986 Y20.0350 
G01 X23.7723 Y19.8573 
G01 X23.8792 Y19.6973 
G01 X24.0153 Y19.5612 
G01 X24.1753 Y19.4543 
G01 X24.3530 Y19.3806 
G01 X24.5418 Y19.3431 
G01 X26.2582 Y19.3431 
G01 X26.4470 Y19.3806 
G01 X26.6247 Y19.4543 
G01 X26.7847 Y19.5612 
G01 X26.9208 Y19.6973 
G01 X27.0277 Y19.8573 
G01 X27.1014 Y20.0350 
G01 X27.1389 Y20.2238 
G01 X27.1389 Y20.4162 
G01 X27.1014 Y20.6049 
G01 X27.0277 Y20.7827 
G01 X26.9208 Y20.9427 
G01 X26.7847 Y21.0788 
G01 X26.6247 Y21.1857 
G01 X26.4470 Y21.2594 
G01 X26.2582 Y21.2969 
G01 X24.9725 Y21.2969 
G01 X21.9923 Y24.2771 
G01 X21.9923 Y28.0484 
G01 X21.9673 Y28.1418 
G01 X21.9189 Y28.2255 
G01 X21.1689 Y28.9755 
G01 X21.1005 Y29.0439 
G01 X21.0168 Y29.0923 
G01 X20.9234 Y29.1173 
G01 X12.7016 Y29.1173 
G01 X12.6082 Y29.0923 
G01 X12.5245 Y29.0439 
G01 X12.4561 Y28.9755 
G01 X12.4077 Y28.8918 
G01 X12.3827 Y28.7984 
G01 X12.3827 Y22.5669 
G01 X11.8418 Y22.5669 
G01 X11.6530 Y22.5294 
G01 X11.4753 Y22.4557 
G01 X11.3153 Y22.3488 
G01 X11.1792 Y22.2127 
G01 X11.0723 Y22.0527 
G01 X10.9986 Y21.8749 
G01 X10.9611 Y21.6862 
G01 X10.9611 Y21.4938 
G01 X10.9986 Y21.3050 
G01 X11.0723 Y21.1273 
G01 X11.1792 Y20.9673 
G01 X11.3153 Y20.8312 
G01 X11.4753 Y20.7243 
G01 X11.6530 Y20.6506 
G01 X11.8418 Y20.6131 
G01 X13.2425 Y20.6131 
G01 X13.9703 Y19.8853 
G01 X13.9247 Y19.9157 
G01 X13.7470 Y19.9894 
G01 X13.5582 Y20.0269 
G01 X11.8418 Y20.0269 
G01 X11.6530 Y19.9894 
G01 X11.4753 Y19.9157 
G01 X11.3153 Y19.8088 
G01 X11.1792 Y19.6727 
G01 X11.0723 Y19.5127 
G01 X10.9986 Y19.3349 
G01 X10.9611 Y19.1462 
G01 X10.9611 Y18.9538 
G01 X10.9986 Y18.7650 
G01 X11.0723 Y18.5873 
G01 X11.1792 Y18.4273 
G01 X11.3153 Y18.2912 
G01 X11.4753 Y18.1843 
G01 X11.6530 Y18.1106 
G01 X11.8418 Y18.0731 
G01 X12.3827 Y18.0731 
G01 X12.3827 Y7.2016 
G01 X12.4077 Y7.1082 
G01 X12.4561 Y7.0245 
G00 Z2.5400 
G00 X15.2423 Y10.1173 
G01 Z-0.1778 F127.00 
G01 X15.2423 Y19.5484 F254.00 
G01 X15.2173 Y19.6418 
G01 X15.1689 Y19.7255 
G01 X14.0718 Y20.8226 
G01 X14.0847 Y20.8312 
G01 X14.2208 Y20.9673 
G01 X14.3277 Y21.1273 
G01 X14.4014 Y21.3050 
G01 X14.4389 Y21.4938 
G01 X14.4389 Y21.6862 
G01 X14.4014 Y21.8749 
G01 X14.3277 Y22.0527 
G01 X14.2208 Y22.2127 
G01 X14.0847 Y22.3488 
G01 X13.9247 Y22.4557 
G01 X13.7470 Y22.5294 
G01 X13.5582 Y22.5669 
G01 X13.1173 Y22.5669 
G01 X13.1173 Y28.3827 
G01 X17.5521 Y28.3827 
G01 X17.4950 Y28.3714 
G01 X17.3173 Y28.2977 
G01 X17.1573 Y28.1908 
G01 X17.0212 Y28.0547 
G01 X16.9143 Y27.8947 
G01 X16.8406 Y27.7170 
G01 X16.8031 Y27.5282 
G01 X16.8031 Y26.1975 
G01 X16.2061 Y25.6005 
G01 X16.1577 Y25.5168 
G01 X16.1327 Y25.4234 
G01 X16.1327 Y25.3266 
G01 X16.1327 Y12.2016 
G01 X16.1577 Y12.1082 
G01 X16.2061 Y12.0245 
G01 X16.2745 Y11.9561 
G01 X16.9711 Y11.2594 
G01 X16.9645 Y11.2434 
G01 X16.9311 Y11.0756 
G01 X16.9311 Y10.9044 
G01 X16.9645 Y10.7365 
G01 X17.0300 Y10.5784 
G01 X17.1251 Y10.4361 
G01 X17.2461 Y10.3151 
G01 X17.3884 Y10.2200 
G01 X17.5465 Y10.1545 
G01 X17.7144 Y10.1211 
G01 X17.8856 Y10.1211 
G01 X18.0534 Y10.1545 
G01 X18.1928 Y10.2122 
G01 X18.0979 Y10.1173 
G01 X15.2423 Y10.1173 
G00 Z2.5400 
G00 X18.5778 Y10.5972 
G01 Z-0.1778 F127.00 
G01 X18.6327 Y10.7298 F254.00 
G01 X18.6327 Y10.6521 
G01 X18.5778 Y10.5972 
G00 Z2.5400 
G00 X19.6251 Y11.6461 
G01 Z-0.1778 F127.00 
G01 X19.7461 Y11.5251 F254.00 
G01 X19.8884 Y11.4300 
G01 X20.0465 Y11.3645 
G01 X20.2144 Y11.3311 
G01 X20.3856 Y11.3311 
G01 X20.5534 Y11.3645 
G01 X20.7116 Y11.4300 
G01 X20.8539 Y11.5251 
G01 X20.9749 Y11.6461 
G01 X21.0700 Y11.7884 
G01 X21.1355 Y11.9466 
G01 X21.1689 Y12.1144 
G01 X21.1689 Y12.2856 
G01 X21.1355 Y12.4534 
G01 X21.0700 Y12.6116 
G01 X20.9749 Y12.7539 
G01 X20.8539 Y12.8749 
G01 X20.7116 Y12.9700 
G01 X20.5534 Y13.0355 
G01 X20.3856 Y13.0689 
G01 X20.2144 Y13.0689 
G01 X20.0465 Y13.0355 
G01 X19.8884 Y12.9700 
G01 X19.7461 Y12.8749 
G01 X19.6251 Y12.7539 
G01 X19.5300 Y12.6116 
G01 X19.4645 Y12.4534 
G01 X19.4311 Y12.2856 
G01 X19.4311 Y12.1144 
G01 X19.4645 Y11.9466 
G01 X19.5300 Y11.7884 
G01 X19.6251 Y11.6461 
G00 Z2.5400 
G00 X19.7461 Y7.8749 
G01 Z-0.1778 F127.00 
G01 X19.6251 Y7.7539 F254.00 
G01 X19.5300 Y7.6116 
G01 X19.4645 Y7.4534 
G01 X19.4311 Y7.2856 
G01 X19.4311 Y7.1144 
G01 X19.4645 Y6.9466 
G01 X19.5300 Y6.7884 
G01 X19.6251 Y6.6461 
G01 X19.7461 Y6.5251 
G01 X19.8884 Y6.4300 
G01 X20.0465 Y6.3645 
G01 X20.2144 Y6.3311 
G01 X20.3856 Y6.3311 
G01 X20.5534 Y6.3645 
G01 X20.7116 Y6.4300 
G01 X20.8539 Y6.5251 
G01 X20.9749 Y6.6461 
G01 X21.0700 Y6.7884 
G01 X21.1355 Y6.9466 
G01 X21.1689 Y7.1144 
G01 X21.1689 Y7.2856 
G01 X21.1355 Y7.4534 
G01 X21.0700 Y7.6116 
G01 X20.9749 Y7.7539 
G01 X20.8539 Y7.8749 
G01 X20.7116 Y7.9700 
G01 X20.5534 Y8.0355 
G01 X20.3856 Y8.0689 
G01 X20.2144 Y8.0689 
G01 X20.0465 Y8.0355 
G01 X19.8884 Y7.9700 
G01 X19.7461 Y7.8749 
G00 Z2.5400 
G00 X24.0694 Y6.8250 
G01 Z-0.1778 F127.00 
G01 X24.1753 Y6.7543 F254.00 
G01 X24.3530 Y6.6806 
G01 X24.5418 Y6.6431 
G01 X26.2582 Y6.6431 
G01 X26.4470 Y6.6806 
G01 X26.6247 Y6.7543 
G01 X26.7847 Y6.8612 
G01 X26.9208 Y6.9973 
G01 X27.0277 Y7.1573 
G01 X27.1014 Y7.3350 
G01 X27.1327 Y7.4926 
G01 X27.1327 Y6.6173 
G01 X24.2771 Y6.6173 
G01 X24.0694 Y6.8250 
G00 Z2.5400 
G00 X24.7975 Y8.5969 
G01 Z-0.1778 F127.00 
G01 X22.8673 Y10.5271 F254.00 
G01 X22.8673 Y15.0484 
G01 X22.8435 Y15.1370 
G01 X22.8827 Y15.0979 
G01 X22.8827 Y14.7016 
G01 X22.9077 Y14.6082 
G01 X22.9561 Y14.5245 
G01 X24.0192 Y13.4614 
G01 X24.0153 Y13.4588 
G01 X23.8792 Y13.3227 
G01 X23.7723 Y13.1627 
G01 X23.6986 Y12.9849 
G01 X23.6611 Y12.7962 
G01 X23.6611 Y12.6038 
G01 X23.6986 Y12.4150 
G01 X23.7723 Y12.2373 
G01 X23.8792 Y12.0773 
G01 X24.0153 Y11.9412 
G01 X24.1753 Y11.8343 
G01 X24.3530 Y11.7606 
G01 X24.5418 Y11.7231 
G01 X26.2582 Y11.7231 
G01 X26.4470 Y11.7606 
G01 X26.6247 Y11.8343 
G01 X26.7847 Y11.9412 
G01 X26.9208 Y12.0773 
G01 X27.0277 Y12.2373 
G01 X27.1014 Y12.4150 
G01 X27.1389 Y12.6038 
G01 X27.1389 Y12.7962 
G01 X27.1014 Y12.9849 
G01 X27.0277 Y13.1627 
G01 X26.9208 Y13.3227 
G01 X26.7847 Y13.4588 
G01 X26.6247 Y13.5657 
G01 X26.4470 Y13.6394 
G01 X26.2582 Y13.6769 
G01 X24.8425 Y13.6769 
G01 X24.0845 Y14.4349 
G01 X24.1753 Y14.3743 
G01 X24.3530 Y14.3006 
G01 X24.5418 Y14.2631 
G01 X26.2582 Y14.2631 
G01 X26.4470 Y14.3006 
G01 X26.6247 Y14.3743 
G01 X26.7847 Y14.4812 
G01 X26.9208 Y14.6173 
G01 X27.0277 Y14.7773 
G01 X27.1014 Y14.9550 
G01 X27.1389 Y15.1438 
G01 X27.1389 Y15.3362 
G01 X27.1014 Y15.5250 
G01 X27.0277 Y15.7027 
G01 X27.8827 Y14.8479 
G01 X27.8827 Y6.1521 
G01 X27.8435 Y6.1130 
G01 X27.8673 Y6.2016 
G01 X27.8673 Y8.1734 
G01 X27.8423 Y8.2668 
G01 X27.7939 Y8.3505 
G01 X26.7599 Y9.3846 
G01 X26.7847 Y9.4012 
G01 X26.9208 Y9.5373 
G01 X27.0277 Y9.6973 
G01 X27.1014 Y9.8750 
G01 X27.1389 Y10.0638 
G01 X27.1389 Y10.2562 
G01 X27.1014 Y10.4450 
G01 X27.0277 Y10.6227 
G01 X26.9208 Y10.7827 
G01 X26.7847 Y10.9188 
G01 X26.6247 Y11.0257 
G01 X26.4470 Y11.0994 
G01 X26.2582 Y11.1369 
G01 X24.5418 Y11.1369 
G01 X24.3530 Y11.0994 
G01 X24.1753 Y11.0257 
G01 X24.0153 Y10.9188 
G01 X23.8792 Y10.7827 
G01 X23.7723 Y10.6227 
G01 X23.6986 Y10.4450 
G01 X23.6611 Y10.2562 
G01 X23.6611 Y10.0638 
G01 X23.6986 Y9.8750 
G01 X23.7723 Y9.6973 
G01 X23.8792 Y9.5373 
G01 X24.0153 Y9.4012 
G01 X24.1753 Y9.2943 
G01 X24.3530 Y9.2206 
G01 X24.5418 Y9.1831 
G01 X25.9225 Y9.1831 
G01 X26.6164 Y8.4892 
G01 X26.4470 Y8.5594 
G01 X26.2582 Y8.5969 
G01 X24.7975 Y8.5969 
G00 Z2.5400 
G00 X27.0312 Y8.0744 
G01 Z-0.1778 F127.00 
G01 X27.1327 Y7.9729 F254.00 
G01 X27.1327 Y7.7474 
G01 X27.1014 Y7.9050 
G01 X27.0312 Y8.0744 
G00 Z2.5400 
G00 X21.2577 Y27.7209 
G01 Z-0.1778 F127.00 
G01 X21.1857 Y27.8947 F254.00 
G01 X21.1351 Y27.9704 
G01 X21.2577 Y27.8479 
G01 X21.2577 Y27.7209 
G00 Z2.5400 
G00 X20.8584 Y28.2471 
G01 Z-0.1778 F127.00 
G01 X20.7827 Y28.2977 F254.00 
G01 X20.6049 Y28.3714 
G01 X20.5479 Y28.3827 
G01 X20.7229 Y28.3827 
G01 X20.8584 Y28.2471 
G00 Z2.5400 
G00 X12.3545 Y6.9465 
G01 Z-0.1778 F127.00 
G01 X12.4465 Y6.8545 F254.00 
G01 X12.5592 Y6.7894 
G01 X12.6849 Y6.7557 
G01 X18.1307 Y6.7557 
G01 X18.1307 Y5.4349 
G01 X18.1644 Y5.3092 
G01 X18.2295 Y5.1965 
G01 X18.3215 Y5.1045 
G01 X18.4342 Y5.0394 
G01 X18.5599 Y5.0057 
G01 X27.8151 Y5.0057 
G01 X27.9408 Y5.0394 
G01 X28.0535 Y5.1045 
G01 X28.1455 Y5.1965 
G01 X28.6455 Y5.6965 
G01 X28.7106 Y5.8092 
G01 X28.7443 Y5.9349 
G01 X28.7443 Y15.0651 
G01 X28.7106 Y15.1908 
G01 X28.6455 Y15.3035 
G01 X28.5535 Y15.3955 
G01 X26.9461 Y17.0029 
G01 X27.0040 Y17.0609 
G01 X27.1061 Y17.2014 
G01 X27.1850 Y17.3562 
G01 X27.2387 Y17.5215 
G01 X27.2659 Y17.6931 
G01 X27.2659 Y17.8669 
G01 X27.2387 Y18.0385 
G01 X27.1850 Y18.2037 
G01 X27.1061 Y18.3586 
G01 X27.0040 Y18.4991 
G01 X26.8811 Y18.6220 
G01 X26.7406 Y18.7241 
G01 X26.5858 Y18.8030 
G01 X26.4205 Y18.8567 
G01 X26.2489 Y18.8839 
G01 X24.5511 Y18.8839 
G01 X24.3795 Y18.8567 
G01 X24.2142 Y18.8030 
G01 X24.0594 Y18.7241 
G01 X23.9189 Y18.6220 
G01 X23.7960 Y18.4991 
G01 X23.7443 Y18.4280 
G01 X23.7443 Y19.6720 
G01 X23.7960 Y19.6009 
G01 X23.9189 Y19.4780 
G01 X24.0594 Y19.3759 
G01 X24.2142 Y19.2970 
G01 X24.3795 Y19.2433 
G01 X24.5511 Y19.2161 
G01 X26.2489 Y19.2161 
G01 X26.4205 Y19.2433 
G01 X26.5858 Y19.2970 
G01 X26.7406 Y19.3759 
G01 X26.8811 Y19.4780 
G01 X27.0040 Y19.6009 
G01 X27.1061 Y19.7414 
G01 X27.1850 Y19.8962 
G01 X27.2387 Y20.0615 
G01 X27.2659 Y20.2331 
G01 X27.2659 Y20.4069 
G01 X27.2387 Y20.5785 
G01 X27.1850 Y20.7437 
G01 X27.1061 Y20.8986 
G01 X27.0040 Y21.0391 
G01 X26.8811 Y21.1620 
G01 X26.7406 Y21.2641 
G01 X26.5858 Y21.3430 
G01 X26.4205 Y21.3967 
G01 X26.2489 Y21.4239 
G01 X25.0251 Y21.4239 
G01 X22.1193 Y24.3297 
G01 X22.1193 Y28.0651 
G01 X22.0856 Y28.1908 
G01 X22.0205 Y28.3035 
G01 X21.2705 Y29.0535 
G01 X21.1785 Y29.1455 
G01 X21.0658 Y29.2106 
G01 X20.9401 Y29.2443 
G01 X12.6849 Y29.2443 
G01 X12.5592 Y29.2106 
G01 X12.4465 Y29.1455 
G01 X12.3545 Y29.0535 
G01 X12.2894 Y28.9408 
G01 X12.2557 Y28.8151 
G01 X12.2557 Y22.6939 
G01 X11.8511 Y22.6939 
G01 X11.6795 Y22.6667 
G01 X11.5142 Y22.6130 
G01 X11.3594 Y22.5341 
G01 X11.2189 Y22.4320 
G01 X11.0960 Y22.3091 
G01 X10.9939 Y22.1686 
G01 X10.9150 Y22.0138 
G01 X10.8613 Y21.8485 
G01 X10.8341 Y21.6769 
G01 X10.8341 Y21.5031 
G01 X10.8613 Y21.3315 
G01 X10.9150 Y21.1662 
G01 X10.9939 Y21.0114 
G01 X11.0960 Y20.8709 
G01 X11.2189 Y20.7480 
G01 X11.3594 Y20.6459 
G01 X11.5142 Y20.5670 
G01 X11.6795 Y20.5133 
G01 X11.8511 Y20.4861 
G01 X13.1898 Y20.4861 
G01 X13.5221 Y20.1539 
G01 X11.8511 Y20.1539 
G01 X11.6795 Y20.1267 
G01 X11.5142 Y20.0730 
G01 X11.3594 Y19.9941 
G01 X11.2189 Y19.8920 
G01 X11.0960 Y19.7691 
G01 X10.9939 Y19.6286 
G01 X10.9150 Y19.4737 
G01 X10.8613 Y19.3085 
G01 X10.8341 Y19.1369 
G01 X10.8341 Y18.9631 
G01 X10.8613 Y18.7915 
G01 X10.9150 Y18.6262 
G01 X10.9939 Y18.4714 
G01 X11.0960 Y18.3309 
G01 X11.2189 Y18.2080 
G01 X11.3594 Y18.1059 
G01 X11.5142 Y18.0270 
G01 X11.6795 Y17.9733 
G01 X11.8511 Y17.9461 
G01 X12.2557 Y17.9461 
G01 X12.2557 Y7.1849 
G01 X12.2894 Y7.0592 
G01 X12.3545 Y6.9465 
G00 Z2.5400 
G00 X13.2443 Y7.7443 
G01 Z-0.1778 F127.00 
G01 X13.2443 Y17.9461 F254.00 
G01 X13.5489 Y17.9461 
G01 X13.7205 Y17.9733 
G01 X13.8857 Y18.0270 
G01 X14.0406 Y18.1059 
G01 X14.1811 Y18.2080 
G01 X14.3040 Y18.3309 
G01 X14.3807 Y18.4364 
G01 X14.3807 Y9.6849 
G01 X14.4144 Y9.5592 
G01 X14.4795 Y9.4465 
G01 X14.5715 Y9.3545 
G01 X14.6842 Y9.2894 
G01 X14.8099 Y9.2557 
G01 X16.8220 Y9.2557 
G01 X16.8041 Y9.1890 
G01 X16.8041 Y7.7910 
G01 X16.8166 Y7.7443 
G01 X13.2443 Y7.7443 
G00 Z2.5400 
G00 X15.3693 Y10.2443 
G01 Z-0.1778 F127.00 
G01 X15.3693 Y19.5651 F254.00 
G01 X15.3356 Y19.6908 
G01 X15.2705 Y19.8035 
G01 X14.2536 Y20.8204 
G01 X14.3040 Y20.8709 
G01 X14.4061 Y21.0114 
G01 X14.4850 Y21.1662 
G01 X14.5387 Y21.3315 
G01 X14.5659 Y21.5031 
G01 X14.5659 Y21.6769 
G01 X14.5387 Y21.8485 
G01 X14.4850 Y22.0138 
G01 X14.4061 Y22.1686 
G01 X14.3040 Y22.3091 
G01 X14.1811 Y22.4320 
G01 X14.0406 Y22.5341 
G01 X13.8857 Y22.6130 
G01 X13.7205 Y22.6667 
G01 X13.5489 Y22.6939 
G01 X13.2443 Y22.6939 
G01 X13.2443 Y28.2557 
G01 X17.0426 Y28.2557 
G01 X16.9380 Y28.1511 
G01 X16.8359 Y28.0106 
G01 X16.7570 Y27.8558 
G01 X16.7033 Y27.6905 
G01 X16.6761 Y27.5189 
G01 X16.6761 Y26.2501 
G01 X16.1045 Y25.6785 
G01 X16.0394 Y25.5658 
G01 X16.0057 Y25.4401 
G01 X16.0057 Y12.1849 
G01 X16.0394 Y12.0592 
G01 X16.1045 Y11.9465 
G01 X16.1965 Y11.8545 
G01 X16.8304 Y11.2205 
G01 X16.8041 Y11.0881 
G01 X16.8041 Y10.8919 
G01 X16.8424 Y10.6995 
G01 X16.9174 Y10.5183 
G01 X17.0264 Y10.3552 
G01 X17.1373 Y10.2443 
G01 X15.3693 Y10.2443 
G00 Z2.5400 
G00 X17.5038 Y11.9453 
G01 Z-0.1778 F127.00 
G01 X16.9943 Y12.4547 F254.00 
G01 X16.9943 Y12.9032 
G01 X17.0264 Y12.8552 
G01 X17.1652 Y12.7164 
G01 X17.3283 Y12.6074 
G01 X17.5095 Y12.5324 
G01 X17.7019 Y12.4941 
G01 X17.8981 Y12.4941 
G01 X18.0305 Y12.5204 
G01 X18.5057 Y12.0452 
G01 X18.5057 Y11.6927 
G01 X18.4348 Y11.7636 
G01 X18.2717 Y11.8726 
G01 X18.0905 Y11.9476 
G01 X17.8981 Y11.9859 
G01 X17.7019 Y11.9859 
G01 X17.5095 Y11.9476 
G01 X17.5038 Y11.9453 
G00 Z2.5400 
G00 X19.4943 Y11.6133 
G01 Z-0.1778 F127.00 
G01 X19.5264 Y11.5651 F254.00 
G01 X19.6652 Y11.4264 
G01 X19.8283 Y11.3174 
G01 X20.0095 Y11.2424 
G01 X20.2019 Y11.2041 
G01 X20.3981 Y11.2041 
G01 X20.5905 Y11.2424 
G01 X20.7717 Y11.3174 
G01 X20.9348 Y11.4264 
G01 X21.0736 Y11.5651 
G01 X21.1826 Y11.7283 
G01 X21.2557 Y11.9049 
G01 X21.2557 Y9.9951 
G01 X21.1826 Y10.1717 
G01 X21.0736 Y10.3348 
G01 X20.9348 Y10.4736 
G01 X20.7717 Y10.5826 
G01 X20.5905 Y10.6576 
G01 X20.3981 Y10.6959 
G01 X20.2019 Y10.6959 
G01 X20.0095 Y10.6576 
G01 X19.8283 Y10.5826 
G01 X19.6652 Y10.4736 
G01 X19.5264 Y10.3348 
G01 X19.4174 Y10.1717 
G01 X19.3424 Y9.9905 
G01 X19.3041 Y9.7981 
G01 X19.3041 Y9.6019 
G01 X19.3412 Y9.4153 
G01 X18.7959 Y8.8699 
G01 X18.7959 Y9.1890 
G01 X18.7726 Y9.2760 
G01 X18.7276 Y9.3539 
G01 X18.6639 Y9.4176 
G01 X18.6339 Y9.4349 
G01 X18.6455 Y9.4465 
G01 X19.3955 Y10.1965 
G01 X19.4606 Y10.3092 
G01 X19.4943 Y10.4349 
G01 X19.4943 Y11.6133 
G00 Z2.5400 
G00 X19.3764 Y12.5726 
G01 Z-0.1778 F127.00 
G01 X19.3035 Y12.6455 F254.00 
G01 X18.7553 Y13.1938 
G01 X18.7576 Y13.1995 
G01 X18.7959 Y13.3919 
G01 X18.7959 Y13.5881 
G01 X18.7576 Y13.7805 
G01 X18.7485 Y13.8024 
G01 X19.3545 Y13.1965 
G01 X19.4465 Y13.1045 
G01 X19.5592 Y13.0394 
G01 X19.6849 Y13.0057 
G01 X19.7132 Y13.0057 
G01 X19.6652 Y12.9736 
G01 X19.5264 Y12.8348 
G01 X19.4174 Y12.6717 
G01 X19.3764 Y12.5726 
G00 Z2.5400 
G00 X21.1826 Y12.6717 
G01 Z-0.1778 F127.00 
G01 X21.0736 Y12.8348 F254.00 
G01 X20.9348 Y12.9736 
G01 X20.8867 Y13.0057 
G01 X21.2557 Y13.0057 
G01 X21.2557 Y12.4951 
G01 X21.1826 Y12.6717 
G00 Z2.5400 
G00 X21.0736 Y14.0651 
G01 Z-0.1778 F127.00 
G01 X21.1826 Y14.2283 F254.00 
G01 X21.2576 Y14.4095 
G01 X21.2959 Y14.6019 
G01 X21.2959 Y14.7981 
G01 X21.2576 Y14.9905 
G01 X21.1826 Y15.1717 
G01 X21.0736 Y15.3348 
G01 X20.9348 Y15.4736 
G01 X20.7717 Y15.5826 
G01 X20.5905 Y15.6576 
G01 X20.3981 Y15.6959 
G01 X20.2019 Y15.6959 
G01 X20.0095 Y15.6576 
G01 X19.8283 Y15.5826 
G01 X19.6652 Y15.4736 
G01 X19.5264 Y15.3348 
G01 X19.4943 Y15.2867 
G01 X19.4943 Y16.6133 
G01 X19.5264 Y16.5651 
G01 X19.6652 Y16.4264 
G01 X19.8283 Y16.3174 
G01 X20.0095 Y16.2424 
G01 X20.2019 Y16.2041 
G01 X20.3981 Y16.2041 
G01 X20.5639 Y16.2371 
G01 X22.0057 Y14.7952 
G01 X22.0057 Y13.9231 
G01 X21.9408 Y13.9606 
G01 X21.8151 Y13.9943 
G01 X21.0027 Y13.9943 
G01 X21.0736 Y14.0651 
G00 Z2.5400 
G00 X22.9943 Y14.3067 
G01 Z-0.1778 F127.00 
G01 X23.8389 Y13.4620 F254.00 
G01 X23.7960 Y13.4191 
G01 X23.6939 Y13.2786 
G01 X23.6150 Y13.1237 
G01 X23.5613 Y12.9585 
G01 X23.5341 Y12.7869 
G01 X23.5341 Y12.6131 
G01 X23.5613 Y12.4415 
G01 X23.6150 Y12.2762 
G01 X23.6939 Y12.1214 
G01 X23.7960 Y11.9809 
G01 X23.9189 Y11.8580 
G01 X24.0594 Y11.7559 
G01 X24.2142 Y11.6770 
G01 X24.3795 Y11.6233 
G01 X24.5511 Y11.5961 
G01 X26.2489 Y11.5961 
G01 X26.4205 Y11.6233 
G01 X26.5858 Y11.6770 
G01 X26.7406 Y11.7559 
G01 X26.8811 Y11.8580 
G01 X27.0040 Y11.9809 
G01 X27.1061 Y12.1214 
G01 X27.1850 Y12.2762 
G01 X27.2387 Y12.4415 
G01 X27.2659 Y12.6131 
G01 X27.2659 Y12.7869 
G01 X27.2387 Y12.9585 
G01 X27.1850 Y13.1237 
G01 X27.1061 Y13.2786 
G01 X27.0040 Y13.4191 
G01 X26.8811 Y13.5420 
G01 X26.7406 Y13.6441 
G01 X26.5858 Y13.7230 
G01 X26.4205 Y13.7767 
G01 X26.2489 Y13.8039 
G01 X24.8951 Y13.8039 
G01 X24.5629 Y14.1361 
G01 X26.2489 Y14.1361 
G01 X26.4205 Y14.1633 
G01 X26.5858 Y14.2170 
G01 X26.7406 Y14.2959 
G01 X26.8811 Y14.3980 
G01 X27.0040 Y14.5209 
G01 X27.1061 Y14.6614 
G01 X27.1850 Y14.8162 
G01 X27.2387 Y14.9815 
G01 X27.2659 Y15.1531 
G01 X27.2659 Y15.2851 
G01 X27.7557 Y14.7952 
G01 X27.7557 Y8.5683 
G01 X26.9436 Y9.3804 
G01 X27.0040 Y9.4409 
G01 X27.1061 Y9.5814 
G01 X27.1850 Y9.7362 
G01 X27.2387 Y9.9015 
G01 X27.2659 Y10.0731 
G01 X27.2659 Y10.2469 
G01 X27.2387 Y10.4185 
G01 X27.1850 Y10.5838 
G01 X27.1061 Y10.7386 
G01 X27.0040 Y10.8791 
G01 X26.8811 Y11.0020 
G01 X26.7406 Y11.1041 
G01 X26.5858 Y11.1830 
G01 X26.4205 Y11.2367 
G01 X26.2489 Y11.2639 
G01 X24.5511 Y11.2639 
G01 X24.3795 Y11.2367 
G01 X24.2142 Y11.1830 
G01 X24.0594 Y11.1041 
G01 X23.9189 Y11.0020 
G01 X23.7960 Y10.8791 
G01 X23.6939 Y10.7386 
G01 X23.6150 Y10.5838 
G01 X23.5613 Y10.4185 
G01 X23.5341 Y10.2469 
G01 X23.5341 Y10.0731 
G01 X23.5403 Y10.0337 
G01 X22.9943 Y10.5797 
G01 X22.9943 Y14.3067 
G00 Z2.5400 
G00 X23.5954 Y15.6036 
G01 Z-0.1778 F127.00 
G01 X23.5535 Y15.6455 F254.00 
G01 X22.9943 Y16.2047 
G01 X22.9943 Y16.8067 
G01 X23.8189 Y15.9820 
G01 X23.7960 Y15.9591 
G01 X23.6939 Y15.8186 
G01 X23.6150 Y15.6638 
G01 X23.5954 Y15.6036 
G00 Z2.5400 
G00 X24.5176 Y16.6814 
G01 Z-0.1778 F127.00 
G01 X24.5511 Y16.6761 F254.00 
G01 X25.8749 Y16.6761 
G01 X26.2071 Y16.3439 
G01 X24.8551 Y16.3439 
G01 X24.5176 Y16.6814 
G00 Z2.5400 
G00 X22.0057 Y16.1933 
G01 Z-0.1778 F127.00 
G01 X21.2629 Y16.9361 F254.00 
G01 X21.2959 Y17.1019 
G01 X21.2959 Y17.2981 
G01 X21.2576 Y17.4905 
G01 X21.1826 Y17.6717 
G01 X21.0736 Y17.8348 
G01 X20.9348 Y17.9736 
G01 X20.7717 Y18.0826 
G01 X20.5905 Y18.1576 
G01 X20.3981 Y18.1959 
G01 X20.2019 Y18.1959 
G01 X20.0095 Y18.1576 
G01 X19.8283 Y18.0826 
G01 X19.6652 Y17.9736 
G01 X19.5264 Y17.8348 
G01 X19.4174 Y17.6717 
G01 X19.3764 Y17.5726 
G01 X19.3035 Y17.6455 
G01 X18.7553 Y18.1938 
G01 X18.7576 Y18.1995 
G01 X18.7959 Y18.3919 
G01 X18.7959 Y18.5881 
G01 X18.7576 Y18.7805 
G01 X18.6826 Y18.9617 
G01 X18.5736 Y19.1248 
G01 X18.4348 Y19.2636 
G01 X18.2717 Y19.3726 
G01 X18.0905 Y19.4476 
G01 X17.8981 Y19.4859 
G01 X17.7019 Y19.4859 
G01 X17.5095 Y19.4476 
G01 X17.3283 Y19.3726 
G01 X17.1652 Y19.2636 
G01 X17.0264 Y19.1248 
G01 X16.9943 Y19.0767 
G01 X16.9943 Y20.4032 
G01 X17.0264 Y20.3551 
G01 X17.1652 Y20.2164 
G01 X17.3283 Y20.1074 
G01 X17.5095 Y20.0324 
G01 X17.7019 Y19.9941 
G01 X17.8981 Y19.9941 
G01 X18.0905 Y20.0324 
G01 X18.2717 Y20.1074 
G01 X18.4348 Y20.2164 
G01 X18.5736 Y20.3551 
G01 X18.6742 Y20.5057 
G01 X19.7132 Y20.5057 
G01 X19.6652 Y20.4736 
G01 X19.5264 Y20.3348 
G01 X19.4174 Y20.1717 
G01 X19.3424 Y19.9905 
G01 X19.3041 Y19.7981 
G01 X19.3041 Y19.6019 
G01 X19.3424 Y19.4095 
G01 X19.4174 Y19.2283 
G01 X19.5264 Y19.0651 
G01 X19.6652 Y18.9264 
G01 X19.8283 Y18.8174 
G01 X20.0095 Y18.7424 
G01 X20.2019 Y18.7041 
G01 X20.3981 Y18.7041 
G01 X20.5639 Y18.7371 
G01 X22.0057 Y17.2952 
G01 X22.0057 Y16.1933 
G00 Z2.5400 
G00 X22.7557 Y17.9433 
G01 Z-0.1778 F127.00 
G01 X21.2629 Y19.4361 F254.00 
G01 X21.2959 Y19.6019 
G01 X21.2959 Y19.7981 
G01 X21.2576 Y19.9905 
G01 X21.1826 Y20.1717 
G01 X21.0736 Y20.3348 
G01 X20.9348 Y20.4736 
G01 X20.8867 Y20.5057 
G01 X22.7557 Y20.5057 
G01 X22.7557 Y17.9433 
G00 Z2.5400 
G00 X23.7443 Y20.9680 
G01 Z-0.1778 F127.00 
G01 X23.7443 Y21.0651 F254.00 
G01 X23.7106 Y21.1908 
G01 X23.6455 Y21.3035 
G01 X23.5535 Y21.3955 
G01 X23.4408 Y21.4606 
G01 X23.3151 Y21.4943 
G01 X18.6608 Y21.4943 
G01 X18.5736 Y21.6248 
G01 X18.4348 Y21.7636 
G01 X18.2717 Y21.8726 
G01 X18.0905 Y21.9476 
G01 X17.8981 Y21.9859 
G01 X17.7019 Y21.9859 
G01 X17.5095 Y21.9476 
G01 X17.3283 Y21.8726 
G01 X17.1652 Y21.7636 
G01 X17.0264 Y21.6248 
G01 X16.9943 Y21.5767 
G01 X16.9943 Y25.1326 
G01 X17.0609 Y25.0660 
G01 X17.2014 Y24.9639 
G01 X17.3562 Y24.8850 
G01 X17.5215 Y24.8313 
G01 X17.6931 Y24.8041 
G01 X17.8669 Y24.8041 
G01 X18.0385 Y24.8313 
G01 X18.2037 Y24.8850 
G01 X18.3586 Y24.9639 
G01 X18.4991 Y25.0660 
G01 X18.6220 Y25.1889 
G01 X18.7241 Y25.3294 
G01 X18.8030 Y25.4842 
G01 X18.8567 Y25.6495 
G01 X18.8839 Y25.8211 
G01 X18.8839 Y27.5189 
G01 X18.8567 Y27.6905 
G01 X18.8030 Y27.8558 
G01 X18.7241 Y28.0106 
G01 X18.6220 Y28.1511 
G01 X18.5174 Y28.2557 
G01 X19.5826 Y28.2557 
G01 X19.4780 Y28.1511 
G01 X19.3759 Y28.0106 
G01 X19.2970 Y27.8558 
G01 X19.2433 Y27.6905 
G01 X19.2161 Y27.5189 
G01 X19.2161 Y25.8211 
G01 X19.2433 Y25.6495 
G01 X19.2970 Y25.4842 
G01 X19.3759 Y25.3294 
G01 X19.4780 Y25.1889 
G01 X19.6009 Y25.0660 
G01 X19.7414 Y24.9639 
G01 X19.8962 Y24.8850 
G01 X20.0615 Y24.8313 
G01 X20.2331 Y24.8041 
G01 X20.4069 Y24.8041 
G01 X20.5785 Y24.8313 
G01 X20.7437 Y24.8850 
G01 X20.8986 Y24.9639 
G01 X21.0391 Y25.0660 
G01 X21.1307 Y25.1576 
G01 X21.1307 Y24.0599 
G01 X21.1644 Y23.9342 
G01 X21.2295 Y23.8215 
G01 X21.3215 Y23.7295 
G01 X23.9039 Y21.1471 
G01 X23.7960 Y21.0391 
G01 X23.7443 Y20.9680 
G00 Z2.5400 
G00 X18.0305 Y17.5204 
G01 Z-0.1778 F127.00 
G01 X18.5057 Y17.0452 F254.00 
G01 X18.5057 Y16.6927 
G01 X18.4348 Y16.7636 
G01 X18.2717 Y16.8726 
G01 X18.0905 Y16.9476 
G01 X17.8981 Y16.9859 
G01 X17.7019 Y16.9859 
G01 X17.5095 Y16.9476 
G01 X17.3283 Y16.8726 
G01 X17.1652 Y16.7636 
G01 X17.0264 Y16.6248 
G01 X16.9943 Y16.5767 
G01 X16.9943 Y17.9032 
G01 X17.0264 Y17.8551 
G01 X17.1652 Y17.7164 
G01 X17.3283 Y17.6074 
G01 X17.5095 Y17.5324 
G01 X17.7019 Y17.4941 
G01 X17.8981 Y17.4941 
G01 X18.0305 Y17.5204 
G00 Z2.5400 
G00 X18.0905 Y15.0324 
G01 Z-0.1778 F127.00 
G01 X18.2717 Y15.1074 F254.00 
G01 X18.4348 Y15.2164 
G01 X18.5057 Y15.2873 
G01 X18.5057 Y14.1927 
G01 X18.4348 Y14.2636 
G01 X18.2717 Y14.3726 
G01 X18.0905 Y14.4476 
G01 X17.8981 Y14.4859 
G01 X17.7019 Y14.4859 
G01 X17.5095 Y14.4476 
G01 X17.3283 Y14.3726 
G01 X17.1652 Y14.2636 
G01 X17.0264 Y14.1248 
G01 X16.9943 Y14.0767 
G01 X16.9943 Y15.4032 
G01 X17.0264 Y15.3552 
G01 X17.1652 Y15.2164 
G01 X17.3283 Y15.1074 
G01 X17.5095 Y15.0324 
G01 X17.7019 Y14.9941 
G01 X17.8981 Y14.9941 
G01 X18.0905 Y15.0324 
G00 Z2.5400 
G00 X19.4943 Y8.1703 
G01 Z-0.1778 F127.00 
G01 X20.0570 Y8.7329 F254.00 
G01 X20.2019 Y8.7041 
G01 X20.3981 Y8.7041 
G01 X20.5905 Y8.7424 
G01 X20.7717 Y8.8174 
G01 X20.9348 Y8.9264 
G01 X21.0736 Y9.0651 
G01 X21.1826 Y9.2283 
G01 X21.2557 Y9.4049 
G01 X21.2557 Y8.5599 
G01 X21.2894 Y8.4342 
G01 X21.3545 Y8.3215 
G01 X23.6817 Y5.9943 
G01 X19.1193 Y5.9943 
G01 X19.1193 Y7.0453 
G01 X19.3041 Y7.2301 
G01 X19.3041 Y7.1019 
G01 X19.3424 Y6.9095 
G01 X19.4174 Y6.7283 
G01 X19.5264 Y6.5652 
G01 X19.6652 Y6.4264 
G01 X19.8283 Y6.3174 
G01 X20.0095 Y6.2424 
G01 X20.2019 Y6.2041 
G01 X20.3981 Y6.2041 
G01 X20.5905 Y6.2424 
G01 X20.7717 Y6.3174 
G01 X20.9348 Y6.4264 
G01 X21.0736 Y6.5652 
G01 X21.1826 Y6.7283 
G01 X21.2576 Y6.9095 
G01 X21.2959 Y7.1019 
G01 X21.2959 Y7.2981 
G01 X21.2576 Y7.4905 
G01 X21.1826 Y7.6717 
G01 X21.0736 Y7.8348 
G01 X20.9348 Y7.9736 
G01 X20.7717 Y8.0826 
G01 X20.5905 Y8.1576 
G01 X20.3981 Y8.1959 
G01 X20.2019 Y8.1959 
G01 X20.0095 Y8.1576 
G01 X19.8283 Y8.0826 
G01 X19.6652 Y7.9736 
G01 X19.5264 Y7.8348 
G01 X19.4943 Y7.7867 
G01 X19.4943 Y8.1703 
G00 Z2.5400 
G00 X22.2443 Y8.8297 
G01 Z-0.1778 F127.00 
G01 X22.2443 Y9.9317 F254.00 
G01 X23.8164 Y8.3596 
G01 X23.7960 Y8.3391 
G01 X23.6939 Y8.1986 
G01 X23.6150 Y8.0437 
G01 X23.5613 Y7.8785 
G01 X23.5341 Y7.7069 
G01 X23.5341 Y7.5399 
G01 X22.2443 Y8.8297 
G00 Z2.5400 
G00 X24.5117 Y9.0623 
G01 Z-0.1778 F127.00 
G01 X24.5511 Y9.0561 F254.00 
G01 X25.8699 Y9.0561 
G01 X26.2021 Y8.7239 
G01 X24.8501 Y8.7239 
G01 X24.5117 Y9.0623 
G00 Z2.5400 
G00 X26.8348 Y6.7443 
G01 Z-0.1778 F127.00 
G01 X26.8811 Y6.7780 F254.00 
G01 X27.0040 Y6.9009 
G01 X27.0057 Y6.7443 
G01 X26.8348 Y6.7443 
G00 Z2.5400 
G00 X12.2674 Y6.8539 
G01 Z-0.1778 F127.00 
G01 X12.3539 Y6.7674 F254.00 
G01 X12.4557 Y6.6994 
G01 X12.5688 Y6.6526 
G01 X12.6888 Y6.6287 
G01 X18.0037 Y6.6287 
G01 X18.0037 Y5.4388 
G01 X18.0276 Y5.3188 
G01 X18.0744 Y5.2057 
G01 X18.1424 Y5.1039 
G01 X18.2289 Y5.0174 
G01 X18.3307 Y4.9494 
G01 X18.4438 Y4.9026 
G01 X18.5638 Y4.8787 
G01 X27.8112 Y4.8787 
G01 X27.9312 Y4.9026 
G01 X28.0443 Y4.9494 
G01 X28.1461 Y5.0174 
G01 X28.2326 Y5.1039 
G01 X28.7326 Y5.6039 
G01 X28.8006 Y5.7057 
G01 X28.8474 Y5.8188 
G01 X28.8713 Y5.9388 
G01 X28.8713 Y15.0612 
G01 X28.8474 Y15.1812 
G01 X28.8006 Y15.2943 
G01 X28.7326 Y15.3961 
G01 X28.6461 Y15.4826 
G01 X27.1218 Y17.0069 
G01 X27.2148 Y17.1349 
G01 X27.3027 Y17.3075 
G01 X27.3626 Y17.4918 
G01 X27.3929 Y17.6831 
G01 X27.3929 Y17.8769 
G01 X27.3626 Y18.0682 
G01 X27.3027 Y18.2525 
G01 X27.2148 Y18.4251 
G01 X27.1009 Y18.5819 
G01 X26.9639 Y18.7189 
G01 X26.8071 Y18.8328 
G01 X26.6345 Y18.9207 
G01 X26.4502 Y18.9806 
G01 X26.2589 Y19.0109 
G01 X24.5411 Y19.0109 
G01 X24.3498 Y18.9806 
G01 X24.1655 Y18.9207 
G01 X23.9929 Y18.8328 
G01 X23.8713 Y18.7444 
G01 X23.8713 Y19.3556 
G01 X23.9929 Y19.2672 
G01 X24.1655 Y19.1793 
G01 X24.3498 Y19.1194 
G01 X24.5411 Y19.0891 
G01 X26.2589 Y19.0891 
G01 X26.4502 Y19.1194 
G01 X26.6345 Y19.1793 
G01 X26.8071 Y19.2672 
G01 X26.9639 Y19.3811 
G01 X27.1009 Y19.5181 
G01 X27.2148 Y19.6749 
G01 X27.3027 Y19.8475 
G01 X27.3626 Y20.0318 
G01 X27.3929 Y20.2231 
G01 X27.3929 Y20.4169 
G01 X27.3626 Y20.6082 
G01 X27.3027 Y20.7925 
G01 X27.2148 Y20.9651 
G01 X27.1009 Y21.1219 
G01 X26.9639 Y21.2589 
G01 X26.8071 Y21.3728 
G01 X26.6345 Y21.4607 
G01 X26.4502 Y21.5206 
G01 X26.2589 Y21.5509 
G01 X25.0778 Y21.5509 
G01 X22.2463 Y24.3823 
G01 X22.2463 Y28.0612 
G01 X22.2224 Y28.1812 
G01 X22.1756 Y28.2943 
G01 X22.1076 Y28.3961 
G01 X21.3576 Y29.1461 
G01 X21.2711 Y29.2326 
G01 X21.1693 Y29.3006 
G01 X21.0562 Y29.3474 
G01 X20.9362 Y29.3713 
G01 X12.6888 Y29.3713 
G01 X12.5688 Y29.3474 
G01 X12.4557 Y29.3006 
G01 X12.3539 Y29.2326 
G01 X12.2674 Y29.1461 
G01 X12.1994 Y29.0443 
G01 X12.1526 Y28.9312 
G01 X12.1287 Y28.8112 
G01 X12.1287 Y22.8209 
G01 X11.8411 Y22.8209 
G01 X11.6498 Y22.7906 
G01 X11.4655 Y22.7307 
G01 X11.2929 Y22.6428 
G01 X11.1361 Y22.5289 
G01 X10.9991 Y22.3919 
G01 X10.8852 Y22.2351 
G01 X10.7973 Y22.0625 
G01 X10.7374 Y21.8782 
G01 X10.7071 Y21.6869 
G01 X10.7071 Y21.4931 
G01 X10.7374 Y21.3018 
G01 X10.7973 Y21.1175 
G01 X10.8852 Y20.9449 
G01 X10.9991 Y20.7881 
G01 X11.1361 Y20.6511 
G01 X11.2929 Y20.5372 
G01 X11.4655 Y20.4493 
G01 X11.6498 Y20.3894 
G01 X11.8411 Y20.3591 
G01 X13.1372 Y20.3591 
G01 X13.2155 Y20.2809 
G01 X11.8411 Y20.2809 
G01 X11.6498 Y20.2506 
G01 X11.4655 Y20.1907 
G01 X11.2929 Y20.1028 
G01 X11.1361 Y19.9889 
G01 X10.9991 Y19.8519 
G01 X10.8852 Y19.6951 
G01 X10.7973 Y19.5225 
G01 X10.7374 Y19.3382 
G01 X10.7071 Y19.1469 
G01 X10.7071 Y18.9531 
G01 X10.7374 Y18.7618 
G01 X10.7973 Y18.5775 
G01 X10.8852 Y18.4049 
G01 X10.9991 Y18.2481 
G01 X11.1361 Y18.1111 
G01 X11.2929 Y17.9972 
G01 X11.4655 Y17.9093 
G01 X11.6498 Y17.8494 
G01 X11.8411 Y17.8191 
G01 X12.1287 Y17.8191 
G01 X12.1287 Y7.1888 
G01 X12.1526 Y7.0688 
G01 X12.1994 Y6.9557 
G01 X12.2674 Y6.8539 
G00 Z2.5400 
G00 X13.3713 Y7.8713 
G01 Z-0.1778 F127.00 
G01 X13.3713 Y17.8191 F254.00 
G01 X13.5589 Y17.8191 
G01 X13.7502 Y17.8494 
G01 X13.9345 Y17.9093 
G01 X14.1071 Y17.9972 
G01 X14.2537 Y18.1037 
G01 X14.2537 Y9.6888 
G01 X14.2776 Y9.5688 
G01 X14.3244 Y9.4557 
G01 X14.3924 Y9.3539 
G01 X14.4789 Y9.2674 
G01 X14.5807 Y9.1994 
G01 X14.6938 Y9.1526 
G01 X14.8138 Y9.1287 
G01 X16.6771 Y9.1287 
G01 X16.6771 Y7.8713 
G01 X13.3713 Y7.8713 
G00 Z2.5400 
G00 X15.4963 Y10.3713 
G01 Z-0.1778 F127.00 
G01 X15.4963 Y19.5612 F254.00 
G01 X15.4724 Y19.6812 
G01 X15.4256 Y19.7943 
G01 X15.3576 Y19.8961 
G01 X14.4281 Y20.8256 
G01 X14.5148 Y20.9449 
G01 X14.6027 Y21.1175 
G01 X14.6626 Y21.3018 
G01 X14.6929 Y21.4931 
G01 X14.6929 Y21.6869 
G01 X14.6626 Y21.8782 
G01 X14.6027 Y22.0625 
G01 X14.5148 Y22.2351 
G01 X14.4009 Y22.3919 
G01 X14.2639 Y22.5289 
G01 X14.1071 Y22.6428 
G01 X13.9345 Y22.7307 
G01 X13.7502 Y22.7906 
G01 X13.5589 Y22.8209 
G01 X13.3713 Y22.8209 
G01 X13.3713 Y28.1287 
G01 X16.7647 Y28.1287 
G01 X16.7272 Y28.0771 
G01 X16.6393 Y27.9045 
G01 X16.5794 Y27.7202 
G01 X16.5491 Y27.5289 
G01 X16.5491 Y26.3027 
G01 X16.0174 Y25.7711 
G01 X15.9494 Y25.6693 
G01 X15.9026 Y25.5562 
G01 X15.8787 Y25.4362 
G01 X15.8787 Y12.1888 
G01 X15.9026 Y12.0688 
G01 X15.9494 Y11.9557 
G01 X16.0174 Y11.8539 
G01 X16.1039 Y11.7674 
G01 X16.6929 Y11.1784 
G01 X16.6771 Y11.0784 
G01 X16.6771 Y10.9016 
G01 X16.7048 Y10.7271 
G01 X16.7594 Y10.5590 
G01 X16.8396 Y10.4015 
G01 X16.8615 Y10.3713 
G01 X15.4963 Y10.3713 
G00 Z2.5400 
G00 X17.5425 Y12.0861 
G01 Z-0.1778 F127.00 
G01 X17.1213 Y12.5074 F254.00 
G01 X17.1213 Y12.5951 
G01 X17.2115 Y12.5296 
G01 X17.3690 Y12.4494 
G01 X17.5371 Y12.3948 
G01 X17.7116 Y12.3671 
G01 X17.8884 Y12.3671 
G01 X17.9884 Y12.3829 
G01 X18.3787 Y11.9926 
G01 X18.3787 Y11.9554 
G01 X18.2310 Y12.0306 
G01 X18.0629 Y12.0852 
G01 X17.8884 Y12.1129 
G01 X17.7116 Y12.1129 
G01 X17.5425 Y12.0861 
G00 Z2.5400 
G00 X19.3398 Y12.7888 
G01 Z-0.1778 F127.00 
G01 X18.8961 Y13.2325 F254.00 
G01 X18.9229 Y13.4016 
G01 X18.9229 Y13.4485 
G01 X19.2674 Y13.1039 
G01 X19.3539 Y13.0174 
G01 X19.4557 Y12.9494 
G01 X19.4597 Y12.9477 
G01 X19.4435 Y12.9315 
G01 X19.3398 Y12.7888 
G00 Z2.5400 
G00 X19.6213 Y11.3051 
G01 Z-0.1778 F127.00 
G01 X19.7115 Y11.2396 F254.00 
G01 X19.8690 Y11.1594 
G01 X20.0371 Y11.1047 
G01 X20.2116 Y11.0771 
G01 X20.3884 Y11.0771 
G01 X20.5629 Y11.1047 
G01 X20.7310 Y11.1594 
G01 X20.8885 Y11.2396 
G01 X21.0315 Y11.3435 
G01 X21.1287 Y11.4407 
G01 X21.1287 Y10.4593 
G01 X21.0315 Y10.5565 
G01 X20.8885 Y10.6604 
G01 X20.7310 Y10.7406 
G01 X20.5629 Y10.7952 
G01 X20.3884 Y10.8229 
G01 X20.2116 Y10.8229 
G01 X20.0371 Y10.7952 
G01 X19.8690 Y10.7406 
G01 X19.7115 Y10.6604 
G01 X19.6213 Y10.5949 
G01 X19.6213 Y11.3051 
G00 Z2.5400 
G00 X19.1790 Y9.8003 
G01 Z-0.1778 F127.00 
G01 X19.1771 Y9.7884 F254.00 
G01 X19.1771 Y9.6116 
G01 X19.2018 Y9.4555 
G01 X18.9229 Y9.1765 
G01 X18.9229 Y9.2057 
G01 X18.8909 Y9.3250 
G01 X18.8292 Y9.4319 
G01 X18.8199 Y9.4412 
G01 X19.1790 Y9.8003 
G00 Z2.5400 
G00 X19.6213 Y8.1176 
G01 Z-0.1778 F127.00 
G01 X20.0986 Y8.5950 F254.00 
G01 X20.2116 Y8.5771 
G01 X20.3884 Y8.5771 
G01 X20.5629 Y8.6047 
G01 X20.7310 Y8.6594 
G01 X20.8885 Y8.7396 
G01 X21.0315 Y8.8435 
G01 X21.1287 Y8.9407 
G01 X21.1287 Y8.5638 
G01 X21.1526 Y8.4438 
G01 X21.1994 Y8.3307 
G01 X21.2674 Y8.2289 
G01 X23.3751 Y6.1213 
G01 X20.6139 Y6.1213 
G01 X20.7310 Y6.1594 
G01 X20.8885 Y6.2396 
G01 X21.0315 Y6.3435 
G01 X21.1565 Y6.4685 
G01 X21.2604 Y6.6115 
G01 X21.3406 Y6.7690 
G01 X21.3952 Y6.9371 
G01 X21.4229 Y7.1116 
G01 X21.4229 Y7.2884 
G01 X21.3952 Y7.4629 
G01 X21.3406 Y7.6310 
G01 X21.2604 Y7.7885 
G01 X21.1565 Y7.9315 
G01 X21.0315 Y8.0565 
G01 X20.8885 Y8.1604 
G01 X20.7310 Y8.2406 
G01 X20.5629 Y8.2952 
G01 X20.3884 Y8.3229 
G01 X20.2116 Y8.3229 
G01 X20.0371 Y8.2952 
G01 X19.8690 Y8.2406 
G01 X19.7115 Y8.1604 
G01 X19.6213 Y8.0949 
G01 X19.6213 Y8.1176 
G00 Z2.5400 
G00 X19.2463 Y6.8092 
G01 Z-0.1778 F127.00 
G01 X19.2594 Y6.7690 F254.00 
G01 X19.3396 Y6.6115 
G01 X19.4435 Y6.4685 
G01 X19.5685 Y6.3435 
G01 X19.7115 Y6.2396 
G01 X19.8690 Y6.1594 
G01 X19.9861 Y6.1213 
G01 X19.2463 Y6.1213 
G01 X19.2463 Y6.8092 
G00 Z2.5400 
G00 X23.4248 Y7.8288 
G01 Z-0.1778 F127.00 
G01 X22.3713 Y8.8824 F254.00 
G01 X22.3713 Y9.6251 
G01 X23.6467 Y8.3497 
G01 X23.5852 Y8.2651 
G01 X23.4973 Y8.0925 
G01 X23.4374 Y7.9082 
G01 X23.4248 Y7.8288 
G00 Z2.5400 
G00 X24.9027 Y8.8509 
G01 Z-0.1778 F127.00 
G01 X24.8245 Y8.9291 F254.00 
G01 X25.8173 Y8.9291 
G01 X25.8955 Y8.8509 
G01 X24.9027 Y8.8509 
G00 Z2.5400 
G00 X27.6287 Y8.8749 
G01 Z-0.1778 F127.00 
G01 X27.1197 Y9.3840 F254.00 
G01 X27.2148 Y9.5149 
G01 X27.3027 Y9.6875 
G01 X27.3626 Y9.8718 
G01 X27.3929 Y10.0631 
G01 X27.3929 Y10.2569 
G01 X27.3626 Y10.4482 
G01 X27.3027 Y10.6325 
G01 X27.2148 Y10.8051 
G01 X27.1009 Y10.9619 
G01 X26.9639 Y11.0989 
G01 X26.8071 Y11.2128 
G01 X26.6345 Y11.3007 
G01 X26.4502 Y11.3606 
G01 X26.2589 Y11.3909 
G01 X24.5411 Y11.3909 
G01 X24.3498 Y11.3606 
G01 X24.1655 Y11.3007 
G01 X23.9929 Y11.2128 
G01 X23.8361 Y11.0989 
G01 X23.6991 Y10.9619 
G01 X23.5852 Y10.8051 
G01 X23.4973 Y10.6325 
G01 X23.4374 Y10.4482 
G01 X23.4194 Y10.3343 
G01 X23.1213 Y10.6324 
G01 X23.1213 Y14.0001 
G01 X23.6656 Y13.4557 
G01 X23.5852 Y13.3451 
G01 X23.4973 Y13.1725 
G01 X23.4374 Y12.9882 
G01 X23.4071 Y12.7969 
G01 X23.4071 Y12.6031 
G01 X23.4374 Y12.4118 
G01 X23.4973 Y12.2275 
G01 X23.5852 Y12.0549 
G01 X23.6991 Y11.8981 
G01 X23.8361 Y11.7611 
G01 X23.9929 Y11.6472 
G01 X24.1655 Y11.5593 
G01 X24.3498 Y11.4994 
G01 X24.5411 Y11.4691 
G01 X26.2589 Y11.4691 
G01 X26.4502 Y11.4994 
G01 X26.6345 Y11.5593 
G01 X26.8071 Y11.6472 
G01 X26.9639 Y11.7611 
G01 X27.1009 Y11.8981 
G01 X27.2148 Y12.0549 
G01 X27.3027 Y12.2275 
G01 X27.3626 Y12.4118 
G01 X27.3929 Y12.6031 
G01 X27.3929 Y12.7969 
G01 X27.3626 Y12.9882 
G01 X27.3027 Y13.1725 
G01 X27.2148 Y13.3451 
G01 X27.1009 Y13.5019 
G01 X26.9639 Y13.6389 
G01 X26.8071 Y13.7528 
G01 X26.6345 Y13.8407 
G01 X26.4502 Y13.9006 
G01 X26.2589 Y13.9309 
G01 X24.9477 Y13.9309 
G01 X24.8695 Y14.0091 
G01 X26.2589 Y14.0091 
G01 X26.4502 Y14.0394 
G01 X26.6345 Y14.0993 
G01 X26.8071 Y14.1872 
G01 X26.9639 Y14.3011 
G01 X27.1009 Y14.4381 
G01 X27.2148 Y14.5949 
G01 X27.3027 Y14.7675 
G01 X27.3626 Y14.9518 
G01 X27.3704 Y15.0010 
G01 X27.6287 Y14.7426 
G01 X27.6287 Y8.8749 
G00 Z2.5400 
G00 X25.9005 Y16.4709 
G01 Z-0.1778 F127.00 
G01 X24.9078 Y16.4709 F254.00 
G01 X24.8295 Y16.5491 
G01 X25.8223 Y16.5491 
G01 X25.9005 Y16.4709 
G00 Z2.5400 
G00 X23.6488 Y15.9726 
G01 Z-0.1778 F127.00 
G01 X23.5852 Y15.8851 F254.00 
G01 X23.5543 Y15.8244 
G01 X23.1213 Y16.2573 
G01 X23.1213 Y16.5001 
G01 X23.6488 Y15.9726 
G00 Z2.5400 
G00 X21.8787 Y16.4999 
G01 Z-0.1778 F127.00 
G01 X21.4016 Y16.9771 F254.00 
G01 X21.4229 Y17.1116 
G01 X21.4229 Y17.2884 
G01 X21.3952 Y17.4629 
G01 X21.3406 Y17.6310 
G01 X21.2604 Y17.7885 
G01 X21.1565 Y17.9315 
G01 X21.0315 Y18.0565 
G01 X20.8885 Y18.1604 
G01 X20.7310 Y18.2406 
G01 X20.5629 Y18.2952 
G01 X20.3884 Y18.3229 
G01 X20.2116 Y18.3229 
G01 X20.0371 Y18.2952 
G01 X19.8690 Y18.2406 
G01 X19.7115 Y18.1604 
G01 X19.5685 Y18.0565 
G01 X19.4435 Y17.9315 
G01 X19.3398 Y17.7888 
G01 X18.8961 Y18.2325 
G01 X18.9229 Y18.4016 
G01 X18.9229 Y18.5784 
G01 X18.8952 Y18.7529 
G01 X18.8406 Y18.9210 
G01 X18.7604 Y19.0785 
G01 X18.6565 Y19.2215 
G01 X18.5315 Y19.3465 
G01 X18.3885 Y19.4504 
G01 X18.2310 Y19.5306 
G01 X18.0629 Y19.5852 
G01 X17.8884 Y19.6129 
G01 X17.7116 Y19.6129 
G01 X17.5371 Y19.5852 
G01 X17.3690 Y19.5306 
G01 X17.2115 Y19.4504 
G01 X17.1213 Y19.3849 
G01 X17.1213 Y20.0951 
G01 X17.2115 Y20.0296 
G01 X17.3690 Y19.9494 
G01 X17.5371 Y19.8947 
G01 X17.7116 Y19.8671 
G01 X17.8884 Y19.8671 
G01 X18.0629 Y19.8947 
G01 X18.2310 Y19.9494 
G01 X18.3885 Y20.0296 
G01 X18.5315 Y20.1335 
G01 X18.6565 Y20.2585 
G01 X18.7438 Y20.3787 
G01 X19.4051 Y20.3787 
G01 X19.3396 Y20.2885 
G01 X19.2594 Y20.1310 
G01 X19.2048 Y19.9629 
G01 X19.1771 Y19.7884 
G01 X19.1771 Y19.6116 
G01 X19.2048 Y19.4370 
G01 X19.2594 Y19.2690 
G01 X19.3396 Y19.1115 
G01 X19.4435 Y18.9685 
G01 X19.5685 Y18.8435 
G01 X19.7115 Y18.7396 
G01 X19.8690 Y18.6594 
G01 X20.0371 Y18.6047 
G01 X20.2116 Y18.5771 
G01 X20.3884 Y18.5771 
G01 X20.5229 Y18.5984 
G01 X21.8787 Y17.2426 
G01 X21.8787 Y16.4999 
G00 Z2.5400 
G00 X20.5229 Y16.0984 
G01 Z-0.1778 F127.00 
G01 X21.8787 Y14.7426 F254.00 
G01 X21.8787 Y14.1079 
G01 X21.8112 Y14.1213 
G01 X21.2654 Y14.1213 
G01 X21.3406 Y14.2690 
G01 X21.3952 Y14.4370 
G01 X21.4229 Y14.6116 
G01 X21.4229 Y14.7884 
G01 X21.3952 Y14.9629 
G01 X21.3406 Y15.1310 
G01 X21.2604 Y15.2885 
G01 X21.1565 Y15.4315 
G01 X21.0315 Y15.5565 
G01 X20.8885 Y15.6604 
G01 X20.7310 Y15.7406 
G01 X20.5629 Y15.7952 
G01 X20.3884 Y15.8229 
G01 X20.2116 Y15.8229 
G01 X20.0371 Y15.7952 
G01 X19.8690 Y15.7406 
G01 X19.7115 Y15.6604 
G01 X19.6213 Y15.5949 
G01 X19.6213 Y16.3051 
G01 X19.7115 Y16.2396 
G01 X19.8690 Y16.1594 
G01 X20.0371 Y16.1047 
G01 X20.2116 Y16.0771 
G01 X20.3884 Y16.0771 
G01 X20.5229 Y16.0984 
G00 Z2.5400 
G00 X18.3787 Y16.9554 
G01 Z-0.1778 F127.00 
G01 X18.2310 Y17.0306 F254.00 
G01 X18.0629 Y17.0852 
G01 X17.8884 Y17.1129 
G01 X17.7116 Y17.1129 
G01 X17.5371 Y17.0852 
G01 X17.3690 Y17.0306 
G01 X17.2115 Y16.9504 
G01 X17.1213 Y16.8849 
G01 X17.1213 Y17.5951 
G01 X17.2115 Y17.5296 
G01 X17.3690 Y17.4494 
G01 X17.5371 Y17.3947 
G01 X17.7116 Y17.3671 
G01 X17.8884 Y17.3671 
G01 X17.9884 Y17.3829 
G01 X18.3787 Y16.9926 
G01 X18.3787 Y16.9554 
G00 Z2.5400 
G00 X18.3787 Y15.0246 
G01 Z-0.1778 F127.00 
G01 X18.3787 Y14.4554 F254.00 
G01 X18.2310 Y14.5306 
G01 X18.0629 Y14.5852 
G01 X17.8884 Y14.6129 
G01 X17.7116 Y14.6129 
G01 X17.5371 Y14.5852 
G01 X17.3690 Y14.5306 
G01 X17.2115 Y14.4504 
G01 X17.1213 Y14.3849 
G01 X17.1213 Y15.0951 
G01 X17.2115 Y15.0296 
G01 X17.3690 Y14.9494 
G01 X17.5371 Y14.8948 
G01 X17.7116 Y14.8671 
G01 X17.8884 Y14.8671 
G01 X18.0629 Y14.8948 
G01 X18.2310 Y14.9494 
G01 X18.3787 Y15.0246 
G00 Z2.5400 
G00 X18.3885 Y21.9504 
G01 Z-0.1778 F127.00 
G01 X18.2310 Y22.0306 F254.00 
G01 X18.0629 Y22.0852 
G01 X17.8884 Y22.1129 
G01 X17.7116 Y22.1129 
G01 X17.5371 Y22.0852 
G01 X17.3690 Y22.0306 
G01 X17.2115 Y21.9504 
G01 X17.1213 Y21.8849 
G01 X17.1213 Y24.8651 
G01 X17.1349 Y24.8552 
G01 X17.3075 Y24.7673 
G01 X17.4918 Y24.7074 
G01 X17.6831 Y24.6771 
G01 X17.8769 Y24.6771 
G01 X18.0682 Y24.7074 
G01 X18.2525 Y24.7673 
G01 X18.4251 Y24.8552 
G01 X18.5819 Y24.9691 
G01 X18.7189 Y25.1061 
G01 X18.8328 Y25.2629 
G01 X18.9207 Y25.4355 
G01 X18.9806 Y25.6198 
G01 X19.0109 Y25.8111 
G01 X19.0109 Y27.5289 
G01 X18.9806 Y27.7202 
G01 X18.9207 Y27.9045 
G01 X18.8328 Y28.0771 
G01 X18.7953 Y28.1287 
G01 X19.3047 Y28.1287 
G01 X19.2672 Y28.0771 
G01 X19.1793 Y27.9045 
G01 X19.1194 Y27.7202 
G01 X19.0891 Y27.5289 
G01 X19.0891 Y25.8111 
G01 X19.1194 Y25.6198 
G01 X19.1793 Y25.4355 
G01 X19.2672 Y25.2629 
G01 X19.3811 Y25.1061 
G01 X19.5181 Y24.9691 
G01 X19.6749 Y24.8552 
G01 X19.8475 Y24.7673 
G01 X20.0318 Y24.7074 
G01 X20.2231 Y24.6771 
G01 X20.4169 Y24.6771 
G01 X20.6082 Y24.7074 
G01 X20.7925 Y24.7673 
G01 X20.9651 Y24.8552 
G01 X21.0037 Y24.8833 
G01 X21.0037 Y24.0638 
G01 X21.0276 Y23.9438 
G01 X21.0744 Y23.8307 
G01 X21.1424 Y23.7289 
G01 X21.2289 Y23.6424 
G01 X23.2501 Y21.6213 
G01 X18.7293 Y21.6213 
G01 X18.6565 Y21.7215 
G01 X18.5315 Y21.8465 
G01 X18.3885 Y21.9504 
G00 Z2.5400 
G00 X21.1949 Y20.3787 
G01 Z-0.1778 F127.00 
G01 X22.6287 Y20.3787 F254.00 
G01 X22.6287 Y18.2499 
G01 X21.4016 Y19.4771 
G01 X21.4229 Y19.6116 
G01 X21.4229 Y19.7884 
G01 X21.3952 Y19.9629 
G01 X21.3406 Y20.1310 
G01 X21.2604 Y20.2885 
G01 X21.1949 Y20.3787 
G00 Z2.5400 
G00 X12.1688 Y6.7730 
G01 Z-0.1778 F127.00 
G01 X12.2730 Y6.6688 F254.00 
G01 X12.3955 Y6.5869 
G01 X12.5317 Y6.5305 
G01 X12.6763 Y6.5017 
G01 X17.8767 Y6.5017 
G01 X17.8767 Y5.4263 
G01 X17.9055 Y5.2817 
G01 X17.9619 Y5.1455 
G01 X18.0438 Y5.0230 
G01 X18.1480 Y4.9188 
G01 X18.2705 Y4.8369 
G01 X18.4067 Y4.7805 
G01 X18.5513 Y4.7517 
G01 X27.8237 Y4.7517 
G01 X27.9683 Y4.7805 
G01 X28.1044 Y4.8369 
G01 X28.2270 Y4.9188 
G01 X28.3312 Y5.0230 
G01 X28.8312 Y5.5230 
G01 X28.9131 Y5.6455 
G01 X28.9695 Y5.7817 
G01 X28.9983 Y5.9263 
G01 X28.9983 Y15.0737 
G01 X28.9695 Y15.2183 
G01 X28.9131 Y15.3544 
G01 X28.8312 Y15.4770 
G01 X28.7270 Y15.5812 
G01 X27.2883 Y17.0200 
G01 X27.3234 Y17.0683 
G01 X27.4204 Y17.2587 
G01 X27.4865 Y17.4620 
G01 X27.5199 Y17.6731 
G01 X27.5199 Y17.8869 
G01 X27.4865 Y18.0980 
G01 X27.4204 Y18.3012 
G01 X27.3234 Y18.4917 
G01 X27.1977 Y18.6646 
G01 X27.0466 Y18.8157 
G01 X26.8737 Y18.9414 
G01 X26.6833 Y19.0384 
G01 X26.6476 Y19.0500 
G01 X26.6833 Y19.0616 
G01 X26.8737 Y19.1586 
G01 X27.0466 Y19.2843 
G01 X27.1977 Y19.4354 
G01 X27.3234 Y19.6083 
G01 X27.4204 Y19.7987 
G01 X27.4865 Y20.0020 
G01 X27.5199 Y20.2131 
G01 X27.5199 Y20.4269 
G01 X27.4865 Y20.6380 
G01 X27.4204 Y20.8412 
G01 X27.3234 Y21.0317 
G01 X27.1977 Y21.2046 
G01 X27.0466 Y21.3557 
G01 X26.8737 Y21.4814 
G01 X26.6833 Y21.5784 
G01 X26.4800 Y21.6445 
G01 X26.2689 Y21.6779 
G01 X25.1304 Y21.6779 
G01 X22.3733 Y24.4350 
G01 X22.3733 Y28.0737 
G01 X22.3445 Y28.2183 
G01 X22.2881 Y28.3544 
G01 X22.2062 Y28.4770 
G01 X21.4562 Y29.2270 
G01 X21.3520 Y29.3312 
G01 X21.2294 Y29.4131 
G01 X21.0933 Y29.4695 
G01 X20.9487 Y29.4983 
G01 X12.6763 Y29.4983 
G01 X12.5317 Y29.4695 
G01 X12.3955 Y29.4131 
G01 X12.2730 Y29.3312 
G01 X12.1688 Y29.2270 
G01 X12.0869 Y29.1044 
G01 X12.0305 Y28.9683 
G01 X12.0017 Y28.8237 
G01 X12.0017 Y22.9479 
G01 X11.8311 Y22.9479 
G01 X11.6200 Y22.9145 
G01 X11.4167 Y22.8484 
G01 X11.2263 Y22.7514 
G01 X11.0534 Y22.6257 
G01 X10.9023 Y22.4746 
G01 X10.7766 Y22.3017 
G01 X10.6796 Y22.1112 
G01 X10.6135 Y21.9080 
G01 X10.5801 Y21.6969 
G01 X10.5801 Y21.4831 
G01 X10.6135 Y21.2720 
G01 X10.6796 Y21.0687 
G01 X10.7766 Y20.8783 
G01 X10.9023 Y20.7054 
G01 X11.0534 Y20.5542 
G01 X11.2263 Y20.4286 
G01 X11.4167 Y20.3316 
G01 X11.4524 Y20.3200 
G01 X11.4167 Y20.3084 
G01 X11.2263 Y20.2114 
G01 X11.0534 Y20.0857 
G01 X10.9023 Y19.9346 
G01 X10.7766 Y19.7617 
G01 X10.6796 Y19.5712 
G01 X10.6135 Y19.3680 
G01 X10.5801 Y19.1569 
G01 X10.5801 Y18.9431 
G01 X10.6135 Y18.7320 
G01 X10.6796 Y18.5287 
G01 X10.7766 Y18.3383 
G01 X10.9023 Y18.1654 
G01 X11.0534 Y18.0143 
G01 X11.2263 Y17.8886 
G01 X11.4167 Y17.7916 
G01 X11.6200 Y17.7255 
G01 X11.8311 Y17.6921 
G01 X12.0017 Y17.6921 
G01 X12.0017 Y7.1763 
G01 X12.0305 Y7.0317 
G01 X12.0869 Y6.8955 
G01 X12.1688 Y6.7730 
G00 Z2.5400 
G00 X13.4983 Y7.9983 
G01 Z-0.1778 F127.00 
G01 X13.4983 Y17.6921 F254.00 
G01 X13.5689 Y17.6921 
G01 X13.7800 Y17.7255 
G01 X13.9832 Y17.7916 
G01 X14.1267 Y17.8647 
G01 X14.1267 Y9.6763 
G01 X14.1555 Y9.5317 
G01 X14.2119 Y9.3955 
G01 X14.2938 Y9.2730 
G01 X14.3980 Y9.1688 
G01 X14.5205 Y9.0869 
G01 X14.6567 Y9.0305 
G01 X14.8013 Y9.0017 
G01 X16.5501 Y9.0017 
G01 X16.5501 Y7.9983 
G01 X13.4983 Y7.9983 
G00 Z2.5400 
G00 X15.6233 Y10.4983 
G01 Z-0.1778 F127.00 
G01 X15.6233 Y19.5737 F254.00 
G01 X15.5945 Y19.7183 
G01 X15.5381 Y19.8544 
G01 X15.4562 Y19.9770 
G01 X14.5946 Y20.8387 
G01 X14.6234 Y20.8783 
G01 X14.7204 Y21.0687 
G01 X14.7865 Y21.2720 
G01 X14.8199 Y21.4831 
G01 X14.8199 Y21.6969 
G01 X14.7865 Y21.9080 
G01 X14.7204 Y22.1112 
G01 X14.6234 Y22.3017 
G01 X14.4977 Y22.4746 
G01 X14.3466 Y22.6257 
G01 X14.1737 Y22.7514 
G01 X13.9832 Y22.8484 
G01 X13.7800 Y22.9145 
G01 X13.5689 Y22.9479 
G01 X13.4983 Y22.9479 
G01 X13.4983 Y28.0017 
G01 X16.5463 Y28.0017 
G01 X16.5216 Y27.9533 
G01 X16.4555 Y27.7500 
G01 X16.4221 Y27.5389 
G01 X16.4221 Y26.3554 
G01 X15.9188 Y25.8520 
G01 X15.8369 Y25.7294 
G01 X15.7805 Y25.5933 
G01 X15.7517 Y25.4487 
G01 X15.7517 Y12.1763 
G01 X15.7805 Y12.0317 
G01 X15.8369 Y11.8955 
G01 X15.9188 Y11.7730 
G01 X16.0230 Y11.6688 
G01 X16.5574 Y11.1344 
G01 X16.5501 Y11.0884 
G01 X16.5501 Y10.8916 
G01 X16.5809 Y10.6973 
G01 X16.6417 Y10.5102 
G01 X16.6477 Y10.4983 
G01 X15.6233 Y10.4983 
G00 Z2.5400 
G00 X17.5866 Y12.2217 
G01 Z-0.1778 F127.00 
G01 X17.5430 Y12.2652 F254.00 
G01 X17.7016 Y12.2401 
G01 X17.8984 Y12.2401 
G01 X17.9444 Y12.2474 
G01 X17.9619 Y12.2298 
G01 X17.8984 Y12.2399 
G01 X17.7016 Y12.2399 
G01 X17.5866 Y12.2217 
G00 Z2.5400 
G00 X17.5073 Y14.7091 
G01 Z-0.1778 F127.00 
G01 X17.3202 Y14.6483 F254.00 
G01 X17.2483 Y14.6117 
G01 X17.2483 Y14.8683 
G01 X17.3202 Y14.8317 
G01 X17.5073 Y14.7709 
G01 X17.7016 Y14.7401 
G01 X17.8984 Y14.7401 
G01 X18.0927 Y14.7709 
G01 X18.2517 Y14.8225 
G01 X18.2517 Y14.6575 
G01 X18.0927 Y14.7091 
G01 X17.8984 Y14.7399 
G01 X17.7016 Y14.7399 
G01 X17.5073 Y14.7091 
G00 Z2.5400 
G00 X17.5073 Y17.2091 
G01 Z-0.1778 F127.00 
G01 X17.3202 Y17.1483 F254.00 
G01 X17.2483 Y17.1117 
G01 X17.2483 Y17.3683 
G01 X17.3202 Y17.3317 
G01 X17.5073 Y17.2709 
G01 X17.7016 Y17.2401 
G01 X17.8984 Y17.2401 
G01 X17.9444 Y17.2474 
G01 X17.9619 Y17.2298 
G01 X17.8984 Y17.2399 
G01 X17.7016 Y17.2399 
G01 X17.5073 Y17.2091 
G00 Z2.5400 
G00 X17.5073 Y19.7091 
G01 Z-0.1778 F127.00 
G01 X17.3202 Y19.6483 F254.00 
G01 X17.2483 Y19.6117 
G01 X17.2483 Y19.8683 
G01 X17.3202 Y19.8317 
G01 X17.5073 Y19.7709 
G01 X17.7016 Y19.7401 
G01 X17.8984 Y19.7401 
G01 X18.0927 Y19.7709 
G01 X18.2798 Y19.8317 
G01 X18.4551 Y19.9210 
G01 X18.6143 Y20.0366 
G01 X18.7534 Y20.1757 
G01 X18.8086 Y20.2517 
G01 X19.1783 Y20.2517 
G01 X19.1417 Y20.1798 
G01 X19.0809 Y19.9927 
G01 X19.0501 Y19.7984 
G01 X19.0501 Y19.6016 
G01 X19.0809 Y19.4073 
G01 X19.1417 Y19.2202 
G01 X19.2310 Y19.0449 
G01 X19.3466 Y18.8857 
G01 X19.4857 Y18.7466 
G01 X19.6449 Y18.6310 
G01 X19.8202 Y18.5417 
G01 X20.0073 Y18.4809 
G01 X20.2016 Y18.4501 
G01 X20.3984 Y18.4501 
G01 X20.4789 Y18.4629 
G01 X20.5094 Y18.4323 
G01 X20.3984 Y18.4499 
G01 X20.2016 Y18.4499 
G01 X20.0073 Y18.4191 
G01 X19.8202 Y18.3583 
G01 X19.6449 Y18.2690 
G01 X19.4857 Y18.1534 
G01 X19.3466 Y18.0143 
G01 X19.3245 Y17.9838 
G01 X19.0317 Y18.2766 
G01 X19.0499 Y18.3916 
G01 X19.0499 Y18.5884 
G01 X19.0191 Y18.7827 
G01 X18.9583 Y18.9698 
G01 X18.8690 Y19.1451 
G01 X18.7534 Y19.3043 
G01 X18.6143 Y19.4434 
G01 X18.4551 Y19.5590 
G01 X18.2798 Y19.6483 
G01 X18.0927 Y19.7091 
G01 X17.8984 Y19.7399 
G01 X17.7016 Y19.7399 
G01 X17.5073 Y19.7091 
G00 Z2.5400 
G00 X17.5073 Y22.2091 
G01 Z-0.1778 F127.00 
G01 X17.3202 Y22.1483 F254.00 
G01 X17.2483 Y22.1117 
G01 X17.2483 Y24.6549 
G01 X17.2587 Y24.6496 
G01 X17.4620 Y24.5835 
G01 X17.6731 Y24.5501 
G01 X17.8869 Y24.5501 
G01 X18.0980 Y24.5835 
G01 X18.3012 Y24.6496 
G01 X18.4917 Y24.7466 
G01 X18.6646 Y24.8723 
G01 X18.8157 Y25.0234 
G01 X18.9414 Y25.1963 
G01 X19.0384 Y25.3867 
G01 X19.0500 Y25.4224 
G01 X19.0616 Y25.3867 
G01 X19.1586 Y25.1963 
G01 X19.2843 Y25.0234 
G01 X19.4354 Y24.8723 
G01 X19.6083 Y24.7466 
G01 X19.7987 Y24.6496 
G01 X20.0020 Y24.5835 
G01 X20.2131 Y24.5501 
G01 X20.4269 Y24.5501 
G01 X20.6380 Y24.5835 
G01 X20.8412 Y24.6496 
G01 X20.8767 Y24.6676 
G01 X20.8767 Y24.0513 
G01 X20.9055 Y23.9067 
G01 X20.9619 Y23.7705 
G01 X21.0438 Y23.6480 
G01 X21.1480 Y23.5438 
G01 X22.9434 Y21.7483 
G01 X18.7940 Y21.7483 
G01 X18.7534 Y21.8043 
G01 X18.6143 Y21.9434 
G01 X18.4551 Y22.0590 
G01 X18.2798 Y22.1483 
G01 X18.0927 Y22.2091 
G01 X17.8984 Y22.2399 
G01 X17.7016 Y22.2399 
G01 X17.5073 Y22.2091 
G00 Z2.5400 
G00 X21.4217 Y20.2517 
G01 Z-0.1778 F127.00 
G01 X22.5017 Y20.2517 F254.00 
G01 X22.5017 Y18.5566 
G01 X21.5371 Y19.5211 
G01 X21.5499 Y19.6016 
G01 X21.5499 Y19.7984 
G01 X21.5191 Y19.9927 
G01 X21.4583 Y20.1798 
G01 X21.4217 Y20.2517 
G00 Z2.5400 
G00 X21.5323 Y17.4094 
G01 Z-0.1778 F127.00 
G01 X21.7517 Y17.1900 F254.00 
G01 X21.7517 Y16.8066 
G01 X21.5371 Y17.0211 
G01 X21.5499 Y17.1016 
G01 X21.5499 Y17.2984 
G01 X21.5323 Y17.4094 
G00 Z2.5400 
G00 X20.4789 Y15.9629 
G01 Z-0.1778 F127.00 
G01 X20.5094 Y15.9323 F254.00 
G01 X20.3984 Y15.9499 
G01 X20.2016 Y15.9499 
G01 X20.0073 Y15.9191 
G01 X19.8202 Y15.8583 
G01 X19.7483 Y15.8217 
G01 X19.7483 Y16.0783 
G01 X19.8202 Y16.0417 
G01 X20.0073 Y15.9809 
G01 X20.2016 Y15.9501 
G01 X20.3984 Y15.9501 
G01 X20.4789 Y15.9629 
G00 Z2.5400 
G00 X21.5323 Y14.9094 
G01 Z-0.1778 F127.00 
G01 X21.7517 Y14.6900 F254.00 
G01 X21.7517 Y14.2483 
G01 X21.4674 Y14.2483 
G01 X21.5191 Y14.4073 
G01 X21.5499 Y14.6016 
G01 X21.5499 Y14.7984 
G01 X21.5323 Y14.9094 
G00 Z2.5400 
G00 X23.2483 Y13.6934 
G01 Z-0.1778 F127.00 
G01 X23.4991 Y13.4426 F254.00 
G01 X23.4766 Y13.4117 
G01 X23.3796 Y13.2212 
G01 X23.3135 Y13.0180 
G01 X23.2801 Y12.8069 
G01 X23.2801 Y12.5931 
G01 X23.3135 Y12.3820 
G01 X23.3796 Y12.1787 
G01 X23.4766 Y11.9883 
G01 X23.6023 Y11.8154 
G01 X23.7534 Y11.6642 
G01 X23.9263 Y11.5386 
G01 X24.1167 Y11.4416 
G01 X24.1524 Y11.4300 
G01 X24.1167 Y11.4184 
G01 X23.9263 Y11.3214 
G01 X23.7534 Y11.1957 
G01 X23.6023 Y11.0446 
G01 X23.4766 Y10.8717 
G01 X23.3796 Y10.6813 
G01 X23.3483 Y10.5850 
G01 X23.2483 Y10.6850 
G01 X23.2483 Y13.6934 
G00 Z2.5400 
G00 X26.6476 Y13.9700 
G01 Z-0.1778 F127.00 
G01 X26.6833 Y13.9816 F254.00 
G01 X26.8737 Y14.0786 
G01 X27.0466 Y14.2043 
G01 X27.1977 Y14.3554 
G01 X27.3234 Y14.5283 
G01 X27.4204 Y14.7187 
G01 X27.4333 Y14.7584 
G01 X27.5017 Y14.6900 
G01 X27.5017 Y12.9217 
G01 X27.4865 Y13.0180 
G01 X27.4204 Y13.2212 
G01 X27.3234 Y13.4117 
G01 X27.1977 Y13.5846 
G01 X27.0466 Y13.7357 
G01 X26.8737 Y13.8614 
G01 X26.6833 Y13.9584 
G01 X26.6476 Y13.9700 
G00 Z2.5400 
G00 X27.5017 Y12.4782 
G01 Z-0.1778 F127.00 
G01 X27.5017 Y10.3818 F254.00 
G01 X27.4865 Y10.4780 
G01 X27.4204 Y10.6813 
G01 X27.3234 Y10.8717 
G01 X27.1977 Y11.0446 
G01 X27.0466 Y11.1957 
G01 X26.8737 Y11.3214 
G01 X26.6833 Y11.4184 
G01 X26.6476 Y11.4300 
G01 X26.6833 Y11.4416 
G01 X26.8737 Y11.5386 
G01 X27.0466 Y11.6642 
G01 X27.1977 Y11.8154 
G01 X27.3234 Y11.9883 
G01 X27.4204 Y12.1787 
G01 X27.4865 Y12.3820 
G01 X27.5017 Y12.4782 
G00 Z2.5400 
G00 X27.5017 Y9.9382 
G01 Z-0.1778 F127.00 
G01 X27.5017 Y9.1815 F254.00 
G01 X27.2862 Y9.3971 
G01 X27.3234 Y9.4483 
G01 X27.4204 Y9.6387 
G01 X27.4865 Y9.8420 
G01 X27.5017 Y9.9382 
G00 Z2.5400 
G00 X22.4983 Y9.3184 
G01 Z-0.1778 F127.00 
G01 X23.4802 Y8.3366 F254.00 
G01 X23.4766 Y8.3317 
G01 X23.3796 Y8.1412 
G01 X23.3581 Y8.0751 
G01 X22.4983 Y8.9350 
G01 X22.4983 Y9.3184 
G00 Z2.5400 
G00 X21.0017 Y8.6649 
G01 Z-0.1778 F127.00 
G01 X21.0017 Y8.5513 F254.00 
G01 X21.0305 Y8.4067 
G01 X21.0869 Y8.2705 
G01 X21.1688 Y8.1480 
G01 X23.0684 Y6.2483 
G01 X21.1159 Y6.2483 
G01 X21.2534 Y6.3857 
G01 X21.3690 Y6.5449 
G01 X21.4583 Y6.7202 
G01 X21.5191 Y6.9073 
G01 X21.5499 Y7.1016 
G01 X21.5499 Y7.2984 
G01 X21.5191 Y7.4927 
G01 X21.4583 Y7.6798 
G01 X21.3690 Y7.8551 
G01 X21.2534 Y8.0143 
G01 X21.1143 Y8.1534 
G01 X20.9551 Y8.2690 
G01 X20.7798 Y8.3583 
G01 X20.5927 Y8.4191 
G01 X20.3984 Y8.4499 
G01 X20.2016 Y8.4499 
G01 X20.1203 Y8.4370 
G01 X20.1427 Y8.4594 
G01 X20.2016 Y8.4501 
G01 X20.3984 Y8.4501 
G01 X20.5927 Y8.4809 
G01 X20.7798 Y8.5417 
G01 X20.9551 Y8.6310 
G01 X21.0017 Y8.6649 
G00 Z2.5400 
G00 X21.0017 Y10.7351 
G01 Z-0.1778 F127.00 
G01 X20.9551 Y10.7690 F254.00 
G01 X20.7798 Y10.8583 
G01 X20.5927 Y10.9191 
G01 X20.3984 Y10.9499 
G01 X20.2016 Y10.9499 
G01 X20.0073 Y10.9191 
G01 X19.8202 Y10.8583 
G01 X19.7483 Y10.8217 
G01 X19.7483 Y11.0783 
G01 X19.8202 Y11.0417 
G01 X20.0073 Y10.9809 
G01 X20.2016 Y10.9501 
G01 X20.3984 Y10.9501 
G01 X20.5927 Y10.9809 
G01 X20.7798 Y11.0417 
G01 X20.9551 Y11.1310 
G01 X21.0017 Y11.1649 
G01 X21.0017 Y10.7351 
G00 Z2.5400 
G00 X19.0651 Y9.5069 
G01 Z-0.1778 F127.00 
G01 X19.0663 Y9.4995 F254.00 
G01 X18.9853 Y9.4185 
G01 X18.9828 Y9.4245 
G01 X19.0651 Y9.5069 
G00 Z2.5400 
G00 X19.3733 Y6.3591 
G01 Z-0.1778 F127.00 
G01 X19.4841 Y6.2483 F254.00 
G01 X19.3733 Y6.2483 
G01 X19.3733 Y6.3591 
G00 Z2.5400 
G00 X23.9983 Y18.9781 
G01 Z-0.1778 F127.00 
G01 X23.9983 Y19.1219 F254.00 
G01 X24.1167 Y19.0616 
G01 X24.1524 Y19.0500 
G01 X24.1167 Y19.0384 
G01 X23.9983 Y18.9781 
G00 Z2.5400 
G00 X19.0500 Y27.9176 
G01 Z-0.1778 F127.00 
G01 X19.0384 Y27.9533 F254.00 
G01 X19.0137 Y28.0017 
G01 X19.0863 Y28.0017 
G01 X19.0616 Y27.9533 
G01 X19.0500 Y27.9176 
G00 Z2.5400 
G00 Z2.540000
G00 X20.3000 Y7.2000 
G01 Z-0.2794 F508.00 
G01 Z2.540000
(R2.5400  P1.000000)
G00 X17.8000 Y8.4900 
G01 Z-0.812800
G01 Z2.540000
G00 X20.3000 Y9.7000 
G01 Z-0.812800
G01 Z2.540000
G00 X17.8000 Y10.9900 
G01 Z-0.812800
G01 Z2.540000
G00 X20.3000 Y12.2000 
G01 Z-0.812800
G01 Z2.540000
G00 X17.8000 Y13.4900 
G01 Z-0.812800
G01 Z2.540000
G00 X20.3000 Y14.7000 
G01 Z-0.812800
G01 Z2.540000
G00 X17.8000 Y15.9900 
G01 Z-0.812800
G01 Z2.540000
G00 X20.3000 Y17.2000 
G01 Z-0.812800
G01 Z2.540000
G00 X17.8000 Y18.4900 
G01 Z-0.812800
G01 Z2.540000
G00 X20.3000 Y19.7000 
G01 Z-0.812800
G01 Z2.540000
G00 X17.8000 Y20.9900 
G01 Z-0.812800
G01 Z2.540000
G00 X17.7800 Y26.6700 
G01 Z-0.812800
G01 Z2.540000
G00 X20.3200 Y26.6700 
G01 Z-0.812800
G01 Z2.540000
G00 X12.7000 Y19.0500 
G01 Z-0.812800
G01 Z2.540000
G00 X12.7000 Y21.5900 
G01 Z-0.812800
G01 Z2.540000
G00 X25.4000 Y7.6200 
G01 Z-0.812800
G01 Z2.540000
G00 X25.4000 Y10.1600 
G01 Z-0.812800
G01 Z2.540000
G00 X25.4000 Y12.7000 
G01 Z-0.812800
G01 Z2.540000
G00 X25.4000 Y15.2400 
G01 Z-0.812800
G01 Z2.540000
G00 X25.4000 Y20.3200 
G01 Z-0.812800
G01 Z2.540000
G00 X25.4000 Y17.7800 
G01 Z-0.812800
G01 Z2.540000
G00 Z12.7000 
M05
M02
