(.../PCBGCODE/pcb-gcode.ulp)
(Copyright 2005 - 2012 by John Johnson)
(See readme.txt for licensing terms.)
(This file generated from the board:)
(.../hun220/Desktop/middle_man/final.brd)
(Current profile is .../PCBGCODE/profiles/generic.pp  )
(This file generated 3/3/2017 17:17)
(Settings from pcb-machine.h)
(spindle on time = 3.0000)
(spindle speed = 20000.0000)
(tool change at 0.0000 0.0000 70.0000 )
(feed rate xy = F0.00  )
(feed rate z  = F508.00 )
(Z Axis Settings)
(  High     Up        Down     Drill)
(12.7000 	2.5400 	-0.1778 	-0.8128 )
(Settings from pcb-defaults.h)
(isolate min = 0.0254)
(isolate max = 0.5080)
(isolate step = 0.1270)
(Generated bottom outlines, bottom drill, bottom stencil)
(Unit of measure: mm)
( Tool|       Size       |  Min Sub |  Max Sub |   Count )
( T01  0.800mm 0.0315in 0.0000in 0.0000in )
( T02  1.016mm 0.0400in 0.0000in 0.0000in )
(Metric Mode)
G21
(Absolute Coordinates)
G90
S20000
G00 Z12.7000 
G00 X0.0000 Y0.0000 
M03
G04 P3.000000
M05
G00 Z70.0000 
M06 T01  ; 0.8000 
G01 Z0.0000 F508.00 
M06 
G00 Z2.5400 
M03
G04 P3.000000
G00 Z2.540000
G00 X17.8000 Y8.4900 
G01 Z-0.8128 F508.00 
G01 Z2.540000
(R2.5400  P1.000000)
G00 X17.8000 Y10.9900 
G01 Z-0.812800
G01 Z2.540000
G00 X17.8000 Y13.4900 
G01 Z-0.812800
G01 Z2.540000
G00 X17.8000 Y15.9900 
G01 Z-0.812800
G01 Z2.540000
G00 X17.8000 Y18.4900 
G01 Z-0.812800
G01 Z2.540000
G00 X17.8000 Y20.9900 
G01 Z-0.812800
G01 Z2.540000
G00 X20.3000 Y19.7000 
G01 Z-0.812800
G01 Z2.540000
G00 X20.3000 Y17.2000 
G01 Z-0.812800
G01 Z2.540000
G00 X20.3000 Y14.7000 
G01 Z-0.812800
G01 Z2.540000
G00 X20.3000 Y12.2000 
G01 Z-0.812800
G01 Z2.540000
G00 X20.3000 Y9.7000 
G01 Z-0.812800
G01 Z2.540000
G00 X20.3000 Y7.2000 
G01 Z-0.812800
G01 Z2.540000
M05
G00 Z70.0000 
G00 X0.0000 Y0.0000 
M06 T02  ; 1.0160 
G01 Z0.0000 F508.00 
M06 
G00 Z2.5400 
M03
G04 P3.000000
G00 Z2.540000
G00 X12.7000 Y19.0500 
G01 Z-0.8128 F508.00 
G01 Z2.540000
(R2.5400  P1.000000)
G00 X12.7000 Y21.5900 
G01 Z-0.812800
G01 Z2.540000
G00 X17.7800 Y26.6700 
G01 Z-0.812800
G01 Z2.540000
G00 X20.3200 Y26.6700 
G01 Z-0.812800
G01 Z2.540000
G00 X25.4000 Y20.3200 
G01 Z-0.812800
G01 Z2.540000
G00 X25.4000 Y17.7800 
G01 Z-0.812800
G01 Z2.540000
G00 X25.4000 Y15.2400 
G01 Z-0.812800
G01 Z2.540000
G00 X25.4000 Y12.7000 
G01 Z-0.812800
G01 Z2.540000
G00 X25.4000 Y10.1600 
G01 Z-0.812800
G01 Z2.540000
G00 X25.4000 Y7.6200 
G01 Z-0.812800
G01 Z2.540000
T01 
G00 Z12.7000 
M05
M02
