(.../PCBGCODE/pcb-gcode.ulp)
(Copyright 2005 - 2012 by John Johnson)
(See readme.txt for licensing terms.)
(This file generated from the board:)
(.../hun220/Desktop/middle_man/final.brd)
(Current profile is .../PCBGCODE/profiles/generic.pp  )
(This file generated 3/3/2017 17:17)
(Settings from pcb-machine.h)
(spindle on time = 3.0000)
(  Tool Size)
(0.1250 )
(spindle speed = 30000.0000)
(tool change at 0.0000 0.0000 70.0000 )
(feed rate xy = F254.00 )
(feed rate z  = F127.00 )
(Z Axis Settings)
(  High     Up        Down     Drill)
(12.7000 	2.5400 	-0.1778 	-0.8128 )
(Settings from pcb-defaults.h)
(isolate min = 0.0254)
(isolate max = 0.5080)
(isolate step = 0.1270)
(Generated bottom outlines, bottom drill, bottom stencil)
(Unit of measure: mm)
(Metric Mode)
G21
(Absolute Coordinates)
G90
S30000
G00 Z12.7000 
G00 X0.0000 Y0.0000 
M03
G04 P3.000000
G00 Z2.5400 
G00 X17.0715 Y7.7862 
G01 Z-0.1778 F127.00 
G01 X17.0962 Y7.7615 F254.00 
G01 X17.1285 Y7.7481 
G01 X18.4715 Y7.7481 
G01 X18.5038 Y7.7615 
G01 X18.5285 Y7.7862 
G01 X18.5419 Y7.8185 
G01 X18.5419 Y9.1615 
G01 X18.5285 Y9.1938 
G01 X18.5038 Y9.2185 
G01 X18.4715 Y9.2319 
G01 X17.1285 Y9.2319 
G01 X17.0962 Y9.2185 
G01 X17.0715 Y9.1938 
G01 X17.0581 Y9.1615 
G01 X17.0581 Y7.8185 
G01 X17.0715 Y7.7862 
G00 Z2.5400 
G00 X19.8271 Y7.7763 
G01 Z-0.1778 F127.00 
G01 X19.7237 Y7.6729 F254.00 
G01 X19.6425 Y7.5514 
G01 X19.5866 Y7.4164 
G01 X19.5581 Y7.2731 
G01 X19.5581 Y7.1269 
G01 X19.5866 Y6.9836 
G01 X19.6425 Y6.8486 
G01 X19.7237 Y6.7271 
G01 X19.8271 Y6.6237 
G01 X19.9486 Y6.5425 
G01 X20.0836 Y6.4866 
G01 X20.2269 Y6.4581 
G01 X20.3731 Y6.4581 
G01 X20.5164 Y6.4866 
G01 X20.6514 Y6.5425 
G01 X20.7729 Y6.6237 
G01 X20.8763 Y6.7271 
G01 X20.9575 Y6.8486 
G01 X21.0134 Y6.9836 
G01 X21.0419 Y7.1269 
G01 X21.0419 Y7.2731 
G01 X21.0134 Y7.4164 
G01 X20.9575 Y7.5514 
G01 X20.8763 Y7.6729 
G01 X20.7729 Y7.7763 
G01 X20.6514 Y7.8575 
G01 X20.5164 Y7.9134 
G01 X20.3731 Y7.9419 
G01 X20.2269 Y7.9419 
G01 X20.0836 Y7.9134 
G01 X19.9486 Y7.8575 
G01 X19.8271 Y7.7763 
G00 Z2.5400 
G00 X19.8271 Y9.1237 
G01 Z-0.1778 F127.00 
G01 X19.9486 Y9.0425 F254.00 
G01 X20.0836 Y8.9866 
G01 X20.2269 Y8.9581 
G01 X20.3731 Y8.9581 
G01 X20.5164 Y8.9866 
G01 X20.6514 Y9.0425 
G01 X20.7729 Y9.1237 
G01 X20.8763 Y9.2271 
G01 X20.9575 Y9.3486 
G01 X21.0134 Y9.4836 
G01 X21.0419 Y9.6269 
G01 X21.0419 Y9.7731 
G01 X21.0134 Y9.9164 
G01 X20.9575 Y10.0514 
G01 X20.8763 Y10.1729 
G01 X20.7729 Y10.2763 
G01 X20.6514 Y10.3575 
G01 X20.5164 Y10.4134 
G01 X20.3731 Y10.4419 
G01 X20.2658 Y10.4419 
G01 X18.2416 Y12.4661 
G01 X18.1811 Y12.5266 
G01 X18.1021 Y12.5593 
G01 X17.4626 Y12.5593 
G01 X13.0165 Y17.0054 
G01 X13.0165 Y18.2001 
G01 X13.5457 Y18.2001 
G01 X13.7099 Y18.2328 
G01 X13.8646 Y18.2968 
G01 X14.0038 Y18.3898 
G01 X14.1222 Y18.5082 
G01 X14.2152 Y18.6474 
G01 X14.2792 Y18.8021 
G01 X14.3119 Y18.9663 
G01 X14.3119 Y19.1337 
G01 X14.2792 Y19.2979 
G01 X14.2152 Y19.4526 
G01 X14.1222 Y19.5918 
G01 X14.0038 Y19.7102 
G01 X13.9067 Y19.7750 
G01 X16.0910 Y21.9593 
G01 X20.9422 Y21.9593 
G01 X24.3294 Y18.5721 
G01 X24.2354 Y18.5332 
G01 X24.0962 Y18.4402 
G01 X23.9778 Y18.3218 
G01 X23.8848 Y18.1826 
G01 X23.8208 Y18.0279 
G01 X23.7881 Y17.8637 
G01 X23.7881 Y17.6963 
G01 X23.8208 Y17.5321 
G01 X23.8848 Y17.3774 
G01 X23.9778 Y17.2382 
G01 X24.0962 Y17.1198 
G01 X24.2354 Y17.0268 
G01 X24.3901 Y16.9628 
G01 X24.5543 Y16.9301 
G01 X26.2457 Y16.9301 
G01 X26.4099 Y16.9628 
G01 X26.5646 Y17.0268 
G01 X26.7038 Y17.1198 
G01 X26.8222 Y17.2382 
G01 X26.9152 Y17.3774 
G01 X26.9792 Y17.5321 
G01 X27.0119 Y17.6963 
G01 X27.0119 Y17.8637 
G01 X26.9792 Y18.0279 
G01 X26.9152 Y18.1826 
G01 X26.8222 Y18.3218 
G01 X26.7038 Y18.4402 
G01 X26.5646 Y18.5332 
G01 X26.4099 Y18.5972 
G01 X26.2457 Y18.6299 
G01 X24.8794 Y18.6299 
G01 X21.2134 Y22.2959 
G01 X21.1529 Y22.3564 
G01 X21.0739 Y22.3891 
G01 X15.9593 Y22.3891 
G01 X15.8803 Y22.3564 
G01 X13.4238 Y19.8999 
G01 X11.8543 Y19.8999 
G01 X11.6901 Y19.8672 
G01 X11.5354 Y19.8032 
G01 X11.3962 Y19.7102 
G01 X11.2778 Y19.5918 
G01 X11.1848 Y19.4526 
G01 X11.1208 Y19.2979 
G01 X11.0881 Y19.1337 
G01 X11.0881 Y18.9663 
G01 X11.1208 Y18.8021 
G01 X11.1848 Y18.6474 
G01 X11.2778 Y18.5082 
G01 X11.3962 Y18.3898 
G01 X11.5354 Y18.2968 
G01 X11.6901 Y18.2328 
G01 X11.8543 Y18.2001 
G01 X12.5867 Y18.2001 
G01 X12.5867 Y16.8737 
G01 X12.6194 Y16.7947 
G01 X12.6799 Y16.7342 
G01 X17.2519 Y12.1622 
G01 X17.3309 Y12.1295 
G01 X17.9704 Y12.1295 
G01 X19.8253 Y10.2745 
G01 X19.7237 Y10.1729 
G01 X19.6425 Y10.0514 
G01 X19.5866 Y9.9164 
G01 X19.5581 Y9.7731 
G01 X19.5581 Y9.6269 
G01 X19.5866 Y9.4836 
G01 X19.6425 Y9.3486 
G01 X19.7237 Y9.2271 
G01 X19.8271 Y9.1237 
G00 Z2.5400 
G00 X20.1632 Y10.6225 
G01 Z-0.1778 F127.00 
G01 X20.2237 Y10.5620 F254.00 
G01 X20.3026 Y10.5293 
G01 X21.6280 Y10.5293 
G01 X23.9867 Y8.1706 
G01 X23.9778 Y8.1618 
G01 X23.8848 Y8.0226 
G01 X23.8208 Y7.8679 
G01 X23.7881 Y7.7037 
G01 X23.7881 Y7.5363 
G01 X23.8208 Y7.3721 
G01 X23.8848 Y7.2174 
G01 X23.9778 Y7.0782 
G01 X24.0962 Y6.9598 
G01 X24.2354 Y6.8668 
G01 X24.3901 Y6.8028 
G01 X24.5543 Y6.7701 
G01 X26.2457 Y6.7701 
G01 X26.4099 Y6.8028 
G01 X26.5646 Y6.8668 
G01 X26.7038 Y6.9598 
G01 X26.8222 Y7.0782 
G01 X26.9152 Y7.2174 
G01 X26.9792 Y7.3721 
G01 X27.0119 Y7.5363 
G01 X27.0119 Y7.7037 
G01 X26.9792 Y7.8679 
G01 X26.9152 Y8.0226 
G01 X26.8222 Y8.1618 
G01 X26.7038 Y8.2802 
G01 X26.5646 Y8.3732 
G01 X26.4099 Y8.4372 
G01 X26.2457 Y8.4699 
G01 X24.5543 Y8.4699 
G01 X24.3901 Y8.4372 
G01 X24.3461 Y8.4190 
G01 X21.8387 Y10.9264 
G01 X21.7597 Y10.9591 
G01 X20.4344 Y10.9591 
G01 X19.4173 Y11.9762 
G01 X19.4173 Y14.9986 
G01 X20.2990 Y15.8803 
G01 X20.3317 Y15.9593 
G01 X20.3317 Y16.4581 
G01 X20.3731 Y16.4581 
G01 X20.5164 Y16.4866 
G01 X20.6514 Y16.5425 
G01 X20.7729 Y16.6237 
G01 X20.8763 Y16.7271 
G01 X20.9575 Y16.8486 
G01 X21.0134 Y16.9836 
G01 X21.0419 Y17.1269 
G01 X21.0419 Y17.2731 
G01 X21.0134 Y17.4164 
G01 X20.9575 Y17.5514 
G01 X20.8763 Y17.6729 
G01 X20.7729 Y17.7763 
G01 X20.6514 Y17.8575 
G01 X20.5164 Y17.9134 
G01 X20.3731 Y17.9419 
G01 X20.2269 Y17.9419 
G01 X20.0836 Y17.9134 
G01 X19.9486 Y17.8575 
G01 X19.8271 Y17.7763 
G01 X19.7237 Y17.6729 
G01 X19.6425 Y17.5514 
G01 X19.5866 Y17.4164 
G01 X19.5581 Y17.2731 
G01 X19.5581 Y17.1269 
G01 X19.5866 Y16.9836 
G01 X19.6425 Y16.8486 
G01 X19.7237 Y16.7271 
G01 X19.8271 Y16.6237 
G01 X19.9019 Y16.5737 
G01 X19.9019 Y16.0910 
G01 X19.0807 Y15.2698 
G01 X19.0202 Y15.2093 
G01 X18.9875 Y15.1303 
G01 X18.9875 Y11.8445 
G01 X19.0202 Y11.7655 
G01 X20.1632 Y10.6225 
G00 Z2.5400 
G00 X20.2269 Y11.4581 
G01 Z-0.1778 F127.00 
G01 X20.3731 Y11.4581 F254.00 
G01 X20.5164 Y11.4866 
G01 X20.6514 Y11.5425 
G01 X20.7729 Y11.6237 
G01 X20.8763 Y11.7271 
G01 X20.9575 Y11.8486 
G01 X20.9683 Y11.8748 
G01 X24.0494 Y8.7937 
G01 X24.1099 Y8.7332 
G01 X24.1888 Y8.7005 
G01 X26.5603 Y8.7005 
G01 X26.6393 Y8.7332 
G01 X28.0109 Y10.1048 
G01 X28.0714 Y10.1653 
G01 X28.1041 Y10.2442 
G01 X28.1041 Y20.3881 
G01 X28.0714 Y20.4671 
G01 X21.8992 Y26.6393 
G01 X21.8387 Y26.6998 
G01 X21.7597 Y26.7325 
G01 X21.1699 Y26.7325 
G01 X21.1699 Y27.5157 
G01 X21.1372 Y27.6799 
G01 X21.0732 Y27.8346 
G01 X20.9802 Y27.9738 
G01 X20.8618 Y28.0922 
G01 X20.7226 Y28.1852 
G01 X20.5679 Y28.2492 
G01 X20.4037 Y28.2819 
G01 X20.2363 Y28.2819 
G01 X20.0721 Y28.2492 
G01 X19.9174 Y28.1852 
G01 X19.7782 Y28.0922 
G01 X19.6598 Y27.9738 
G01 X19.5668 Y27.8346 
G01 X19.5028 Y27.6799 
G01 X19.4701 Y27.5157 
G01 X19.4701 Y25.8243 
G01 X19.5028 Y25.6601 
G01 X19.5668 Y25.5054 
G01 X19.6598 Y25.3662 
G01 X19.7782 Y25.2478 
G01 X19.9174 Y25.1548 
G01 X20.0721 Y25.0908 
G01 X20.2363 Y25.0581 
G01 X20.4037 Y25.0581 
G01 X20.5679 Y25.0908 
G01 X20.7226 Y25.1548 
G01 X20.8618 Y25.2478 
G01 X20.9802 Y25.3662 
G01 X21.0732 Y25.5054 
G01 X21.1372 Y25.6601 
G01 X21.1699 Y25.8243 
G01 X21.1699 Y26.3027 
G01 X21.6280 Y26.3027 
G01 X27.6743 Y20.2564 
G01 X27.6743 Y10.3760 
G01 X26.4286 Y9.1303 
G01 X24.3206 Y9.1303 
G01 X21.1529 Y12.2980 
G01 X21.0739 Y12.3307 
G01 X21.0304 Y12.3307 
G01 X21.0134 Y12.4164 
G01 X20.9575 Y12.5514 
G01 X20.8763 Y12.6729 
G01 X20.7729 Y12.7763 
G01 X20.6514 Y12.8575 
G01 X20.5164 Y12.9134 
G01 X20.3731 Y12.9419 
G01 X20.2269 Y12.9419 
G01 X20.0836 Y12.9134 
G01 X19.9486 Y12.8575 
G01 X19.8271 Y12.7763 
G01 X19.7237 Y12.6729 
G01 X19.6425 Y12.5514 
G01 X19.5866 Y12.4164 
G01 X19.5581 Y12.2731 
G01 X19.5581 Y12.1269 
G01 X19.5866 Y11.9836 
G01 X19.6425 Y11.8486 
G01 X19.7237 Y11.7271 
G01 X19.8271 Y11.6237 
G01 X19.9486 Y11.5425 
G01 X20.0836 Y11.4866 
G01 X20.2269 Y11.4581 
G00 Z2.5400 
G00 X18.3763 Y11.4629 
G01 Z-0.1778 F127.00 
G01 X18.2729 Y11.5663 F254.00 
G01 X18.1514 Y11.6475 
G01 X18.0164 Y11.7034 
G01 X17.8731 Y11.7319 
G01 X17.7269 Y11.7319 
G01 X17.5836 Y11.7034 
G01 X17.4567 Y11.6508 
G01 X10.9591 Y18.1484 
G01 X10.9591 Y21.8566 
G01 X15.4052 Y26.3027 
G01 X16.9301 Y26.3027 
G01 X16.9301 Y25.8243 
G01 X16.9628 Y25.6601 
G01 X17.0268 Y25.5054 
G01 X17.1198 Y25.3662 
G01 X17.2382 Y25.2478 
G01 X17.3774 Y25.1548 
G01 X17.5321 Y25.0908 
G01 X17.6963 Y25.0581 
G01 X17.8637 Y25.0581 
G01 X18.0279 Y25.0908 
G01 X18.1826 Y25.1548 
G01 X18.3218 Y25.2478 
G01 X18.4402 Y25.3662 
G01 X18.5332 Y25.5054 
G01 X18.5972 Y25.6601 
G01 X18.6299 Y25.8243 
G01 X18.6299 Y27.5157 
G01 X18.5972 Y27.6799 
G01 X18.5332 Y27.8346 
G01 X18.4402 Y27.9738 
G01 X18.3218 Y28.0922 
G01 X18.1826 Y28.1852 
G01 X18.0279 Y28.2492 
G01 X17.8637 Y28.2819 
G01 X17.6963 Y28.2819 
G01 X17.5321 Y28.2492 
G01 X17.3774 Y28.1852 
G01 X17.2382 Y28.0922 
G01 X17.1198 Y27.9738 
G01 X17.0268 Y27.8346 
G01 X16.9628 Y27.6799 
G01 X16.9301 Y27.5157 
G01 X16.9301 Y26.7325 
G01 X15.2735 Y26.7325 
G01 X15.1945 Y26.6998 
G01 X15.1340 Y26.6393 
G01 X10.5620 Y22.0673 
G01 X10.5293 Y21.9883 
G01 X10.5293 Y18.0166 
G01 X10.5620 Y17.9377 
G01 X10.6225 Y17.8772 
G01 X17.1488 Y11.3508 
G01 X17.1425 Y11.3414 
G01 X17.0866 Y11.2064 
G01 X17.0581 Y11.0631 
G01 X17.0581 Y10.9169 
G01 X17.0866 Y10.7736 
G01 X17.1425 Y10.6386 
G01 X17.2237 Y10.5171 
G01 X17.3271 Y10.4137 
G01 X17.4486 Y10.3325 
G01 X17.5836 Y10.2766 
G01 X17.7269 Y10.2481 
G01 X17.8731 Y10.2481 
G01 X18.0164 Y10.2766 
G01 X18.1514 Y10.3325 
G01 X18.2729 Y10.4137 
G01 X18.3763 Y10.5171 
G01 X18.4575 Y10.6386 
G01 X18.5134 Y10.7736 
G01 X18.5419 Y10.9169 
G01 X18.5419 Y11.0631 
G01 X18.5134 Y11.2064 
G01 X18.4575 Y11.3414 
G01 X18.3763 Y11.4629 
G00 Z2.5400 
G00 X18.2729 Y12.9137 
G01 Z-0.1778 F127.00 
G01 X18.3763 Y13.0171 F254.00 
G01 X18.4575 Y13.1386 
G01 X18.5134 Y13.2736 
G01 X18.5419 Y13.4169 
G01 X18.5419 Y13.5631 
G01 X18.5134 Y13.7064 
G01 X18.4575 Y13.8414 
G01 X18.3763 Y13.9629 
G01 X18.2729 Y14.0663 
G01 X18.1514 Y14.1475 
G01 X18.0164 Y14.2034 
G01 X17.8731 Y14.2319 
G01 X17.8171 Y14.2319 
G01 X17.8171 Y14.6731 
G01 X17.7844 Y14.7521 
G01 X16.9027 Y15.6338 
G01 X16.9027 Y18.8848 
G01 X17.6912 Y19.6733 
G01 X19.0165 Y19.6733 
G01 X19.0955 Y19.7060 
G01 X19.9772 Y20.5877 
G01 X20.7136 Y20.5877 
G01 X22.8737 Y18.4276 
G01 X22.8737 Y15.0449 
G01 X22.9064 Y14.9659 
G01 X24.0494 Y13.8229 
G01 X24.1099 Y13.7624 
G01 X24.1888 Y13.7297 
G01 X26.5603 Y13.7297 
G01 X26.6393 Y13.7624 
G01 X27.5537 Y14.6768 
G01 X27.6142 Y14.7373 
G01 X27.6469 Y14.8163 
G01 X27.6469 Y18.3307 
G01 X27.6142 Y18.4097 
G01 X26.4886 Y19.5353 
G01 X26.5646 Y19.5668 
G01 X26.7038 Y19.6598 
G01 X26.8222 Y19.7782 
G01 X26.9152 Y19.9174 
G01 X26.9792 Y20.0721 
G01 X27.0119 Y20.2363 
G01 X27.0119 Y20.4037 
G01 X26.9792 Y20.5679 
G01 X26.9152 Y20.7226 
G01 X26.8222 Y20.8618 
G01 X26.7038 Y20.9802 
G01 X26.5646 Y21.0732 
G01 X26.4099 Y21.1372 
G01 X26.2457 Y21.1699 
G01 X24.8540 Y21.1699 
G01 X23.2103 Y22.8136 
G01 X23.1313 Y22.8463 
G01 X15.7307 Y22.8463 
G01 X15.6517 Y22.8136 
G01 X15.5912 Y22.7531 
G01 X14.7700 Y21.9319 
G01 X14.2403 Y21.9319 
G01 X14.2152 Y21.9926 
G01 X14.1222 Y22.1318 
G01 X14.0038 Y22.2502 
G01 X13.8646 Y22.3432 
G01 X13.7099 Y22.4072 
G01 X13.5457 Y22.4399 
G01 X11.8543 Y22.4399 
G01 X11.6901 Y22.4072 
G01 X11.5354 Y22.3432 
G01 X11.3962 Y22.2502 
G01 X11.2778 Y22.1318 
G01 X11.1848 Y21.9926 
G01 X11.1208 Y21.8379 
G01 X11.0881 Y21.6737 
G01 X11.0881 Y21.5063 
G01 X11.1208 Y21.3421 
G01 X11.1848 Y21.1874 
G01 X11.2778 Y21.0482 
G01 X11.3962 Y20.9298 
G01 X11.5354 Y20.8368 
G01 X11.6901 Y20.7728 
G01 X11.8543 Y20.7401 
G01 X13.5457 Y20.7401 
G01 X13.7099 Y20.7728 
G01 X13.8646 Y20.8368 
G01 X14.0038 Y20.9298 
G01 X14.1222 Y21.0482 
G01 X14.2152 Y21.1874 
G01 X14.2792 Y21.3421 
G01 X14.3111 Y21.5021 
G01 X14.9017 Y21.5021 
G01 X14.9807 Y21.5348 
G01 X15.8624 Y22.4165 
G01 X22.9996 Y22.4165 
G01 X24.3114 Y21.1047 
G01 X24.2354 Y21.0732 
G01 X24.0962 Y20.9802 
G01 X23.9778 Y20.8618 
G01 X23.8848 Y20.7226 
G01 X23.8208 Y20.5679 
G01 X23.7881 Y20.4037 
G01 X23.7881 Y20.2363 
G01 X23.8208 Y20.0721 
G01 X23.8848 Y19.9174 
G01 X23.9778 Y19.7782 
G01 X24.0962 Y19.6598 
G01 X24.2354 Y19.5668 
G01 X24.3901 Y19.5028 
G01 X24.5543 Y19.4701 
G01 X25.9460 Y19.4701 
G01 X27.2171 Y18.1990 
G01 X27.2171 Y14.9480 
G01 X26.4286 Y14.1595 
G01 X24.3206 Y14.1595 
G01 X23.3035 Y15.1766 
G01 X23.3035 Y18.5593 
G01 X23.2708 Y18.6383 
G01 X23.2103 Y18.6988 
G01 X20.9243 Y20.9848 
G01 X20.8453 Y21.0175 
G01 X19.8454 Y21.0175 
G01 X19.7665 Y20.9848 
G01 X19.7060 Y20.9243 
G01 X18.8848 Y20.1031 
G01 X17.5594 Y20.1031 
G01 X17.4805 Y20.0704 
G01 X17.4200 Y20.0099 
G01 X16.5056 Y19.0955 
G01 X16.4729 Y19.0165 
G01 X16.4729 Y15.5021 
G01 X16.5056 Y15.4231 
G01 X16.5661 Y15.3626 
G01 X17.3873 Y14.5414 
G01 X17.3873 Y14.1065 
G01 X17.3271 Y14.0663 
G01 X17.2237 Y13.9629 
G01 X17.1425 Y13.8414 
G01 X17.0866 Y13.7064 
G01 X17.0581 Y13.5631 
G01 X17.0581 Y13.4169 
G01 X17.0866 Y13.2736 
G01 X17.1425 Y13.1386 
G01 X17.2237 Y13.0171 
G01 X17.3271 Y12.9137 
G01 X17.4486 Y12.8325 
G01 X17.5836 Y12.7766 
G01 X17.7269 Y12.7481 
G01 X17.8731 Y12.7481 
G01 X18.0164 Y12.7766 
G01 X18.1514 Y12.8325 
G01 X18.2729 Y12.9137 
G00 Z2.5400 
G00 X18.2729 Y15.4137 
G01 Z-0.1778 F127.00 
G01 X18.3763 Y15.5171 F254.00 
G01 X18.4575 Y15.6386 
G01 X18.5134 Y15.7736 
G01 X18.5419 Y15.9169 
G01 X18.5419 Y16.0631 
G01 X18.5134 Y16.2064 
G01 X18.4575 Y16.3414 
G01 X18.3763 Y16.4629 
G01 X18.2729 Y16.5663 
G01 X18.1514 Y16.6475 
G01 X18.0164 Y16.7034 
G01 X17.8731 Y16.7319 
G01 X17.7269 Y16.7319 
G01 X17.5836 Y16.7034 
G01 X17.4486 Y16.6475 
G01 X17.3271 Y16.5663 
G01 X17.2237 Y16.4629 
G01 X17.1425 Y16.3414 
G01 X17.0866 Y16.2064 
G01 X17.0581 Y16.0631 
G01 X17.0581 Y15.9169 
G01 X17.0866 Y15.7736 
G01 X17.1425 Y15.6386 
G01 X17.2237 Y15.5171 
G01 X17.3271 Y15.4137 
G01 X17.4486 Y15.3325 
G01 X17.5836 Y15.2766 
G01 X17.7269 Y15.2481 
G01 X17.8731 Y15.2481 
G01 X18.0164 Y15.2766 
G01 X18.1514 Y15.3325 
G01 X18.2729 Y15.4137 
G00 Z2.5400 
G00 X19.8271 Y15.2763 
G01 Z-0.1778 F127.00 
G01 X19.7237 Y15.1729 F254.00 
G01 X19.6425 Y15.0514 
G01 X19.5866 Y14.9164 
G01 X19.5581 Y14.7731 
G01 X19.5581 Y14.6269 
G01 X19.5866 Y14.4836 
G01 X19.6425 Y14.3486 
G01 X19.7237 Y14.2271 
G01 X19.8271 Y14.1237 
G01 X19.9486 Y14.0425 
G01 X20.0836 Y13.9866 
G01 X20.2269 Y13.9581 
G01 X20.3731 Y13.9581 
G01 X20.5164 Y13.9866 
G01 X20.6514 Y14.0425 
G01 X20.7729 Y14.1237 
G01 X20.8763 Y14.2271 
G01 X20.9575 Y14.3486 
G01 X21.0134 Y14.4836 
G01 X21.0419 Y14.6269 
G01 X21.0419 Y14.7731 
G01 X21.0134 Y14.9164 
G01 X20.9575 Y15.0514 
G01 X20.8763 Y15.1729 
G01 X20.7729 Y15.2763 
G01 X20.6514 Y15.3575 
G01 X20.5164 Y15.4134 
G01 X20.3731 Y15.4419 
G01 X20.2269 Y15.4419 
G01 X20.0836 Y15.4134 
G01 X19.9486 Y15.3575 
G01 X19.8271 Y15.2763 
G00 Z2.5400 
G00 X22.4165 Y14.8163 
G01 Z-0.1778 F127.00 
G01 X22.4492 Y14.7373 F254.00 
G01 X23.9646 Y13.2219 
G01 X23.8848 Y13.1026 
G01 X23.8208 Y12.9479 
G01 X23.7881 Y12.7837 
G01 X23.7881 Y12.6163 
G01 X23.8208 Y12.4521 
G01 X23.8848 Y12.2974 
G01 X23.9778 Y12.1582 
G01 X24.0962 Y12.0398 
G01 X24.2354 Y11.9468 
G01 X24.3901 Y11.8828 
G01 X24.5543 Y11.8501 
G01 X26.2457 Y11.8501 
G01 X26.4099 Y11.8828 
G01 X26.5646 Y11.9468 
G01 X26.7038 Y12.0398 
G01 X26.8222 Y12.1582 
G01 X26.9152 Y12.2974 
G01 X26.9792 Y12.4521 
G01 X27.0119 Y12.6163 
G01 X27.0119 Y12.7837 
G01 X26.9792 Y12.9479 
G01 X26.9152 Y13.1026 
G01 X26.8222 Y13.2418 
G01 X26.7038 Y13.3602 
G01 X26.5646 Y13.4532 
G01 X26.4099 Y13.5172 
G01 X26.2457 Y13.5499 
G01 X24.5543 Y13.5499 
G01 X24.3901 Y13.5172 
G01 X24.3102 Y13.4841 
G01 X22.8463 Y14.9480 
G01 X22.8463 Y17.1877 
G01 X22.8136 Y17.2667 
G01 X22.7531 Y17.3272 
G01 X22.3891 Y17.6912 
G01 X22.3891 Y17.8735 
G01 X22.3564 Y17.9525 
G01 X22.2959 Y18.0130 
G01 X20.9583 Y19.3506 
G01 X21.0134 Y19.4836 
G01 X21.0419 Y19.6269 
G01 X21.0419 Y19.7731 
G01 X21.0134 Y19.9164 
G01 X20.9575 Y20.0514 
G01 X20.8763 Y20.1729 
G01 X20.7729 Y20.2763 
G01 X20.6514 Y20.3575 
G01 X20.5164 Y20.4134 
G01 X20.3731 Y20.4419 
G01 X20.2269 Y20.4419 
G01 X20.0836 Y20.4134 
G01 X19.9486 Y20.3575 
G01 X19.8271 Y20.2763 
G01 X19.7237 Y20.1729 
G01 X19.6425 Y20.0514 
G01 X19.5866 Y19.9164 
G01 X19.5581 Y19.7731 
G01 X19.5581 Y19.6269 
G01 X19.5866 Y19.4836 
G01 X19.6425 Y19.3486 
G01 X19.7237 Y19.2271 
G01 X19.8271 Y19.1237 
G01 X19.9486 Y19.0425 
G01 X20.0836 Y18.9866 
G01 X20.2269 Y18.9581 
G01 X20.3731 Y18.9581 
G01 X20.5164 Y18.9866 
G01 X20.6514 Y19.0425 
G01 X20.6557 Y19.0454 
G01 X21.9593 Y17.7418 
G01 X21.9593 Y17.5594 
G01 X21.9920 Y17.4805 
G01 X22.4165 Y17.0560 
G01 X22.4165 Y14.8163 
G00 Z2.5400 
G00 X22.3891 Y13.5764 
G01 Z-0.1778 F127.00 
G01 X22.3891 Y16.9591 F254.00 
G01 X22.3564 Y17.0381 
G01 X22.2959 Y17.0986 
G01 X20.9243 Y18.4702 
G01 X20.8453 Y18.5029 
G01 X18.5419 Y18.5029 
G01 X18.5419 Y18.5631 
G01 X18.5134 Y18.7064 
G01 X18.4575 Y18.8414 
G01 X18.3763 Y18.9629 
G01 X18.2729 Y19.0663 
G01 X18.1514 Y19.1475 
G01 X18.0164 Y19.2034 
G01 X17.8731 Y19.2319 
G01 X17.7269 Y19.2319 
G01 X17.5836 Y19.2034 
G01 X17.4486 Y19.1475 
G01 X17.3271 Y19.0663 
G01 X17.2237 Y18.9629 
G01 X17.1425 Y18.8414 
G01 X17.0866 Y18.7064 
G01 X17.0581 Y18.5631 
G01 X17.0581 Y18.4169 
G01 X17.0866 Y18.2736 
G01 X17.1425 Y18.1386 
G01 X17.2237 Y18.0171 
G01 X17.3271 Y17.9137 
G01 X17.4486 Y17.8325 
G01 X17.5836 Y17.7766 
G01 X17.7269 Y17.7481 
G01 X17.8731 Y17.7481 
G01 X18.0164 Y17.7766 
G01 X18.1514 Y17.8325 
G01 X18.2729 Y17.9137 
G01 X18.3763 Y18.0171 
G01 X18.4137 Y18.0731 
G01 X20.7136 Y18.0731 
G01 X21.9593 Y16.8274 
G01 X21.9593 Y13.4446 
G01 X21.9920 Y13.3657 
G01 X24.3833 Y10.9744 
G01 X24.2354 Y10.9132 
G01 X24.0962 Y10.8202 
G01 X23.9778 Y10.7018 
G01 X23.8848 Y10.5626 
G01 X23.8208 Y10.4079 
G01 X23.7881 Y10.2437 
G01 X23.7881 Y10.0763 
G01 X23.8208 Y9.9121 
G01 X23.8848 Y9.7574 
G01 X23.9778 Y9.6182 
G01 X24.0962 Y9.4998 
G01 X24.2354 Y9.4068 
G01 X24.3901 Y9.3428 
G01 X24.5543 Y9.3101 
G01 X26.2457 Y9.3101 
G01 X26.4099 Y9.3428 
G01 X26.5646 Y9.4068 
G01 X26.7038 Y9.4998 
G01 X26.8222 Y9.6182 
G01 X26.9152 Y9.7574 
G01 X26.9792 Y9.9121 
G01 X27.0119 Y10.0763 
G01 X27.0119 Y10.2437 
G01 X26.9792 Y10.4079 
G01 X26.9152 Y10.5626 
G01 X26.8222 Y10.7018 
G01 X26.7038 Y10.8202 
G01 X26.5646 Y10.9132 
G01 X26.4099 Y10.9772 
G01 X26.2457 Y11.0099 
G01 X24.9556 Y11.0099 
G01 X22.3891 Y13.5764 
G00 Z2.5400 
G00 X23.9778 Y14.6982 
G01 Z-0.1778 F127.00 
G01 X24.0962 Y14.5798 F254.00 
G01 X24.2354 Y14.4868 
G01 X24.3901 Y14.4228 
G01 X24.5543 Y14.3901 
G01 X26.2457 Y14.3901 
G01 X26.4099 Y14.4228 
G01 X26.5646 Y14.4868 
G01 X26.7038 Y14.5798 
G01 X26.8222 Y14.6982 
G01 X26.9152 Y14.8374 
G01 X26.9792 Y14.9921 
G01 X27.0119 Y15.1563 
G01 X27.0119 Y15.3237 
G01 X26.9792 Y15.4879 
G01 X26.9152 Y15.6426 
G01 X26.8222 Y15.7818 
G01 X26.7038 Y15.9002 
G01 X26.5646 Y15.9932 
G01 X26.4099 Y16.0572 
G01 X26.2457 Y16.0899 
G01 X24.9048 Y16.0899 
G01 X23.7607 Y17.2340 
G01 X23.7607 Y18.7879 
G01 X23.7280 Y18.8669 
G01 X23.6675 Y18.9274 
G01 X21.1529 Y21.4420 
G01 X21.0739 Y21.4747 
G01 X19.6168 Y21.4747 
G01 X19.5379 Y21.4420 
G01 X19.4774 Y21.3815 
G01 X19.3420 Y21.2461 
G01 X18.4969 Y21.2461 
G01 X18.4575 Y21.3414 
G01 X18.3763 Y21.4629 
G01 X18.2729 Y21.5663 
G01 X18.1514 Y21.6475 
G01 X18.0164 Y21.7034 
G01 X17.8731 Y21.7319 
G01 X17.7269 Y21.7319 
G01 X17.5836 Y21.7034 
G01 X17.4486 Y21.6475 
G01 X17.3271 Y21.5663 
G01 X17.2237 Y21.4629 
G01 X17.1425 Y21.3414 
G01 X17.0866 Y21.2064 
G01 X17.0581 Y21.0631 
G01 X17.0581 Y20.9169 
G01 X17.0866 Y20.7736 
G01 X17.1425 Y20.6386 
G01 X17.2237 Y20.5171 
G01 X17.3271 Y20.4137 
G01 X17.4486 Y20.3325 
G01 X17.5836 Y20.2766 
G01 X17.7269 Y20.2481 
G01 X17.8731 Y20.2481 
G01 X18.0164 Y20.2766 
G01 X18.1514 Y20.3325 
G01 X18.2729 Y20.4137 
G01 X18.3763 Y20.5171 
G01 X18.4575 Y20.6386 
G01 X18.5134 Y20.7736 
G01 X18.5219 Y20.8163 
G01 X19.4737 Y20.8163 
G01 X19.5527 Y20.8490 
G01 X19.7486 Y21.0449 
G01 X20.9422 Y21.0449 
G01 X23.3309 Y18.6562 
G01 X23.3309 Y17.1023 
G01 X23.3636 Y17.0233 
G01 X23.4241 Y16.9628 
G01 X24.3474 Y16.0395 
G01 X24.2354 Y15.9932 
G01 X24.0962 Y15.9002 
G01 X23.9778 Y15.7818 
G01 X23.8848 Y15.6426 
G01 X23.8208 Y15.4879 
G01 X23.7881 Y15.3237 
G01 X23.7881 Y15.1563 
G01 X23.8208 Y14.9921 
G01 X23.8848 Y14.8374 
G01 X23.9778 Y14.6982 
G00 Z2.5400 
G00 X16.9638 Y7.7143 
G01 Z-0.1778 F127.00 
G01 X17.0243 Y7.6538 F254.00 
G01 X17.1032 Y7.6211 
G01 X18.4967 Y7.6211 
G01 X18.5757 Y7.6538 
G01 X18.6362 Y7.7143 
G01 X18.6689 Y7.7932 
G01 X18.6689 Y9.1867 
G01 X18.6362 Y9.2657 
G01 X18.5757 Y9.3262 
G01 X18.4967 Y9.3589 
G01 X17.1032 Y9.3589 
G01 X17.0243 Y9.3262 
G01 X16.9638 Y9.2657 
G01 X16.9311 Y9.1867 
G01 X16.9311 Y7.7932 
G01 X16.9638 Y7.7143 
G00 Z2.5400 
G00 X19.5300 Y7.6116 
G01 Z-0.1778 F127.00 
G01 X19.4645 Y7.4534 F254.00 
G01 X19.4311 Y7.2856 
G01 X19.4311 Y7.1144 
G01 X19.4645 Y6.9466 
G01 X19.5300 Y6.7884 
G01 X19.6251 Y6.6461 
G01 X19.7461 Y6.5251 
G01 X19.8884 Y6.4300 
G01 X20.0465 Y6.3645 
G01 X20.2144 Y6.3311 
G01 X20.3856 Y6.3311 
G01 X20.5534 Y6.3645 
G01 X20.7116 Y6.4300 
G01 X20.8539 Y6.5251 
G01 X20.9749 Y6.6461 
G01 X21.0700 Y6.7884 
G01 X21.1355 Y6.9466 
G01 X21.1689 Y7.1144 
G01 X21.1689 Y7.2856 
G01 X21.1355 Y7.4534 
G01 X21.0700 Y7.6116 
G01 X20.9749 Y7.7539 
G01 X20.8539 Y7.8749 
G01 X20.7116 Y7.9700 
G01 X20.5534 Y8.0355 
G01 X20.3856 Y8.0689 
G01 X20.2144 Y8.0689 
G01 X20.0465 Y8.0355 
G01 X19.8884 Y7.9700 
G01 X19.7461 Y7.8749 
G01 X19.6251 Y7.7539 
G01 X19.5300 Y7.6116 
G00 Z2.5400 
G00 X19.6251 Y9.1461 
G01 Z-0.1778 F127.00 
G01 X19.7461 Y9.0251 F254.00 
G01 X19.8884 Y8.9300 
G01 X20.0465 Y8.8645 
G01 X20.2144 Y8.8311 
G01 X20.3856 Y8.8311 
G01 X20.5534 Y8.8645 
G01 X20.7116 Y8.9300 
G01 X20.8539 Y9.0251 
G01 X20.9749 Y9.1461 
G01 X21.0700 Y9.2884 
G01 X21.1355 Y9.4466 
G01 X21.1689 Y9.6144 
G01 X21.1689 Y9.7856 
G01 X21.1355 Y9.9534 
G01 X21.0700 Y10.1116 
G01 X20.9749 Y10.2539 
G01 X20.8539 Y10.3749 
G01 X20.8129 Y10.4023 
G01 X21.5754 Y10.4023 
G01 X23.8214 Y8.1563 
G01 X23.7723 Y8.0827 
G01 X23.6986 Y7.9050 
G01 X23.6611 Y7.7162 
G01 X23.6611 Y7.5238 
G01 X23.6986 Y7.3350 
G01 X23.7723 Y7.1573 
G01 X23.8792 Y6.9973 
G01 X24.0153 Y6.8612 
G01 X24.1753 Y6.7543 
G01 X24.3530 Y6.6806 
G01 X24.5418 Y6.6431 
G01 X26.2582 Y6.6431 
G01 X26.4470 Y6.6806 
G01 X26.6247 Y6.7543 
G01 X26.7847 Y6.8612 
G01 X26.9208 Y6.9973 
G01 X27.0277 Y7.1573 
G01 X27.1014 Y7.3350 
G01 X27.1389 Y7.5238 
G01 X27.1389 Y7.7162 
G01 X27.1014 Y7.9050 
G01 X27.0277 Y8.0827 
G01 X26.9208 Y8.2427 
G01 X26.7847 Y8.3788 
G01 X26.6247 Y8.4857 
G01 X26.4470 Y8.5594 
G01 X26.3758 Y8.5735 
G01 X26.5626 Y8.5735 
G01 X26.6496 Y8.5968 
G01 X26.7275 Y8.6418 
G01 X28.0991 Y10.0134 
G01 X28.1628 Y10.0771 
G01 X28.2078 Y10.1550 
G01 X28.2311 Y10.2420 
G01 X28.2311 Y20.3904 
G01 X28.2078 Y20.4774 
G01 X28.1628 Y20.5553 
G01 X21.9906 Y26.7275 
G01 X21.9269 Y26.7912 
G01 X21.8490 Y26.8362 
G01 X21.7620 Y26.8595 
G01 X21.2969 Y26.8595 
G01 X21.2969 Y27.5282 
G01 X21.2594 Y27.7170 
G01 X21.1857 Y27.8947 
G01 X21.0788 Y28.0547 
G01 X20.9427 Y28.1908 
G01 X20.7827 Y28.2977 
G01 X20.6049 Y28.3714 
G01 X20.4162 Y28.4089 
G01 X20.2238 Y28.4089 
G01 X20.0350 Y28.3714 
G01 X19.8573 Y28.2977 
G01 X19.6973 Y28.1908 
G01 X19.5612 Y28.0547 
G01 X19.4543 Y27.8947 
G01 X19.3806 Y27.7170 
G01 X19.3431 Y27.5282 
G01 X19.3431 Y25.8118 
G01 X19.3806 Y25.6230 
G01 X19.4543 Y25.4453 
G01 X19.5612 Y25.2853 
G01 X19.6973 Y25.1492 
G01 X19.8573 Y25.0423 
G01 X20.0350 Y24.9686 
G01 X20.2238 Y24.9311 
G01 X20.4162 Y24.9311 
G01 X20.6049 Y24.9686 
G01 X20.7827 Y25.0423 
G01 X20.9427 Y25.1492 
G01 X21.0788 Y25.2853 
G01 X21.1857 Y25.4453 
G01 X21.2594 Y25.6230 
G01 X21.2969 Y25.8118 
G01 X21.2969 Y26.1757 
G01 X21.5754 Y26.1757 
G01 X26.5234 Y21.2277 
G01 X26.4470 Y21.2594 
G01 X26.2582 Y21.2969 
G01 X24.9066 Y21.2969 
G01 X23.2985 Y22.9050 
G01 X23.2206 Y22.9500 
G01 X23.1336 Y22.9733 
G01 X15.7284 Y22.9733 
G01 X15.6414 Y22.9500 
G01 X15.5635 Y22.9050 
G01 X15.4998 Y22.8413 
G01 X14.7174 Y22.0589 
G01 X14.3236 Y22.0589 
G01 X14.2208 Y22.2127 
G01 X14.0847 Y22.3488 
G01 X13.9247 Y22.4557 
G01 X13.7470 Y22.5294 
G01 X13.5582 Y22.5669 
G01 X11.8490 Y22.5669 
G01 X15.4578 Y26.1757 
G01 X16.8031 Y26.1757 
G01 X16.8031 Y25.8118 
G01 X16.8406 Y25.6230 
G01 X16.9143 Y25.4453 
G01 X17.0212 Y25.2853 
G01 X17.1573 Y25.1492 
G01 X17.3173 Y25.0423 
G01 X17.4950 Y24.9686 
G01 X17.6838 Y24.9311 
G01 X17.8762 Y24.9311 
G01 X18.0649 Y24.9686 
G01 X18.2427 Y25.0423 
G01 X18.4027 Y25.1492 
G01 X18.5388 Y25.2853 
G01 X18.6457 Y25.4453 
G01 X18.7194 Y25.6230 
G01 X18.7569 Y25.8118 
G01 X18.7569 Y27.5282 
G01 X18.7194 Y27.7170 
G01 X18.6457 Y27.8947 
G01 X18.5388 Y28.0547 
G01 X18.4027 Y28.1908 
G01 X18.2427 Y28.2977 
G01 X18.0649 Y28.3714 
G01 X17.8762 Y28.4089 
G01 X17.6838 Y28.4089 
G01 X17.4950 Y28.3714 
G01 X17.3173 Y28.2977 
G01 X17.1573 Y28.1908 
G01 X17.0212 Y28.0547 
G01 X16.9143 Y27.8947 
G01 X16.8406 Y27.7170 
G01 X16.8031 Y27.5282 
G01 X16.8031 Y26.8595 
G01 X15.2712 Y26.8595 
G01 X15.1842 Y26.8362 
G01 X15.1063 Y26.7912 
G01 X15.0426 Y26.7275 
G01 X10.4706 Y22.1555 
G01 X10.4256 Y22.0776 
G01 X10.4023 Y21.9906 
G01 X10.4023 Y18.0144 
G01 X10.4256 Y17.9274 
G01 X10.4706 Y17.8495 
G01 X10.5343 Y17.7858 
G01 X16.9973 Y11.3227 
G01 X16.9645 Y11.2434 
G01 X16.9311 Y11.0756 
G01 X16.9311 Y10.9044 
G01 X16.9645 Y10.7365 
G01 X17.0300 Y10.5784 
G01 X17.1251 Y10.4361 
G01 X17.2461 Y10.3151 
G01 X17.3884 Y10.2200 
G01 X17.5465 Y10.1545 
G01 X17.7144 Y10.1211 
G01 X17.8856 Y10.1211 
G01 X18.0534 Y10.1545 
G01 X18.2116 Y10.2200 
G01 X18.3539 Y10.3151 
G01 X18.4749 Y10.4361 
G01 X18.5700 Y10.5784 
G01 X18.6355 Y10.7365 
G01 X18.6689 Y10.9044 
G01 X18.6689 Y11.0756 
G01 X18.6355 Y11.2434 
G01 X18.6063 Y11.3140 
G01 X19.6457 Y10.2745 
G01 X19.6251 Y10.2539 
G01 X19.5300 Y10.1116 
G01 X19.4645 Y9.9534 
G01 X19.4311 Y9.7856 
G01 X19.4311 Y9.6144 
G01 X19.4645 Y9.4466 
G01 X19.5300 Y9.2884 
G01 X19.6251 Y9.1461 
G00 Z2.5400 
G00 X20.2420 Y11.3311 
G01 Z-0.1778 F127.00 
G01 X20.3856 Y11.3311 F254.00 
G01 X20.5534 Y11.3645 
G01 X20.7116 Y11.4300 
G01 X20.8539 Y11.5251 
G01 X20.9749 Y11.6461 
G01 X20.9919 Y11.6716 
G01 X21.5774 Y11.0861 
G01 X20.4870 Y11.0861 
G01 X20.2420 Y11.3311 
G00 Z2.5400 
G00 X20.2144 Y13.0689 
G01 Z-0.1778 F127.00 
G01 X20.0465 Y13.0355 F254.00 
G01 X19.8884 Y12.9700 
G01 X19.7461 Y12.8749 
G01 X19.6251 Y12.7539 
G01 X19.5443 Y12.6330 
G01 X19.5443 Y14.2670 
G01 X19.6251 Y14.1461 
G01 X19.7461 Y14.0251 
G01 X19.8884 Y13.9300 
G01 X20.0465 Y13.8645 
G01 X20.2144 Y13.8311 
G01 X20.3856 Y13.8311 
G01 X20.5534 Y13.8645 
G01 X20.7116 Y13.9300 
G01 X20.8539 Y14.0251 
G01 X20.9749 Y14.1461 
G01 X21.0700 Y14.2884 
G01 X21.1355 Y14.4466 
G01 X21.1689 Y14.6144 
G01 X21.1689 Y14.7856 
G01 X21.1355 Y14.9534 
G01 X21.0700 Y15.1116 
G01 X20.9749 Y15.2539 
G01 X20.8539 Y15.3749 
G01 X20.7116 Y15.4700 
G01 X20.5534 Y15.5355 
G01 X20.3856 Y15.5689 
G01 X20.2144 Y15.5689 
G01 X20.1555 Y15.5572 
G01 X20.3904 Y15.7921 
G01 X20.4354 Y15.8700 
G01 X20.4587 Y15.9570 
G01 X20.4587 Y16.3456 
G01 X20.5534 Y16.3645 
G01 X20.7116 Y16.4300 
G01 X20.8539 Y16.5251 
G01 X20.9749 Y16.6461 
G01 X21.0700 Y16.7884 
G01 X21.1355 Y16.9465 
G01 X21.1689 Y17.1144 
G01 X21.1689 Y17.2856 
G01 X21.1355 Y17.4534 
G01 X21.1227 Y17.4844 
G01 X21.8323 Y16.7748 
G01 X21.8323 Y13.4424 
G01 X21.8556 Y13.3554 
G01 X21.9006 Y13.2775 
G01 X24.1615 Y11.0165 
G01 X24.0153 Y10.9188 
G01 X23.8792 Y10.7827 
G01 X23.7723 Y10.6227 
G01 X23.6986 Y10.4450 
G01 X23.6611 Y10.2562 
G01 X23.6611 Y10.0638 
G01 X23.6845 Y9.9460 
G01 X21.2411 Y12.3894 
G01 X21.1632 Y12.4344 
G01 X21.1380 Y12.4412 
G01 X21.1355 Y12.4534 
G01 X21.0700 Y12.6116 
G01 X20.9749 Y12.7539 
G01 X20.8539 Y12.8749 
G01 X20.7116 Y12.9700 
G01 X20.5534 Y13.0355 
G01 X20.3856 Y13.0689 
G01 X20.2144 Y13.0689 
G00 Z2.5400 
G00 X18.5700 Y13.0784 
G01 Z-0.1778 F127.00 
G01 X18.6355 Y13.2365 F254.00 
G01 X18.6689 Y13.4044 
G01 X18.6689 Y13.5756 
G01 X18.6355 Y13.7434 
G01 X18.5700 Y13.9016 
G01 X18.4749 Y14.0439 
G01 X18.3539 Y14.1649 
G01 X18.2116 Y14.2600 
G01 X18.0534 Y14.3255 
G01 X17.9441 Y14.3473 
G01 X17.9441 Y14.6754 
G01 X17.9208 Y14.7624 
G01 X17.8758 Y14.8403 
G01 X17.5654 Y15.1508 
G01 X17.7144 Y15.1211 
G01 X17.8856 Y15.1211 
G01 X18.0534 Y15.1545 
G01 X18.2116 Y15.2200 
G01 X18.3539 Y15.3151 
G01 X18.4749 Y15.4361 
G01 X18.5700 Y15.5784 
G01 X18.6355 Y15.7365 
G01 X18.6689 Y15.9044 
G01 X18.6689 Y16.0756 
G01 X18.6355 Y16.2434 
G01 X18.5700 Y16.4016 
G01 X18.4749 Y16.5439 
G01 X18.3539 Y16.6649 
G01 X18.2116 Y16.7600 
G01 X18.0534 Y16.8255 
G01 X17.8856 Y16.8589 
G01 X17.7144 Y16.8589 
G01 X17.5465 Y16.8255 
G01 X17.3884 Y16.7600 
G01 X17.2461 Y16.6649 
G01 X17.1251 Y16.5439 
G01 X17.0300 Y16.4016 
G01 X17.0297 Y18.0791 
G01 X17.1251 Y17.9361 
G01 X17.2461 Y17.8151 
G01 X17.3884 Y17.7200 
G01 X17.5465 Y17.6545 
G01 X17.7144 Y17.6211 
G01 X17.8856 Y17.6211 
G01 X18.0534 Y17.6545 
G01 X18.2116 Y17.7200 
G01 X18.3539 Y17.8151 
G01 X18.4749 Y17.9361 
G01 X18.4816 Y17.9461 
G01 X19.8526 Y17.9461 
G01 X19.7461 Y17.8749 
G01 X19.6251 Y17.7539 
G01 X19.5300 Y17.6116 
G01 X19.4645 Y17.4534 
G01 X19.4311 Y17.2856 
G01 X19.4311 Y17.1144 
G01 X19.4645 Y16.9465 
G01 X19.5300 Y16.7884 
G01 X19.6251 Y16.6461 
G01 X19.7461 Y16.5251 
G01 X19.7749 Y16.5058 
G01 X19.7749 Y16.1436 
G01 X18.9925 Y15.3612 
G01 X18.9288 Y15.2975 
G01 X18.8838 Y15.2196 
G01 X18.8605 Y15.1326 
G01 X18.8605 Y12.0268 
G01 X18.3330 Y12.5543 
G01 X18.2693 Y12.6180 
G01 X18.1914 Y12.6630 
G01 X18.1201 Y12.6821 
G01 X18.2116 Y12.7200 
G01 X18.3539 Y12.8151 
G01 X18.4749 Y12.9361 
G01 X18.5700 Y13.0784 
G00 Z2.5400 
G00 X18.1240 Y11.7963 
G01 Z-0.1778 F127.00 
G01 X18.0534 Y11.8255 F254.00 
G01 X17.8856 Y11.8589 
G01 X17.7144 Y11.8589 
G01 X17.5465 Y11.8255 
G01 X17.4865 Y11.8006 
G01 X17.2685 Y12.0186 
G01 X17.3286 Y12.0025 
G01 X17.9178 Y12.0025 
G01 X18.1240 Y11.7963 
G00 Z2.5400 
G00 X16.9644 Y13.2371 
G01 Z-0.1778 F127.00 
G01 X13.1435 Y17.0580 F254.00 
G01 X13.1435 Y18.0731 
G01 X13.5582 Y18.0731 
G01 X13.7470 Y18.1106 
G01 X13.9247 Y18.1843 
G01 X14.0847 Y18.2912 
G01 X14.2208 Y18.4273 
G01 X14.3277 Y18.5873 
G01 X14.4014 Y18.7650 
G01 X14.4389 Y18.9538 
G01 X14.4389 Y19.1462 
G01 X14.4014 Y19.3349 
G01 X14.3277 Y19.5127 
G01 X14.2208 Y19.6727 
G01 X14.1024 Y19.7911 
G01 X16.1436 Y21.8323 
G01 X17.5807 Y21.8323 
G01 X17.5465 Y21.8255 
G01 X17.3884 Y21.7600 
G01 X17.2461 Y21.6649 
G01 X17.1251 Y21.5439 
G01 X17.0300 Y21.4016 
G01 X16.9645 Y21.2434 
G01 X16.9311 Y21.0756 
G01 X16.9311 Y20.9044 
G01 X16.9645 Y20.7366 
G01 X17.0300 Y20.5784 
G01 X17.1251 Y20.4361 
G01 X17.2461 Y20.3151 
G01 X17.3884 Y20.2200 
G01 X17.4494 Y20.1947 
G01 X17.3923 Y20.1618 
G01 X17.3286 Y20.0981 
G01 X16.4142 Y19.1837 
G01 X16.3692 Y19.1058 
G01 X16.3459 Y19.0188 
G01 X16.3459 Y15.4998 
G01 X16.3692 Y15.4128 
G01 X16.4142 Y15.3349 
G01 X16.4779 Y15.2712 
G01 X17.2603 Y14.4888 
G01 X17.2603 Y14.1744 
G01 X17.2461 Y14.1649 
G01 X17.1251 Y14.0439 
G01 X17.0300 Y13.9016 
G01 X16.9645 Y13.7434 
G01 X16.9311 Y13.5756 
G01 X16.9311 Y13.4044 
G01 X16.9644 Y13.2371 
G00 Z2.5400 
G00 X22.5161 Y13.6290 
G01 Z-0.1778 F127.00 
G01 X22.5161 Y14.4908 F254.00 
G01 X23.8011 Y13.2058 
G01 X23.7723 Y13.1627 
G01 X23.6986 Y12.9849 
G01 X23.6611 Y12.7962 
G01 X23.6611 Y12.6038 
G01 X23.6908 Y12.4543 
G01 X22.5161 Y13.6290 
G00 Z2.5400 
G00 X24.3606 Y14.2991 
G01 Z-0.1778 F127.00 
G01 X24.4242 Y14.2865 F254.00 
G01 X24.3732 Y14.2865 
G01 X24.3606 Y14.2991 
G00 Z2.5400 
G00 X23.6971 Y14.9626 
G01 Z-0.1778 F127.00 
G01 X23.4305 Y15.2292 F254.00 
G01 X23.4305 Y16.7768 
G01 X24.1311 Y16.0762 
G01 X24.0153 Y15.9988 
G01 X23.8792 Y15.8627 
G01 X23.7723 Y15.7027 
G01 X23.6986 Y15.5250 
G01 X23.6611 Y15.3362 
G01 X23.6611 Y15.1438 
G01 X23.6971 Y14.9626 
G00 Z2.5400 
G00 X24.9574 Y16.2169 
G01 Z-0.1778 F127.00 
G01 X24.3200 Y16.8543 F254.00 
G01 X24.3530 Y16.8406 
G01 X24.5418 Y16.8031 
G01 X26.2582 Y16.8031 
G01 X26.4470 Y16.8406 
G01 X26.6247 Y16.9143 
G01 X26.7847 Y17.0212 
G01 X26.9208 Y17.1573 
G01 X27.0277 Y17.3173 
G01 X27.0901 Y17.4679 
G01 X27.0901 Y15.5521 
G01 X27.0277 Y15.7027 
G01 X26.9208 Y15.8627 
G01 X26.7847 Y15.9988 
G01 X26.6247 Y16.1057 
G01 X26.4470 Y16.1794 
G01 X26.2582 Y16.2169 
G01 X24.9574 Y16.2169 
G00 Z2.5400 
G00 X24.9320 Y18.7569 
G01 Z-0.1778 F127.00 
G01 X24.2766 Y19.4123 F254.00 
G01 X24.3530 Y19.3806 
G01 X24.5418 Y19.3431 
G01 X25.8934 Y19.3431 
G01 X26.5667 Y18.6697 
G01 X26.4470 Y18.7194 
G01 X26.2582 Y18.7569 
G01 X24.9320 Y18.7569 
G00 Z2.5400 
G00 X24.1159 Y18.6060 
G01 Z-0.1778 F127.00 
G01 X24.0153 Y18.5388 F254.00 
G01 X23.8877 Y18.4112 
G01 X23.8877 Y18.7902 
G01 X23.8716 Y18.8503 
G01 X24.1159 Y18.6060 
G00 Z2.5400 
G00 X22.7467 Y18.3750 
G01 Z-0.1778 F127.00 
G01 X22.7467 Y17.5132 F254.00 
G01 X22.5161 Y17.7438 
G01 X22.5161 Y17.8758 
G01 X22.4928 Y17.9628 
G01 X22.4478 Y18.0407 
G01 X22.3841 Y18.1044 
G01 X21.1081 Y19.3804 
G01 X21.1355 Y19.4465 
G01 X21.1689 Y19.6144 
G01 X21.1689 Y19.7856 
G01 X21.1355 Y19.9534 
G01 X21.1124 Y20.0093 
G01 X22.7467 Y18.3750 
G00 Z2.5400 
G00 X20.9077 Y18.6138 
G01 Z-0.1778 F127.00 
G01 X20.8476 Y18.6299 F254.00 
G01 X18.6581 Y18.6299 
G01 X18.6355 Y18.7434 
G01 X18.5700 Y18.9016 
G01 X18.4749 Y19.0439 
G01 X18.3539 Y19.1649 
G01 X18.2116 Y19.2600 
G01 X18.0534 Y19.3255 
G01 X17.8856 Y19.3589 
G01 X17.7144 Y19.3589 
G01 X17.5465 Y19.3255 
G01 X17.5064 Y19.3089 
G01 X17.7438 Y19.5463 
G01 X19.0188 Y19.5463 
G01 X19.1058 Y19.5696 
G01 X19.1837 Y19.6146 
G01 X19.4501 Y19.8810 
G01 X19.4311 Y19.7856 
G01 X19.4311 Y19.6144 
G01 X19.4645 Y19.4465 
G01 X19.5300 Y19.2884 
G01 X19.6251 Y19.1461 
G01 X19.7461 Y19.0251 
G01 X19.8884 Y18.9300 
G01 X20.0465 Y18.8645 
G01 X20.2144 Y18.8311 
G01 X20.3856 Y18.8311 
G01 X20.5534 Y18.8645 
G01 X20.6267 Y18.8948 
G01 X20.9077 Y18.6138 
G00 Z2.5400 
G00 X21.0762 Y21.6017 
G01 Z-0.1778 F127.00 
G01 X19.6146 Y21.6017 F254.00 
G01 X19.5276 Y21.5784 
G01 X19.4497 Y21.5334 
G01 X19.3860 Y21.4697 
G01 X19.2894 Y21.3731 
G01 X18.5818 Y21.3731 
G01 X18.5700 Y21.4016 
G01 X18.4749 Y21.5439 
G01 X18.3539 Y21.6649 
G01 X18.2116 Y21.7600 
G01 X18.0534 Y21.8255 
G01 X18.0193 Y21.8323 
G01 X20.8896 Y21.8323 
G01 X21.1363 Y21.5856 
G01 X21.0762 Y21.6017 
G00 Z2.5400 
G00 X21.3994 Y22.2895 
G01 Z-0.1778 F127.00 
G01 X22.9470 Y22.2895 F254.00 
G01 X24.1006 Y21.1359 
G01 X24.0153 Y21.0788 
G01 X23.8792 Y20.9427 
G01 X23.7723 Y20.7827 
G01 X23.6986 Y20.6049 
G01 X23.6611 Y20.4162 
G01 X23.6611 Y20.2238 
G01 X23.6986 Y20.0350 
G01 X23.7303 Y19.9586 
G01 X21.3994 Y22.2895 
G00 Z2.5400 
G00 X19.2914 Y20.6893 
G01 Z-0.1778 F127.00 
G01 X18.8322 Y20.2301 F254.00 
G01 X18.2267 Y20.2301 
G01 X18.3539 Y20.3151 
G01 X18.4749 Y20.4361 
G01 X18.5700 Y20.5784 
G01 X18.6159 Y20.6893 
G01 X19.2914 Y20.6893 
G00 Z2.5400 
G00 X14.7194 Y21.3751 
G01 Z-0.1778 F127.00 
G01 X13.3712 Y20.0269 F254.00 
G01 X11.8418 Y20.0269 
G01 X11.6530 Y19.9894 
G01 X11.4753 Y19.9157 
G01 X11.3153 Y19.8088 
G01 X11.1792 Y19.6727 
G01 X11.0861 Y19.5334 
G01 X11.0861 Y21.1066 
G01 X11.1792 Y20.9673 
G01 X11.3153 Y20.8312 
G01 X11.4753 Y20.7243 
G01 X11.6530 Y20.6506 
G01 X11.8418 Y20.6131 
G01 X13.5582 Y20.6131 
G01 X13.7470 Y20.6506 
G01 X13.9247 Y20.7243 
G01 X14.0847 Y20.8312 
G01 X14.2208 Y20.9673 
G01 X14.3277 Y21.1273 
G01 X14.4014 Y21.3050 
G01 X14.4153 Y21.3751 
G01 X14.7194 Y21.3751 
G00 Z2.5400 
G00 X12.4597 Y18.0731 
G01 Z-0.1778 F127.00 
G01 X12.4597 Y16.8714 F254.00 
G01 X12.4758 Y16.8113 
G01 X11.0861 Y18.2010 
G01 X11.0861 Y18.5666 
G01 X11.1792 Y18.4273 
G01 X11.3153 Y18.2912 
G01 X11.4753 Y18.1843 
G01 X11.6530 Y18.1106 
G01 X11.8418 Y18.0731 
G01 X12.4597 Y18.0731 
G00 Z2.5400 
G00 X27.0901 Y18.0921 
G01 Z-0.1778 F127.00 
G01 X27.0517 Y18.1848 F254.00 
G01 X27.0901 Y18.1464 
G01 X27.0901 Y18.0921 
G00 Z2.5400 
G00 X27.5473 Y18.6562 
G01 Z-0.1778 F127.00 
G01 X26.6994 Y19.5041 F254.00 
G01 X26.7847 Y19.5612 
G01 X26.9208 Y19.6973 
G01 X27.0277 Y19.8573 
G01 X27.1014 Y20.0350 
G01 X27.1389 Y20.2238 
G01 X27.1389 Y20.4162 
G01 X27.1014 Y20.6049 
G01 X27.0697 Y20.6814 
G01 X27.5473 Y20.2038 
G01 X27.5473 Y18.6562 
G00 Z2.5400 
G00 X27.5473 Y14.4908 
G01 Z-0.1778 F127.00 
G01 X27.5473 Y10.4286 F254.00 
G01 X27.1281 Y10.0094 
G01 X27.1389 Y10.0638 
G01 X27.1389 Y10.2562 
G01 X27.1014 Y10.4450 
G01 X27.0277 Y10.6227 
G01 X26.9208 Y10.7827 
G01 X26.7847 Y10.9188 
G01 X26.6247 Y11.0257 
G01 X26.4470 Y11.0994 
G01 X26.2582 Y11.1369 
G01 X25.0082 Y11.1369 
G01 X24.3923 Y11.7528 
G01 X24.5418 Y11.7231 
G01 X26.2582 Y11.7231 
G01 X26.4470 Y11.7606 
G01 X26.6247 Y11.8343 
G01 X26.7847 Y11.9412 
G01 X26.9208 Y12.0773 
G01 X27.0277 Y12.2373 
G01 X27.1014 Y12.4150 
G01 X27.1389 Y12.6038 
G01 X27.1389 Y12.7962 
G01 X27.1014 Y12.9849 
G01 X27.0277 Y13.1627 
G01 X26.9208 Y13.3227 
G01 X26.7847 Y13.4588 
G01 X26.6247 Y13.5657 
G01 X26.5354 Y13.6027 
G01 X26.5626 Y13.6027 
G01 X26.6496 Y13.6260 
G01 X26.7275 Y13.6710 
G01 X27.5473 Y14.4908 
G00 Z2.5400 
G00 X26.3760 Y14.2865 
G01 Z-0.1778 F127.00 
G01 X26.3760 Y14.2865 F254.00 
G00 Z2.5400 
G00 X24.4242 Y8.5735 
G01 Z-0.1778 F127.00 
G01 X24.3800 Y8.5647 F254.00 
G01 X24.3712 Y8.5735 
G01 X24.4242 Y8.5735 
G00 Z2.5400 
G00 X16.8724 Y7.6261 
G01 Z-0.1778 F127.00 
G01 X16.9361 Y7.5624 F254.00 
G01 X17.0140 Y7.5174 
G01 X17.1010 Y7.4941 
G01 X18.4990 Y7.4941 
G01 X18.5860 Y7.5174 
G01 X18.6639 Y7.5624 
G01 X18.7276 Y7.6261 
G01 X18.7726 Y7.7040 
G01 X18.7959 Y7.7910 
G01 X18.7959 Y9.1890 
G01 X18.7726 Y9.2760 
G01 X18.7276 Y9.3539 
G01 X18.6639 Y9.4176 
G01 X18.5860 Y9.4626 
G01 X18.4990 Y9.4859 
G01 X17.1010 Y9.4859 
G01 X17.0140 Y9.4626 
G01 X16.9361 Y9.4176 
G01 X16.8724 Y9.3539 
G01 X16.8274 Y9.2760 
G01 X16.8041 Y9.1890 
G01 X16.8041 Y7.7910 
G01 X16.8274 Y7.7040 
G01 X16.8724 Y7.6261 
G00 Z2.5400 
G00 X19.4174 Y7.6717 
G01 Z-0.1778 F127.00 
G01 X19.3424 Y7.4905 F254.00 
G01 X19.3041 Y7.2981 
G01 X19.3041 Y7.1019 
G01 X19.3424 Y6.9095 
G01 X19.4174 Y6.7283 
G01 X19.5264 Y6.5652 
G01 X19.6652 Y6.4264 
G01 X19.8283 Y6.3174 
G01 X20.0095 Y6.2424 
G01 X20.2019 Y6.2041 
G01 X20.3981 Y6.2041 
G01 X20.5905 Y6.2424 
G01 X20.7717 Y6.3174 
G01 X20.9348 Y6.4264 
G01 X21.0736 Y6.5652 
G01 X21.1826 Y6.7283 
G01 X21.2576 Y6.9095 
G01 X21.2959 Y7.1019 
G01 X21.2959 Y7.2981 
G01 X21.2576 Y7.4905 
G01 X21.1826 Y7.6717 
G01 X21.0736 Y7.8348 
G01 X20.9348 Y7.9736 
G01 X20.7717 Y8.0826 
G01 X20.5905 Y8.1576 
G01 X20.3981 Y8.1959 
G01 X20.2019 Y8.1959 
G01 X20.0095 Y8.1576 
G01 X19.8283 Y8.0826 
G01 X19.6652 Y7.9736 
G01 X19.5264 Y7.8348 
G01 X19.4174 Y7.6717 
G00 Z2.5400 
G00 X19.5264 Y9.0651 
G01 Z-0.1778 F127.00 
G01 X19.6652 Y8.9264 F254.00 
G01 X19.8283 Y8.8174 
G01 X20.0095 Y8.7424 
G01 X20.2019 Y8.7041 
G01 X20.3981 Y8.7041 
G01 X20.5905 Y8.7424 
G01 X20.7717 Y8.8174 
G01 X20.9348 Y8.9264 
G01 X21.0736 Y9.0651 
G01 X21.1826 Y9.2283 
G01 X21.2576 Y9.4095 
G01 X21.2959 Y9.6019 
G01 X21.2959 Y9.7981 
G01 X21.2576 Y9.9905 
G01 X21.1826 Y10.1717 
G01 X21.1133 Y10.2753 
G01 X21.5228 Y10.2753 
G01 X23.6620 Y8.1361 
G01 X23.6150 Y8.0437 
G01 X23.5613 Y7.8785 
G01 X23.5341 Y7.7069 
G01 X23.5341 Y7.5331 
G01 X23.5613 Y7.3615 
G01 X23.6150 Y7.1962 
G01 X23.6939 Y7.0414 
G01 X23.7960 Y6.9009 
G01 X23.9189 Y6.7780 
G01 X24.0594 Y6.6759 
G01 X24.2142 Y6.5970 
G01 X24.3795 Y6.5433 
G01 X24.5511 Y6.5161 
G01 X26.2489 Y6.5161 
G01 X26.4205 Y6.5433 
G01 X26.5858 Y6.5970 
G01 X26.7406 Y6.6759 
G01 X26.8811 Y6.7780 
G01 X27.0040 Y6.9009 
G01 X27.1061 Y7.0414 
G01 X27.1850 Y7.1962 
G01 X27.2387 Y7.3615 
G01 X27.2659 Y7.5331 
G01 X27.2659 Y7.7069 
G01 X27.2387 Y7.8785 
G01 X27.1850 Y8.0437 
G01 X27.1061 Y8.1986 
G01 X27.0040 Y8.3391 
G01 X26.8811 Y8.4620 
G01 X26.7877 Y8.5299 
G01 X26.8055 Y8.5402 
G01 X28.1771 Y9.9118 
G01 X28.2644 Y9.9991 
G01 X28.3261 Y10.1060 
G01 X28.3581 Y10.2253 
G01 X28.3581 Y20.4071 
G01 X28.3261 Y20.5264 
G01 X28.2644 Y20.6333 
G01 X22.0922 Y26.8055 
G01 X22.0049 Y26.8928 
G01 X21.8980 Y26.9545 
G01 X21.7787 Y26.9865 
G01 X21.4239 Y26.9865 
G01 X21.4239 Y27.5189 
G01 X21.3967 Y27.6905 
G01 X21.3430 Y27.8558 
G01 X21.2641 Y28.0106 
G01 X21.1620 Y28.1511 
G01 X21.0391 Y28.2740 
G01 X20.8986 Y28.3761 
G01 X20.7437 Y28.4550 
G01 X20.5785 Y28.5087 
G01 X20.4069 Y28.5359 
G01 X20.2331 Y28.5359 
G01 X20.0615 Y28.5087 
G01 X19.8962 Y28.4550 
G01 X19.7414 Y28.3761 
G01 X19.6009 Y28.2740 
G01 X19.4780 Y28.1511 
G01 X19.3759 Y28.0106 
G01 X19.2970 Y27.8558 
G01 X19.2433 Y27.6905 
G01 X19.2161 Y27.5189 
G01 X19.2161 Y25.8211 
G01 X19.2433 Y25.6495 
G01 X19.2970 Y25.4842 
G01 X19.3759 Y25.3294 
G01 X19.4780 Y25.1889 
G01 X19.6009 Y25.0660 
G01 X19.7414 Y24.9639 
G01 X19.8962 Y24.8850 
G01 X20.0615 Y24.8313 
G01 X20.2331 Y24.8041 
G01 X20.4069 Y24.8041 
G01 X20.5785 Y24.8313 
G01 X20.7437 Y24.8850 
G01 X20.8986 Y24.9639 
G01 X21.0391 Y25.0660 
G01 X21.1620 Y25.1889 
G01 X21.2641 Y25.3294 
G01 X21.3430 Y25.4842 
G01 X21.3967 Y25.6495 
G01 X21.4239 Y25.8211 
G01 X21.4239 Y26.0487 
G01 X21.5228 Y26.0487 
G01 X26.1476 Y21.4239 
G01 X24.9592 Y21.4239 
G01 X23.3765 Y23.0066 
G01 X23.2696 Y23.0683 
G01 X23.1503 Y23.1003 
G01 X15.7117 Y23.1003 
G01 X15.5924 Y23.0683 
G01 X15.4855 Y23.0066 
G01 X15.3982 Y22.9193 
G01 X14.6648 Y22.1859 
G01 X14.3935 Y22.1859 
G01 X14.3040 Y22.3091 
G01 X14.1811 Y22.4320 
G01 X14.0406 Y22.5341 
G01 X13.8857 Y22.6130 
G01 X13.7205 Y22.6667 
G01 X13.5489 Y22.6939 
G01 X12.1556 Y22.6939 
G01 X15.5104 Y26.0487 
G01 X16.6761 Y26.0487 
G01 X16.6761 Y25.8211 
G01 X16.7033 Y25.6495 
G01 X16.7570 Y25.4842 
G01 X16.8359 Y25.3294 
G01 X16.9380 Y25.1889 
G01 X17.0609 Y25.0660 
G01 X17.2014 Y24.9639 
G01 X17.3562 Y24.8850 
G01 X17.5215 Y24.8313 
G01 X17.6931 Y24.8041 
G01 X17.8669 Y24.8041 
G01 X18.0385 Y24.8313 
G01 X18.2037 Y24.8850 
G01 X18.3586 Y24.9639 
G01 X18.4991 Y25.0660 
G01 X18.6220 Y25.1889 
G01 X18.7241 Y25.3294 
G01 X18.8030 Y25.4842 
G01 X18.8567 Y25.6495 
G01 X18.8839 Y25.8211 
G01 X18.8839 Y27.5189 
G01 X18.8567 Y27.6905 
G01 X18.8030 Y27.8558 
G01 X18.7241 Y28.0106 
G01 X18.6220 Y28.1511 
G01 X18.4991 Y28.2740 
G01 X18.3586 Y28.3761 
G01 X18.2037 Y28.4550 
G01 X18.0385 Y28.5087 
G01 X17.8669 Y28.5359 
G01 X17.6931 Y28.5359 
G01 X17.5215 Y28.5087 
G01 X17.3562 Y28.4550 
G01 X17.2014 Y28.3761 
G01 X17.0609 Y28.2740 
G01 X16.9380 Y28.1511 
G01 X16.8359 Y28.0106 
G01 X16.7570 Y27.8558 
G01 X16.7033 Y27.6905 
G01 X16.6761 Y27.5189 
G01 X16.6761 Y26.9865 
G01 X15.2545 Y26.9865 
G01 X15.1352 Y26.9545 
G01 X15.0283 Y26.8928 
G01 X14.9410 Y26.8055 
G01 X10.3690 Y22.2335 
G01 X10.3073 Y22.1266 
G01 X10.2753 Y22.0073 
G01 X10.2753 Y17.9977 
G01 X10.3073 Y17.8784 
G01 X10.3690 Y17.7715 
G01 X10.4563 Y17.6842 
G01 X16.8475 Y11.2929 
G01 X16.8424 Y11.2805 
G01 X16.8041 Y11.0881 
G01 X16.8041 Y10.8919 
G01 X16.8424 Y10.6995 
G01 X16.9174 Y10.5183 
G01 X17.0264 Y10.3552 
G01 X17.1652 Y10.2164 
G01 X17.3283 Y10.1074 
G01 X17.5095 Y10.0324 
G01 X17.7019 Y9.9941 
G01 X17.8981 Y9.9941 
G01 X18.0905 Y10.0324 
G01 X18.2717 Y10.1074 
G01 X18.4348 Y10.2164 
G01 X18.5736 Y10.3552 
G01 X18.6826 Y10.5183 
G01 X18.7576 Y10.6995 
G01 X18.7959 Y10.8919 
G01 X18.7959 Y10.9448 
G01 X19.4781 Y10.2625 
G01 X19.4174 Y10.1717 
G01 X19.3424 Y9.9905 
G01 X19.3041 Y9.7981 
G01 X19.3041 Y9.6019 
G01 X19.3424 Y9.4095 
G01 X19.4174 Y9.2283 
G01 X19.5264 Y9.0651 
G00 Z2.5400 
G00 X20.5236 Y11.2291 
G01 Z-0.1778 F127.00 
G01 X20.5905 Y11.2424 F254.00 
G01 X20.7717 Y11.3174 
G01 X20.9348 Y11.4264 
G01 X20.9961 Y11.4877 
G01 X21.2708 Y11.2131 
G01 X20.5396 Y11.2131 
G01 X20.5236 Y11.2291 
G00 Z2.5400 
G00 X20.5905 Y13.1576 
G01 Z-0.1778 F127.00 
G01 X20.3981 Y13.1959 F254.00 
G01 X20.2019 Y13.1959 
G01 X20.0095 Y13.1576 
G01 X19.8283 Y13.0826 
G01 X19.6713 Y12.9777 
G01 X19.6713 Y13.9223 
G01 X19.8283 Y13.8174 
G01 X20.0095 Y13.7424 
G01 X20.2019 Y13.7041 
G01 X20.3981 Y13.7041 
G01 X20.5905 Y13.7424 
G01 X20.7717 Y13.8174 
G01 X20.9348 Y13.9264 
G01 X21.0736 Y14.0651 
G01 X21.1826 Y14.2283 
G01 X21.2576 Y14.4095 
G01 X21.2959 Y14.6019 
G01 X21.2959 Y14.7981 
G01 X21.2576 Y14.9905 
G01 X21.1826 Y15.1717 
G01 X21.0736 Y15.3348 
G01 X20.9348 Y15.4736 
G01 X20.7717 Y15.5826 
G01 X20.5905 Y15.6576 
G01 X20.4612 Y15.6833 
G01 X20.4920 Y15.7141 
G01 X20.5537 Y15.8210 
G01 X20.5857 Y15.9403 
G01 X20.5857 Y16.2414 
G01 X20.5905 Y16.2424 
G01 X20.7717 Y16.3174 
G01 X20.9348 Y16.4264 
G01 X21.0736 Y16.5651 
G01 X21.1826 Y16.7283 
G01 X21.2576 Y16.9095 
G01 X21.2959 Y17.1019 
G01 X21.2959 Y17.1316 
G01 X21.7053 Y16.7222 
G01 X21.7053 Y13.4257 
G01 X21.7373 Y13.3064 
G01 X21.7990 Y13.1995 
G01 X23.9638 Y11.0347 
G01 X23.9189 Y11.0020 
G01 X23.7960 Y10.8791 
G01 X23.6939 Y10.7386 
G01 X23.6150 Y10.5838 
G01 X23.5613 Y10.4185 
G01 X23.5381 Y10.2720 
G01 X21.3191 Y12.4910 
G01 X21.2380 Y12.5378 
G01 X21.1826 Y12.6717 
G01 X21.0736 Y12.8348 
G01 X20.9348 Y12.9736 
G01 X20.7717 Y13.0826 
G01 X20.5905 Y13.1576 
G00 Z2.5400 
G00 X18.7335 Y13.1413 
G01 Z-0.1778 F127.00 
G01 X18.7335 Y12.3334 F254.00 
G01 X18.4346 Y12.6323 
G01 X18.3843 Y12.6826 
G01 X18.4348 Y12.7164 
G01 X18.5736 Y12.8552 
G01 X18.6826 Y13.0183 
G01 X18.7335 Y13.1413 
G00 Z2.5400 
G00 X18.7335 Y13.8387 
G01 Z-0.1778 F127.00 
G01 X18.6826 Y13.9617 F254.00 
G01 X18.5736 Y14.1248 
G01 X18.4348 Y14.2636 
G01 X18.2717 Y14.3726 
G01 X18.0905 Y14.4476 
G01 X18.0711 Y14.4515 
G01 X18.0711 Y14.6921 
G01 X18.0391 Y14.8114 
G01 X17.9774 Y14.9183 
G01 X17.9010 Y14.9947 
G01 X18.0905 Y15.0324 
G01 X18.2717 Y15.1074 
G01 X18.4348 Y15.2164 
G01 X18.5736 Y15.3552 
G01 X18.6826 Y15.5183 
G01 X18.7576 Y15.6995 
G01 X18.7959 Y15.8919 
G01 X18.7959 Y16.0881 
G01 X18.7576 Y16.2805 
G01 X18.6826 Y16.4617 
G01 X18.5736 Y16.6248 
G01 X18.4348 Y16.7636 
G01 X18.2717 Y16.8726 
G01 X18.0905 Y16.9476 
G01 X17.8981 Y16.9859 
G01 X17.7019 Y16.9859 
G01 X17.5095 Y16.9476 
G01 X17.3283 Y16.8726 
G01 X17.1652 Y16.7636 
G01 X17.1567 Y16.7551 
G01 X17.1567 Y17.7249 
G01 X17.1652 Y17.7164 
G01 X17.3283 Y17.6074 
G01 X17.5095 Y17.5324 
G01 X17.7019 Y17.4941 
G01 X17.8981 Y17.4941 
G01 X18.0905 Y17.5324 
G01 X18.2717 Y17.6074 
G01 X18.4348 Y17.7164 
G01 X18.5375 Y17.8191 
G01 X19.5159 Y17.8191 
G01 X19.4174 Y17.6717 
G01 X19.3424 Y17.4905 
G01 X19.3041 Y17.2981 
G01 X19.3041 Y17.1019 
G01 X19.3424 Y16.9095 
G01 X19.4174 Y16.7283 
G01 X19.5264 Y16.5651 
G01 X19.6479 Y16.4437 
G01 X19.6479 Y16.1962 
G01 X18.9145 Y15.4628 
G01 X18.8272 Y15.3755 
G01 X18.7655 Y15.2686 
G01 X18.7335 Y15.1493 
G01 X18.7335 Y13.8387 
G00 Z2.5400 
G00 X16.9174 Y13.9617 
G01 Z-0.1778 F127.00 
G01 X16.8424 Y13.7805 F254.00 
G01 X16.8041 Y13.5881 
G01 X16.8041 Y13.5770 
G01 X13.2705 Y17.1106 
G01 X13.2705 Y17.9461 
G01 X13.5489 Y17.9461 
G01 X13.7205 Y17.9733 
G01 X13.8857 Y18.0270 
G01 X14.0406 Y18.1059 
G01 X14.1811 Y18.2080 
G01 X14.3040 Y18.3309 
G01 X14.4061 Y18.4714 
G01 X14.4850 Y18.6262 
G01 X14.5387 Y18.7915 
G01 X14.5659 Y18.9631 
G01 X14.5659 Y19.1369 
G01 X14.5387 Y19.3085 
G01 X14.4850 Y19.4737 
G01 X14.4061 Y19.6286 
G01 X14.3040 Y19.7691 
G01 X14.2820 Y19.7911 
G01 X16.1962 Y21.7053 
G01 X17.1069 Y21.7053 
G01 X17.0264 Y21.6248 
G01 X16.9174 Y21.4617 
G01 X16.8424 Y21.2805 
G01 X16.8041 Y21.0881 
G01 X16.8041 Y20.8919 
G01 X16.8424 Y20.6995 
G01 X16.9174 Y20.5183 
G01 X17.0264 Y20.3551 
G01 X17.1652 Y20.2164 
G01 X17.2264 Y20.1755 
G01 X16.3126 Y19.2617 
G01 X16.2509 Y19.1548 
G01 X16.2189 Y19.0355 
G01 X16.2189 Y15.4831 
G01 X16.2509 Y15.3638 
G01 X16.3126 Y15.2569 
G01 X16.3999 Y15.1696 
G01 X17.1333 Y14.4362 
G01 X17.1333 Y14.2317 
G01 X17.0264 Y14.1248 
G01 X16.9174 Y13.9617 
G00 Z2.5400 
G00 X22.6431 Y14.1842 
G01 Z-0.1778 F127.00 
G01 X23.6449 Y13.1824 F254.00 
G01 X23.6150 Y13.1237 
G01 X23.5613 Y12.9585 
G01 X23.5346 Y12.7901 
G01 X22.6431 Y13.6816 
G01 X22.6431 Y14.1842 
G00 Z2.5400 
G00 X23.5575 Y15.4746 
G01 Z-0.1778 F127.00 
G01 X23.5575 Y16.4702 F254.00 
G01 X23.9344 Y16.0933 
G01 X23.9189 Y16.0820 
G01 X23.7960 Y15.9591 
G01 X23.6939 Y15.8186 
G01 X23.6150 Y15.6638 
G01 X23.5613 Y15.4985 
G01 X23.5575 Y15.4746 
G00 Z2.5400 
G00 X25.0100 Y16.3439 
G01 Z-0.1778 F127.00 
G01 X24.6778 Y16.6761 F254.00 
G01 X26.2489 Y16.6761 
G01 X26.4205 Y16.7033 
G01 X26.5858 Y16.7570 
G01 X26.7406 Y16.8359 
G01 X26.8811 Y16.9380 
G01 X26.9631 Y17.0200 
G01 X26.9631 Y16.0000 
G01 X26.8811 Y16.0820 
G01 X26.7406 Y16.1841 
G01 X26.5858 Y16.2630 
G01 X26.4205 Y16.3167 
G01 X26.2489 Y16.3439 
G01 X25.0100 Y16.3439 
G00 Z2.5400 
G00 X24.9846 Y18.8839 
G01 Z-0.1778 F127.00 
G01 X24.6524 Y19.2161 F254.00 
G01 X25.8408 Y19.2161 
G01 X26.1730 Y18.8839 
G01 X24.9846 Y18.8839 
G00 Z2.5400 
G00 X27.4203 Y18.9628 
G01 Z-0.1778 F127.00 
G01 X26.8931 Y19.4900 F254.00 
G01 X27.0040 Y19.6009 
G01 X27.1061 Y19.7414 
G01 X27.1850 Y19.8962 
G01 X27.2387 Y20.0615 
G01 X27.2659 Y20.2331 
G01 X27.2659 Y20.3056 
G01 X27.4203 Y20.1512 
G01 X27.4203 Y18.9628 
G00 Z2.5400 
G00 X27.4203 Y14.1842 
G01 Z-0.1778 F127.00 
G01 X27.4203 Y10.4812 F254.00 
G01 X27.2550 Y10.3159 
G01 X27.2387 Y10.4185 
G01 X27.1850 Y10.5838 
G01 X27.1061 Y10.7386 
G01 X27.0040 Y10.8791 
G01 X26.8811 Y11.0020 
G01 X26.7406 Y11.1041 
G01 X26.5858 Y11.1830 
G01 X26.4205 Y11.2367 
G01 X26.2489 Y11.2639 
G01 X25.0608 Y11.2639 
G01 X24.7286 Y11.5961 
G01 X26.2489 Y11.5961 
G01 X26.4205 Y11.6233 
G01 X26.5858 Y11.6770 
G01 X26.7406 Y11.7559 
G01 X26.8811 Y11.8580 
G01 X27.0040 Y11.9809 
G01 X27.1061 Y12.1214 
G01 X27.1850 Y12.2762 
G01 X27.2387 Y12.4415 
G01 X27.2659 Y12.6131 
G01 X27.2659 Y12.7869 
G01 X27.2387 Y12.9585 
G01 X27.1850 Y13.1237 
G01 X27.1061 Y13.2786 
G01 X27.0040 Y13.4191 
G01 X26.8811 Y13.5420 
G01 X26.8215 Y13.5854 
G01 X27.4203 Y14.1842 
G00 Z2.5400 
G00 X22.6197 Y17.9798 
G01 Z-0.1778 F127.00 
G01 X22.6111 Y18.0118 F254.00 
G01 X22.5494 Y18.1187 
G01 X22.4621 Y18.2060 
G01 X21.2578 Y19.4103 
G01 X21.2959 Y19.6019 
G01 X21.2959 Y19.6462 
G01 X22.6197 Y18.3224 
G01 X22.6197 Y17.9798 
G00 Z2.5400 
G00 X23.5341 Y20.3344 
G01 Z-0.1778 F127.00 
G01 X21.7060 Y22.1625 F254.00 
G01 X22.8944 Y22.1625 
G01 X23.9069 Y21.1500 
G01 X23.7960 Y21.0391 
G01 X23.6939 Y20.8986 
G01 X23.6150 Y20.7437 
G01 X23.5613 Y20.5785 
G01 X23.5341 Y20.4069 
G01 X23.5341 Y20.3344 
G00 Z2.5400 
G00 X18.9848 Y20.5623 
G01 Z-0.1778 F127.00 
G01 X18.7796 Y20.3571 F254.00 
G01 X18.5749 Y20.3571 
G01 X18.6826 Y20.5183 
G01 X18.7008 Y20.5623 
G01 X18.9848 Y20.5623 
G00 Z2.5400 
G00 X19.2368 Y21.5001 
G01 Z-0.1778 F127.00 
G01 X18.6569 Y21.5001 F254.00 
G01 X18.5736 Y21.6248 
G01 X18.4931 Y21.7053 
G01 X19.5105 Y21.7053 
G01 X19.4786 Y21.6967 
G01 X19.3717 Y21.6350 
G01 X19.2844 Y21.5477 
G01 X19.2368 Y21.5001 
G00 Z2.5400 
G00 X19.2617 Y19.5130 
G01 Z-0.1778 F127.00 
G01 X19.3118 Y19.5631 F254.00 
G01 X19.3424 Y19.4095 
G01 X19.4174 Y19.2283 
G01 X19.5264 Y19.0651 
G01 X19.6652 Y18.9264 
G01 X19.8283 Y18.8174 
G01 X19.9744 Y18.7569 
G01 X18.7623 Y18.7569 
G01 X18.7576 Y18.7805 
G01 X18.6826 Y18.9617 
G01 X18.5736 Y19.1248 
G01 X18.4348 Y19.2636 
G01 X18.2717 Y19.3726 
G01 X18.1589 Y19.4193 
G01 X19.0355 Y19.4193 
G01 X19.1548 Y19.4513 
G01 X19.2617 Y19.5130 
G00 Z2.5400 
G00 X13.6700 Y20.5053 
G01 Z-0.1778 F127.00 
G01 X13.3186 Y20.1539 F254.00 
G01 X11.8511 Y20.1539 
G01 X11.6795 Y20.1267 
G01 X11.5142 Y20.0730 
G01 X11.3594 Y19.9941 
G01 X11.2189 Y19.8920 
G01 X11.2131 Y19.8862 
G01 X11.2131 Y20.7538 
G01 X11.2189 Y20.7480 
G01 X11.3594 Y20.6459 
G01 X11.5142 Y20.5670 
G01 X11.6795 Y20.5133 
G01 X11.8511 Y20.4861 
G01 X13.5489 Y20.4861 
G01 X13.6700 Y20.5053 
G00 Z2.5400 
G00 X12.3327 Y17.9461 
G01 Z-0.1778 F127.00 
G01 X12.3327 Y17.1340 F254.00 
G01 X11.3623 Y18.1044 
G01 X11.5142 Y18.0270 
G01 X11.6795 Y17.9733 
G01 X11.8511 Y17.9461 
G01 X12.3327 Y17.9461 
G00 Z2.5400 
G00 X16.7708 Y7.5481 
G01 Z-0.1778 F127.00 
G01 X16.8581 Y7.4608 F254.00 
G01 X16.9650 Y7.3991 
G01 X17.0843 Y7.3671 
G01 X18.5157 Y7.3671 
G01 X18.6350 Y7.3991 
G01 X18.7419 Y7.4608 
G01 X18.8292 Y7.5481 
G01 X18.8909 Y7.6550 
G01 X18.9229 Y7.7743 
G01 X18.9229 Y9.2057 
G01 X18.8909 Y9.3250 
G01 X18.8292 Y9.4319 
G01 X18.7419 Y9.5192 
G01 X18.6350 Y9.5809 
G01 X18.5157 Y9.6129 
G01 X17.0843 Y9.6129 
G01 X16.9650 Y9.5809 
G01 X16.8581 Y9.5192 
G01 X16.7708 Y9.4319 
G01 X16.7091 Y9.3250 
G01 X16.6771 Y9.2057 
G01 X16.6771 Y7.7743 
G01 X16.7091 Y7.6550 
G01 X16.7708 Y7.5481 
G00 Z2.5400 
G00 X19.2048 Y7.4629 
G01 Z-0.1778 F127.00 
G01 X19.1771 Y7.2884 F254.00 
G01 X19.1771 Y7.1116 
G01 X19.2048 Y6.9371 
G01 X19.2594 Y6.7690 
G01 X19.3396 Y6.6115 
G01 X19.4435 Y6.4685 
G01 X19.5685 Y6.3435 
G01 X19.7115 Y6.2396 
G01 X19.8690 Y6.1594 
G01 X20.0371 Y6.1048 
G01 X20.2116 Y6.0771 
G01 X20.3884 Y6.0771 
G01 X20.5629 Y6.1048 
G01 X20.7310 Y6.1594 
G01 X20.8885 Y6.2396 
G01 X21.0315 Y6.3435 
G01 X21.1565 Y6.4685 
G01 X21.2604 Y6.6115 
G01 X21.3406 Y6.7690 
G01 X21.3952 Y6.9371 
G01 X21.4229 Y7.1116 
G01 X21.4229 Y7.2884 
G01 X21.3952 Y7.4629 
G01 X21.3406 Y7.6310 
G01 X21.2604 Y7.7885 
G01 X21.1565 Y7.9315 
G01 X21.0315 Y8.0565 
G01 X20.8885 Y8.1604 
G01 X20.7310 Y8.2406 
G01 X20.5629 Y8.2952 
G01 X20.3884 Y8.3229 
G01 X20.2116 Y8.3229 
G01 X20.0371 Y8.2952 
G01 X19.8690 Y8.2406 
G01 X19.7115 Y8.1604 
G01 X19.5685 Y8.0565 
G01 X19.4435 Y7.9315 
G01 X19.3396 Y7.7885 
G01 X19.2594 Y7.6310 
G01 X19.2048 Y7.4629 
G00 Z2.5400 
G00 X19.4435 Y8.9685 
G01 Z-0.1778 F127.00 
G01 X19.5685 Y8.8435 F254.00 
G01 X19.7115 Y8.7396 
G01 X19.8690 Y8.6594 
G01 X20.0371 Y8.6047 
G01 X20.2116 Y8.5771 
G01 X20.3884 Y8.5771 
G01 X20.5629 Y8.6047 
G01 X20.7310 Y8.6594 
G01 X20.8885 Y8.7396 
G01 X21.0315 Y8.8435 
G01 X21.1565 Y8.9685 
G01 X21.2604 Y9.1115 
G01 X21.3406 Y9.2690 
G01 X21.3952 Y9.4370 
G01 X21.4229 Y9.6116 
G01 X21.4229 Y9.7884 
G01 X21.3952 Y9.9629 
G01 X21.3406 Y10.1310 
G01 X21.3318 Y10.1483 
G01 X21.4702 Y10.1483 
G01 X23.5070 Y8.1115 
G01 X23.4973 Y8.0925 
G01 X23.4374 Y7.9082 
G01 X23.4071 Y7.7169 
G01 X23.4071 Y7.5231 
G01 X23.4374 Y7.3318 
G01 X23.4973 Y7.1475 
G01 X23.5852 Y6.9749 
G01 X23.6991 Y6.8181 
G01 X23.8361 Y6.6811 
G01 X23.9929 Y6.5672 
G01 X24.1655 Y6.4793 
G01 X24.3498 Y6.4194 
G01 X24.5411 Y6.3891 
G01 X26.2589 Y6.3891 
G01 X26.4502 Y6.4194 
G01 X26.6345 Y6.4793 
G01 X26.8071 Y6.5672 
G01 X26.9639 Y6.6811 
G01 X27.1009 Y6.8181 
G01 X27.2148 Y6.9749 
G01 X27.3027 Y7.1475 
G01 X27.3626 Y7.3318 
G01 X27.3929 Y7.5231 
G01 X27.3929 Y7.7169 
G01 X27.3626 Y7.9082 
G01 X27.3027 Y8.0925 
G01 X27.2148 Y8.2651 
G01 X27.1009 Y8.4219 
G01 X26.9838 Y8.5389 
G01 X28.2691 Y9.8241 
G01 X28.3521 Y9.9071 
G01 X28.4173 Y10.0047 
G01 X28.4622 Y10.1132 
G01 X28.4851 Y10.2283 
G01 X28.4851 Y20.4041 
G01 X28.4622 Y20.5192 
G01 X28.4173 Y20.6277 
G01 X28.3521 Y20.7253 
G01 X22.1799 Y26.8975 
G01 X22.0969 Y26.9805 
G01 X21.9993 Y27.0457 
G01 X21.8908 Y27.0906 
G01 X21.7757 Y27.1135 
G01 X21.5509 Y27.1135 
G01 X21.5509 Y27.5289 
G01 X21.5206 Y27.7202 
G01 X21.4607 Y27.9045 
G01 X21.3728 Y28.0771 
G01 X21.2589 Y28.2339 
G01 X21.1219 Y28.3709 
G01 X20.9651 Y28.4848 
G01 X20.7925 Y28.5727 
G01 X20.6082 Y28.6326 
G01 X20.4169 Y28.6629 
G01 X20.2231 Y28.6629 
G01 X20.0318 Y28.6326 
G01 X19.8475 Y28.5727 
G01 X19.6749 Y28.4848 
G01 X19.5181 Y28.3709 
G01 X19.3811 Y28.2339 
G01 X19.2672 Y28.0771 
G01 X19.1793 Y27.9045 
G01 X19.1194 Y27.7202 
G01 X19.0891 Y27.5289 
G01 X19.0891 Y25.8111 
G01 X19.1194 Y25.6198 
G01 X19.1793 Y25.4355 
G01 X19.2672 Y25.2629 
G01 X19.3811 Y25.1061 
G01 X19.5181 Y24.9691 
G01 X19.6749 Y24.8552 
G01 X19.8475 Y24.7673 
G01 X20.0318 Y24.7074 
G01 X20.2231 Y24.6771 
G01 X20.4169 Y24.6771 
G01 X20.6082 Y24.7074 
G01 X20.7925 Y24.7673 
G01 X20.9651 Y24.8552 
G01 X21.1219 Y24.9691 
G01 X21.2589 Y25.1061 
G01 X21.3728 Y25.2629 
G01 X21.4607 Y25.4355 
G01 X21.5206 Y25.6198 
G01 X21.5509 Y25.8111 
G01 X21.5509 Y25.8410 
G01 X25.8410 Y21.5509 
G01 X25.0118 Y21.5509 
G01 X23.4685 Y23.0943 
G01 X23.3709 Y23.1595 
G01 X23.2624 Y23.2044 
G01 X23.1473 Y23.2273 
G01 X15.7147 Y23.2273 
G01 X15.5996 Y23.2044 
G01 X15.4911 Y23.1595 
G01 X15.3935 Y23.0943 
G01 X15.3105 Y23.0113 
G01 X14.6122 Y22.3129 
G01 X14.4583 Y22.3129 
G01 X14.4009 Y22.3919 
G01 X14.2639 Y22.5289 
G01 X14.1071 Y22.6428 
G01 X13.9345 Y22.7307 
G01 X13.7502 Y22.7906 
G01 X13.5589 Y22.8209 
G01 X12.4622 Y22.8209 
G01 X15.5630 Y25.9217 
G01 X16.5491 Y25.9217 
G01 X16.5491 Y25.8111 
G01 X16.5794 Y25.6198 
G01 X16.6393 Y25.4355 
G01 X16.7272 Y25.2629 
G01 X16.8411 Y25.1061 
G01 X16.9781 Y24.9691 
G01 X17.1349 Y24.8552 
G01 X17.3075 Y24.7673 
G01 X17.4918 Y24.7074 
G01 X17.6831 Y24.6771 
G01 X17.8769 Y24.6771 
G01 X18.0682 Y24.7074 
G01 X18.2525 Y24.7673 
G01 X18.4251 Y24.8552 
G01 X18.5819 Y24.9691 
G01 X18.7189 Y25.1061 
G01 X18.8328 Y25.2629 
G01 X18.9207 Y25.4355 
G01 X18.9806 Y25.6198 
G01 X19.0109 Y25.8111 
G01 X19.0109 Y27.5289 
G01 X18.9806 Y27.7202 
G01 X18.9207 Y27.9045 
G01 X18.8328 Y28.0771 
G01 X18.7189 Y28.2339 
G01 X18.5819 Y28.3709 
G01 X18.4251 Y28.4848 
G01 X18.2525 Y28.5727 
G01 X18.0682 Y28.6326 
G01 X17.8769 Y28.6629 
G01 X17.6831 Y28.6629 
G01 X17.4918 Y28.6326 
G01 X17.3075 Y28.5727 
G01 X17.1349 Y28.4848 
G01 X16.9781 Y28.3709 
G01 X16.8411 Y28.2339 
G01 X16.7272 Y28.0771 
G01 X16.6393 Y27.9045 
G01 X16.5794 Y27.7202 
G01 X16.5491 Y27.5289 
G01 X16.5491 Y27.1135 
G01 X15.2575 Y27.1135 
G01 X15.1424 Y27.0906 
G01 X15.0339 Y27.0457 
G01 X14.9363 Y26.9805 
G01 X14.8533 Y26.8975 
G01 X10.2813 Y22.3255 
G01 X10.2161 Y22.2279 
G01 X10.1712 Y22.1194 
G01 X10.1483 Y22.0043 
G01 X10.1483 Y18.0007 
G01 X10.1712 Y17.8856 
G01 X10.2161 Y17.7771 
G01 X10.2813 Y17.6795 
G01 X10.3643 Y17.5965 
G01 X16.7055 Y11.2553 
G01 X16.6771 Y11.0784 
G01 X16.6771 Y10.9016 
G01 X16.7048 Y10.7271 
G01 X16.7594 Y10.5590 
G01 X16.8396 Y10.4015 
G01 X16.9435 Y10.2585 
G01 X17.0685 Y10.1335 
G01 X17.2115 Y10.0296 
G01 X17.3690 Y9.9494 
G01 X17.5371 Y9.8948 
G01 X17.7116 Y9.8671 
G01 X17.8884 Y9.8671 
G01 X18.0629 Y9.8948 
G01 X18.2310 Y9.9494 
G01 X18.3885 Y10.0296 
G01 X18.5315 Y10.1335 
G01 X18.6565 Y10.2585 
G01 X18.7604 Y10.4015 
G01 X18.8406 Y10.5590 
G01 X18.8802 Y10.6808 
G01 X19.3170 Y10.2441 
G01 X19.2594 Y10.1310 
G01 X19.2048 Y9.9629 
G01 X19.1771 Y9.7884 
G01 X19.1771 Y9.6116 
G01 X19.2048 Y9.4370 
G01 X19.2594 Y9.2690 
G01 X19.3396 Y9.1115 
G01 X19.4435 Y8.9685 
G00 Z2.5400 
G00 X18.6065 Y12.6400 
G01 Z-0.1778 F127.00 
G01 X18.5723 Y12.6743 F254.00 
G01 X18.6065 Y12.7085 
G01 X18.6065 Y12.6400 
G00 Z2.5400 
G00 X18.6065 Y14.2715 
G01 Z-0.1778 F127.00 
G01 X18.5315 Y14.3465 F254.00 
G01 X18.3885 Y14.4504 
G01 X18.2310 Y14.5306 
G01 X18.1981 Y14.5413 
G01 X18.1981 Y14.6891 
G01 X18.1752 Y14.8042 
G01 X18.1303 Y14.9127 
G01 X18.1281 Y14.9159 
G01 X18.2310 Y14.9494 
G01 X18.3885 Y15.0296 
G01 X18.5315 Y15.1335 
G01 X18.6219 Y15.2239 
G01 X18.6065 Y15.1463 
G01 X18.6065 Y14.2715 
G00 Z2.5400 
G00 X18.8452 Y15.5732 
G01 Z-0.1778 F127.00 
G01 X18.8952 Y15.7271 F254.00 
G01 X18.9229 Y15.9016 
G01 X18.9229 Y16.0784 
G01 X18.8952 Y16.2529 
G01 X18.8406 Y16.4210 
G01 X18.7604 Y16.5785 
G01 X18.6565 Y16.7215 
G01 X18.5315 Y16.8465 
G01 X18.3885 Y16.9504 
G01 X18.2310 Y17.0306 
G01 X18.0629 Y17.0852 
G01 X17.8884 Y17.1129 
G01 X17.7116 Y17.1129 
G01 X17.5371 Y17.0852 
G01 X17.3690 Y17.0306 
G01 X17.2837 Y16.9872 
G01 X17.2837 Y17.4928 
G01 X17.3690 Y17.4494 
G01 X17.5371 Y17.3947 
G01 X17.7116 Y17.3671 
G01 X17.8884 Y17.3671 
G01 X18.0629 Y17.3947 
G01 X18.2310 Y17.4494 
G01 X18.3885 Y17.5296 
G01 X18.5315 Y17.6335 
G01 X18.5901 Y17.6921 
G01 X19.2905 Y17.6921 
G01 X19.2594 Y17.6310 
G01 X19.2048 Y17.4629 
G01 X19.1771 Y17.2884 
G01 X19.1771 Y17.1116 
G01 X19.2048 Y16.9370 
G01 X19.2594 Y16.7690 
G01 X19.3396 Y16.6115 
G01 X19.4435 Y16.4685 
G01 X19.5209 Y16.3911 
G01 X19.5209 Y16.2488 
G01 X18.8452 Y15.5732 
G00 Z2.5400 
G00 X20.6627 Y15.7628 
G01 Z-0.1778 F127.00 
G01 X20.6898 Y15.8282 F254.00 
G01 X20.7127 Y15.9433 
G01 X20.7127 Y16.1534 
G01 X20.7310 Y16.1594 
G01 X20.8885 Y16.2396 
G01 X21.0315 Y16.3435 
G01 X21.1565 Y16.4685 
G01 X21.2604 Y16.6115 
G01 X21.3406 Y16.7690 
G01 X21.3745 Y16.8733 
G01 X21.5783 Y16.6696 
G01 X21.5783 Y13.4287 
G01 X21.6012 Y13.3136 
G01 X21.6461 Y13.2051 
G01 X21.7113 Y13.1075 
G01 X23.7781 Y11.0408 
G01 X23.6991 Y10.9619 
G01 X23.5852 Y10.8051 
G01 X23.4973 Y10.6325 
G01 X23.4629 Y10.5268 
G01 X21.4111 Y12.5787 
G01 X21.3428 Y12.6242 
G01 X21.3406 Y12.6310 
G01 X21.2604 Y12.7885 
G01 X21.1565 Y12.9315 
G01 X21.0315 Y13.0565 
G01 X20.8885 Y13.1604 
G01 X20.7310 Y13.2406 
G01 X20.5629 Y13.2952 
G01 X20.3884 Y13.3229 
G01 X20.2116 Y13.3229 
G01 X20.0371 Y13.2952 
G01 X19.8690 Y13.2406 
G01 X19.7983 Y13.2046 
G01 X19.7983 Y13.6954 
G01 X19.8690 Y13.6594 
G01 X20.0371 Y13.6047 
G01 X20.2116 Y13.5771 
G01 X20.3884 Y13.5771 
G01 X20.5629 Y13.6047 
G01 X20.7310 Y13.6594 
G01 X20.8885 Y13.7396 
G01 X21.0315 Y13.8435 
G01 X21.1565 Y13.9685 
G01 X21.2604 Y14.1115 
G01 X21.3406 Y14.2690 
G01 X21.3952 Y14.4370 
G01 X21.4229 Y14.6116 
G01 X21.4229 Y14.7884 
G01 X21.3952 Y14.9629 
G01 X21.3406 Y15.1310 
G01 X21.2604 Y15.2885 
G01 X21.1565 Y15.4315 
G01 X21.0315 Y15.5565 
G01 X20.8885 Y15.6604 
G01 X20.7310 Y15.7406 
G01 X20.6627 Y15.7628 
G00 Z2.5400 
G00 X23.6845 Y16.0217 
G01 Z-0.1778 F127.00 
G01 X23.6845 Y16.1636 F254.00 
G01 X23.7527 Y16.0954 
G01 X23.6991 Y16.0419 
G01 X23.6845 Y16.0217 
G00 Z2.5400 
G00 X25.0626 Y16.4709 
G01 Z-0.1778 F127.00 
G01 X24.9844 Y16.5491 F254.00 
G01 X26.2589 Y16.5491 
G01 X26.4502 Y16.5794 
G01 X26.6345 Y16.6393 
G01 X26.8071 Y16.7272 
G01 X26.8361 Y16.7483 
G01 X26.8361 Y16.2717 
G01 X26.8071 Y16.2928 
G01 X26.6345 Y16.3807 
G01 X26.4502 Y16.4406 
G01 X26.2589 Y16.4709 
G01 X25.0626 Y16.4709 
G00 Z2.5400 
G00 X25.0372 Y19.0109 
G01 Z-0.1778 F127.00 
G01 X24.9590 Y19.0891 F254.00 
G01 X25.7882 Y19.0891 
G01 X25.8664 Y19.0109 
G01 X25.0372 Y19.0109 
G00 Z2.5400 
G00 X27.2933 Y19.2694 
G01 Z-0.1778 F127.00 
G01 X27.0727 Y19.4900 F254.00 
G01 X27.1009 Y19.5181 
G01 X27.2148 Y19.6749 
G01 X27.2933 Y19.8290 
G01 X27.2933 Y19.2694 
G00 Z2.5400 
G00 X23.4380 Y20.6101 
G01 Z-0.1778 F127.00 
G01 X22.0126 Y22.0355 F254.00 
G01 X22.8418 Y22.0355 
G01 X23.7273 Y21.1500 
G01 X23.6991 Y21.1219 
G01 X23.5852 Y20.9651 
G01 X23.4973 Y20.7925 
G01 X23.4380 Y20.6101 
G00 Z2.5400 
G00 X19.2329 Y19.3505 
G01 Z-0.1778 F127.00 
G01 X19.2594 Y19.2690 F254.00 
G01 X19.3396 Y19.1115 
G01 X19.4435 Y18.9685 
G01 X19.5281 Y18.8839 
G01 X18.8527 Y18.8839 
G01 X18.8406 Y18.9210 
G01 X18.7604 Y19.0785 
G01 X18.6565 Y19.2215 
G01 X18.5857 Y19.2923 
G01 X19.0325 Y19.2923 
G01 X19.1476 Y19.3152 
G01 X19.2329 Y19.3505 
G00 Z2.5400 
G00 X17.0366 Y20.1654 
G01 Z-0.1778 F127.00 
G01 X16.2249 Y19.3537 F254.00 
G01 X16.1597 Y19.2561 
G01 X16.1148 Y19.1476 
G01 X16.0919 Y19.0325 
G01 X16.0919 Y15.4861 
G01 X16.1148 Y15.3710 
G01 X16.1597 Y15.2625 
G01 X16.2249 Y15.1649 
G01 X16.3079 Y15.0819 
G01 X17.0063 Y14.3836 
G01 X17.0063 Y14.2843 
G01 X16.9435 Y14.2215 
G01 X16.8396 Y14.0785 
G01 X16.7594 Y13.9210 
G01 X16.7300 Y13.8307 
G01 X13.3975 Y17.1632 
G01 X13.3975 Y17.8191 
G01 X13.5589 Y17.8191 
G01 X13.7502 Y17.8494 
G01 X13.9345 Y17.9093 
G01 X14.1071 Y17.9972 
G01 X14.2639 Y18.1111 
G01 X14.4009 Y18.2481 
G01 X14.5148 Y18.4049 
G01 X14.6027 Y18.5775 
G01 X14.6626 Y18.7618 
G01 X14.6929 Y18.9531 
G01 X14.6929 Y19.1469 
G01 X14.6626 Y19.3382 
G01 X14.6027 Y19.5225 
G01 X14.5148 Y19.6951 
G01 X14.4520 Y19.7815 
G01 X16.2488 Y21.5783 
G01 X16.8395 Y21.5783 
G01 X16.7594 Y21.4210 
G01 X16.7048 Y21.2529 
G01 X16.6771 Y21.0784 
G01 X16.6771 Y20.9016 
G01 X16.7048 Y20.7270 
G01 X16.7594 Y20.5590 
G01 X16.8396 Y20.4015 
G01 X16.9435 Y20.2585 
G01 X17.0366 Y20.1654 
G00 Z2.5400 
G00 X13.3442 Y20.3591 
G01 Z-0.1778 F127.00 
G01 X13.2660 Y20.2809 F254.00 
G01 X11.8411 Y20.2809 
G01 X11.6498 Y20.2506 
G01 X11.4655 Y20.1907 
G01 X11.3401 Y20.1268 
G01 X11.3401 Y20.5132 
G01 X11.4655 Y20.4493 
G01 X11.6498 Y20.3894 
G01 X11.8411 Y20.3591 
G01 X13.3442 Y20.3591 
G00 Z2.5400 
G00 X12.2057 Y17.8191 
G01 Z-0.1778 F127.00 
G01 X12.2057 Y17.4406 F254.00 
G01 X11.8246 Y17.8217 
G01 X11.8411 Y17.8191 
G01 X12.2057 Y17.8191 
G00 Z2.5400 
G00 X22.7701 Y13.8776 
G01 Z-0.1778 F127.00 
G01 X23.4919 Y13.1558 F254.00 
G01 X23.4567 Y13.0476 
G01 X22.7701 Y13.7342 
G01 X22.7701 Y13.8776 
G00 Z2.5400 
G00 X27.2933 Y13.8776 
G01 Z-0.1778 F127.00 
G01 X27.2933 Y13.1910 F254.00 
G01 X27.2148 Y13.3451 
G01 X27.1009 Y13.5019 
G01 X27.0092 Y13.5935 
G01 X27.2933 Y13.8776 
G00 Z2.5400 
G00 X27.2933 Y12.2090 
G01 Z-0.1778 F127.00 
G01 X27.2933 Y10.6510 F254.00 
G01 X27.2148 Y10.8051 
G01 X27.1009 Y10.9619 
G01 X26.9639 Y11.0989 
G01 X26.8071 Y11.2128 
G01 X26.6345 Y11.3007 
G01 X26.4502 Y11.3606 
G01 X26.2589 Y11.3909 
G01 X25.1134 Y11.3909 
G01 X25.0352 Y11.4691 
G01 X26.2589 Y11.4691 
G01 X26.4502 Y11.4994 
G01 X26.6345 Y11.5593 
G01 X26.8071 Y11.6472 
G01 X26.9639 Y11.7611 
G01 X27.1009 Y11.8981 
G01 X27.2148 Y12.0549 
G01 X27.2933 Y12.2090 
G00 Z2.5400 
G00 X16.6831 Y7.4561 
G01 Z-0.1778 F127.00 
G01 X16.7661 Y7.3731 F254.00 
G01 X16.8637 Y7.3079 
G01 X16.9722 Y7.2630 
G01 X17.0873 Y7.2401 
G01 X18.5127 Y7.2401 
G01 X18.6278 Y7.2630 
G01 X18.7363 Y7.3079 
G01 X18.8339 Y7.3731 
G01 X18.9169 Y7.4561 
G01 X18.9821 Y7.5537 
G01 X19.0270 Y7.6622 
G01 X19.0499 Y7.7773 
G01 X19.0499 Y9.2027 
G01 X19.0270 Y9.3178 
G01 X18.9821 Y9.4263 
G01 X18.9169 Y9.5239 
G01 X18.8339 Y9.6069 
G01 X18.7363 Y9.6721 
G01 X18.6278 Y9.7170 
G01 X18.5127 Y9.7399 
G01 X17.0873 Y9.7399 
G01 X16.9722 Y9.7170 
G01 X16.8637 Y9.6721 
G01 X16.7661 Y9.6069 
G01 X16.6831 Y9.5239 
G01 X16.6179 Y9.4263 
G01 X16.5730 Y9.3178 
G01 X16.5501 Y9.2027 
G01 X16.5501 Y7.7773 
G01 X16.5730 Y7.6622 
G01 X16.6179 Y7.5537 
G01 X16.6831 Y7.4561 
G00 Z2.5400 
G00 X19.0809 Y7.4927 
G01 Z-0.1778 F127.00 
G01 X19.0501 Y7.2984 F254.00 
G01 X19.0501 Y7.1016 
G01 X19.0809 Y6.9073 
G01 X19.1417 Y6.7202 
G01 X19.2310 Y6.5449 
G01 X19.3466 Y6.3857 
G01 X19.4857 Y6.2466 
G01 X19.6449 Y6.1310 
G01 X19.8202 Y6.0417 
G01 X20.0073 Y5.9809 
G01 X20.2016 Y5.9501 
G01 X20.3984 Y5.9501 
G01 X20.5927 Y5.9809 
G01 X20.7798 Y6.0417 
G01 X20.9551 Y6.1310 
G01 X21.1143 Y6.2466 
G01 X21.2534 Y6.3857 
G01 X21.3690 Y6.5449 
G01 X21.4583 Y6.7202 
G01 X21.5191 Y6.9073 
G01 X21.5499 Y7.1016 
G01 X21.5499 Y7.2984 
G01 X21.5191 Y7.4927 
G01 X21.4583 Y7.6798 
G01 X21.3690 Y7.8551 
G01 X21.2534 Y8.0143 
G01 X21.1143 Y8.1534 
G01 X20.9551 Y8.2690 
G01 X20.7798 Y8.3583 
G01 X20.5927 Y8.4191 
G01 X20.3984 Y8.4499 
G01 X20.2016 Y8.4499 
G01 X20.0073 Y8.4191 
G01 X19.8202 Y8.3583 
G01 X19.6449 Y8.2690 
G01 X19.4857 Y8.1534 
G01 X19.3466 Y8.0143 
G01 X19.2310 Y7.8551 
G01 X19.1417 Y7.6798 
G01 X19.0809 Y7.4927 
G00 Z2.5400 
G00 X19.3466 Y8.8857 
G01 Z-0.1778 F127.00 
G01 X19.4857 Y8.7466 F254.00 
G01 X19.6449 Y8.6310 
G01 X19.8202 Y8.5417 
G01 X20.0073 Y8.4809 
G01 X20.2016 Y8.4501 
G01 X20.3984 Y8.4501 
G01 X20.5927 Y8.4809 
G01 X20.7798 Y8.5417 
G01 X20.9551 Y8.6310 
G01 X21.1143 Y8.7466 
G01 X21.2534 Y8.8857 
G01 X21.3690 Y9.0449 
G01 X21.4583 Y9.2202 
G01 X21.5191 Y9.4073 
G01 X21.5499 Y9.6016 
G01 X21.5499 Y9.7984 
G01 X21.5328 Y9.9060 
G01 X23.3595 Y8.0794 
G01 X23.3135 Y7.9380 
G01 X23.2801 Y7.7269 
G01 X23.2801 Y7.5131 
G01 X23.3135 Y7.3020 
G01 X23.3796 Y7.0987 
G01 X23.4766 Y6.9083 
G01 X23.6023 Y6.7354 
G01 X23.7534 Y6.5842 
G01 X23.9263 Y6.4586 
G01 X24.1167 Y6.3616 
G01 X24.3200 Y6.2955 
G01 X24.5311 Y6.2621 
G01 X26.2689 Y6.2621 
G01 X26.4800 Y6.2955 
G01 X26.6833 Y6.3616 
G01 X26.8737 Y6.4586 
G01 X27.0466 Y6.5842 
G01 X27.1977 Y6.7354 
G01 X27.3234 Y6.9083 
G01 X27.4204 Y7.0987 
G01 X27.4865 Y7.3020 
G01 X27.5199 Y7.5131 
G01 X27.5199 Y7.7269 
G01 X27.4865 Y7.9380 
G01 X27.4204 Y8.1412 
G01 X27.3234 Y8.3317 
G01 X27.1977 Y8.5046 
G01 X27.1634 Y8.5389 
G01 X28.3500 Y9.7255 
G01 X28.4507 Y9.8262 
G01 X28.5298 Y9.9446 
G01 X28.5843 Y10.0761 
G01 X28.6121 Y10.2158 
G01 X28.6121 Y20.4166 
G01 X28.5843 Y20.5563 
G01 X28.5298 Y20.6878 
G01 X28.4507 Y20.8062 
G01 X22.2785 Y26.9784 
G01 X22.1778 Y27.0791 
G01 X22.0594 Y27.1582 
G01 X21.9279 Y27.2127 
G01 X21.7882 Y27.2405 
G01 X21.6779 Y27.2405 
G01 X21.6779 Y27.5389 
G01 X21.6445 Y27.7500 
G01 X21.5784 Y27.9533 
G01 X21.4814 Y28.1437 
G01 X21.3557 Y28.3166 
G01 X21.2046 Y28.4677 
G01 X21.0317 Y28.5934 
G01 X20.8412 Y28.6904 
G01 X20.6380 Y28.7565 
G01 X20.4269 Y28.7899 
G01 X20.2131 Y28.7899 
G01 X20.0020 Y28.7565 
G01 X19.7987 Y28.6904 
G01 X19.6083 Y28.5934 
G01 X19.4354 Y28.4677 
G01 X19.2843 Y28.3166 
G01 X19.1586 Y28.1437 
G01 X19.0616 Y27.9533 
G01 X19.0500 Y27.9176 
G01 X19.0384 Y27.9533 
G01 X18.9414 Y28.1437 
G01 X18.8157 Y28.3166 
G01 X18.6646 Y28.4677 
G01 X18.4917 Y28.5934 
G01 X18.3012 Y28.6904 
G01 X18.0980 Y28.7565 
G01 X17.8869 Y28.7899 
G01 X17.6731 Y28.7899 
G01 X17.4620 Y28.7565 
G01 X17.2587 Y28.6904 
G01 X17.0683 Y28.5934 
G01 X16.8954 Y28.4677 
G01 X16.7443 Y28.3166 
G01 X16.6186 Y28.1437 
G01 X16.5216 Y27.9533 
G01 X16.4555 Y27.7500 
G01 X16.4221 Y27.5389 
G01 X16.4221 Y27.2405 
G01 X15.2450 Y27.2405 
G01 X15.1053 Y27.2127 
G01 X14.9738 Y27.1582 
G01 X14.8554 Y27.0791 
G01 X14.7547 Y26.9784 
G01 X10.1827 Y22.4064 
G01 X10.1036 Y22.2880 
G01 X10.0491 Y22.1565 
G01 X10.0213 Y22.0168 
G01 X10.0213 Y17.9882 
G01 X10.0491 Y17.8485 
G01 X10.1036 Y17.7170 
G01 X10.1827 Y17.5986 
G01 X10.2834 Y17.4979 
G01 X16.5696 Y11.2116 
G01 X16.5501 Y11.0884 
G01 X16.5501 Y10.8916 
G01 X16.5809 Y10.6973 
G01 X16.6417 Y10.5102 
G01 X16.7310 Y10.3349 
G01 X16.8466 Y10.1757 
G01 X16.9857 Y10.0366 
G01 X17.1449 Y9.9210 
G01 X17.3202 Y9.8317 
G01 X17.5073 Y9.7709 
G01 X17.7016 Y9.7401 
G01 X17.8984 Y9.7401 
G01 X18.0927 Y9.7709 
G01 X18.2798 Y9.8317 
G01 X18.4551 Y9.9210 
G01 X18.6143 Y10.0366 
G01 X18.7534 Y10.1757 
G01 X18.8690 Y10.3349 
G01 X18.9289 Y10.4525 
G01 X19.1619 Y10.2195 
G01 X19.1417 Y10.1798 
G01 X19.0809 Y9.9927 
G01 X19.0501 Y9.7984 
G01 X19.0501 Y9.6016 
G01 X19.0809 Y9.4073 
G01 X19.1417 Y9.2202 
G01 X19.2310 Y9.0449 
G01 X19.3466 Y8.8857 
G00 Z2.5400 
G00 X19.9253 Y13.3925 
G01 Z-0.1778 F127.00 
G01 X19.9253 Y13.5075 F254.00 
G01 X20.0073 Y13.4809 
G01 X20.2016 Y13.4501 
G01 X20.3984 Y13.4501 
G01 X20.5927 Y13.4809 
G01 X20.7798 Y13.5417 
G01 X20.9551 Y13.6310 
G01 X21.1143 Y13.7466 
G01 X21.2534 Y13.8857 
G01 X21.3690 Y14.0449 
G01 X21.4513 Y14.2064 
G01 X21.4513 Y13.4162 
G01 X21.4791 Y13.2765 
G01 X21.5336 Y13.1450 
G01 X21.6127 Y13.0266 
G01 X23.5991 Y11.0402 
G01 X23.4766 Y10.8717 
G01 X23.4162 Y10.7531 
G01 X21.4920 Y12.6773 
G01 X21.4428 Y12.7102 
G01 X21.3690 Y12.8551 
G01 X21.2534 Y13.0143 
G01 X21.1143 Y13.1534 
G01 X20.9551 Y13.2690 
G01 X20.7798 Y13.3583 
G01 X20.5927 Y13.4191 
G01 X20.3984 Y13.4499 
G01 X20.2016 Y13.4499 
G01 X20.0073 Y13.4191 
G01 X19.9253 Y13.3925 
G00 Z2.5400 
G00 X18.4795 Y14.5413 
G01 Z-0.1778 F127.00 
G01 X18.4551 Y14.5590 F254.00 
G01 X18.3251 Y14.6252 
G01 X18.3251 Y14.7016 
G01 X18.2974 Y14.8407 
G01 X18.4551 Y14.9210 
G01 X18.4795 Y14.9387 
G01 X18.4795 Y14.5413 
G00 Z2.5400 
G00 X16.8763 Y14.3339 
G01 Z-0.1778 F127.00 
G01 X16.8466 Y14.3043 F254.00 
G01 X16.7310 Y14.1451 
G01 X16.6852 Y14.0552 
G01 X13.5245 Y17.2158 
G01 X13.5245 Y17.6921 
G01 X13.5689 Y17.6921 
G01 X13.7800 Y17.7255 
G01 X13.9832 Y17.7916 
G01 X14.1737 Y17.8886 
G01 X14.3466 Y18.0143 
G01 X14.4977 Y18.1654 
G01 X14.6234 Y18.3383 
G01 X14.7204 Y18.5287 
G01 X14.7865 Y18.7320 
G01 X14.8199 Y18.9431 
G01 X14.8199 Y19.1569 
G01 X14.7865 Y19.3680 
G01 X14.7204 Y19.5712 
G01 X14.6234 Y19.7617 
G01 X14.6185 Y19.7684 
G01 X16.3014 Y21.4513 
G01 X16.6357 Y21.4513 
G01 X16.5809 Y21.2827 
G01 X16.5501 Y21.0884 
G01 X16.5501 Y20.8916 
G01 X16.5809 Y20.6973 
G01 X16.6417 Y20.5102 
G01 X16.7310 Y20.3349 
G01 X16.8466 Y20.1757 
G01 X16.8570 Y20.1654 
G01 X16.1263 Y19.4346 
G01 X16.0472 Y19.3162 
G01 X15.9927 Y19.1847 
G01 X15.9649 Y19.0450 
G01 X15.9649 Y15.4736 
G01 X15.9927 Y15.3339 
G01 X16.0472 Y15.2024 
G01 X16.1263 Y15.0840 
G01 X16.2270 Y14.9833 
G01 X16.8763 Y14.3339 
G00 Z2.5400 
G00 X17.4107 Y17.1777 
G01 Z-0.1778 F127.00 
G01 X17.4107 Y17.3023 F254.00 
G01 X17.5073 Y17.2709 
G01 X17.7016 Y17.2401 
G01 X17.8984 Y17.2401 
G01 X18.0927 Y17.2709 
G01 X18.2798 Y17.3317 
G01 X18.4551 Y17.4210 
G01 X18.6143 Y17.5366 
G01 X18.6427 Y17.5651 
G01 X19.1044 Y17.5651 
G01 X19.0809 Y17.4927 
G01 X19.0501 Y17.2984 
G01 X19.0501 Y17.1016 
G01 X19.0809 Y16.9073 
G01 X19.1417 Y16.7202 
G01 X19.2310 Y16.5449 
G01 X19.3466 Y16.3857 
G01 X19.3939 Y16.3385 
G01 X19.3939 Y16.3014 
G01 X19.0499 Y15.9574 
G01 X19.0499 Y16.0884 
G01 X19.0191 Y16.2827 
G01 X18.9583 Y16.4698 
G01 X18.8690 Y16.6451 
G01 X18.7534 Y16.8043 
G01 X18.6143 Y16.9434 
G01 X18.4551 Y17.0590 
G01 X18.2798 Y17.1483 
G01 X18.0927 Y17.2091 
G01 X17.8984 Y17.2399 
G01 X17.7016 Y17.2399 
G01 X17.5073 Y17.2091 
G01 X17.4107 Y17.1777 
G00 Z2.5400 
G00 X18.9374 Y19.0109 
G01 Z-0.1778 F127.00 
G01 X18.8690 Y19.1451 F254.00 
G01 X18.8543 Y19.1653 
G01 X19.0450 Y19.1653 
G01 X19.1582 Y19.1878 
G01 X19.2310 Y19.0449 
G01 X19.2557 Y19.0109 
G01 X18.9374 Y19.0109 
G00 Z2.5400 
G00 X20.8397 Y16.0722 
G01 Z-0.1778 F127.00 
G01 X20.9551 Y16.1310 F254.00 
G01 X21.1143 Y16.2466 
G01 X21.2534 Y16.3857 
G01 X21.3690 Y16.5449 
G01 X21.4211 Y16.6472 
G01 X21.4513 Y16.6170 
G01 X21.4513 Y15.1936 
G01 X21.3690 Y15.3551 
G01 X21.2534 Y15.5143 
G01 X21.1143 Y15.6534 
G01 X20.9551 Y15.7690 
G01 X20.8211 Y15.8373 
G01 X20.8397 Y15.9308 
G01 X20.8397 Y16.0722 
G00 Z2.5400 
G00 X26.6476 Y16.5100 
G01 Z-0.1778 F127.00 
G01 X26.6833 Y16.5216 F254.00 
G01 X26.7091 Y16.5348 
G01 X26.7091 Y16.4852 
G01 X26.6833 Y16.4984 
G01 X26.6476 Y16.5100 
G00 Z2.5400 
G00 X26.6476 Y11.4300 
G01 Z-0.1778 F127.00 
G01 X26.6833 Y11.4416 F254.00 
G01 X26.8737 Y11.5386 
G01 X27.0466 Y11.6642 
G01 X27.1663 Y11.7839 
G01 X27.1663 Y11.0761 
G01 X27.0466 Y11.1957 
G01 X26.8737 Y11.3214 
G01 X26.6833 Y11.4184 
G01 X26.6476 Y11.4300 
G00 Z2.5400 
G00 X25.5344 Y21.6779 
G01 Z-0.1778 F127.00 
G01 X25.0644 Y21.6779 F254.00 
G01 X23.5494 Y23.1929 
G01 X23.4310 Y23.2720 
G01 X23.2995 Y23.3265 
G01 X23.1598 Y23.3543 
G01 X15.7022 Y23.3543 
G01 X15.5625 Y23.3265 
G01 X15.4310 Y23.2720 
G01 X15.3126 Y23.1929 
G01 X15.2119 Y23.0922 
G01 X14.5596 Y22.4399 
G01 X14.5230 Y22.4399 
G01 X14.4977 Y22.4746 
G01 X14.3466 Y22.6257 
G01 X14.1737 Y22.7514 
G01 X13.9832 Y22.8484 
G01 X13.7800 Y22.9145 
G01 X13.5689 Y22.9479 
G01 X12.7688 Y22.9479 
G01 X15.6156 Y25.7947 
G01 X16.4231 Y25.7947 
G01 X16.4555 Y25.5900 
G01 X16.5216 Y25.3867 
G01 X16.6186 Y25.1963 
G01 X16.7443 Y25.0234 
G01 X16.8954 Y24.8723 
G01 X17.0683 Y24.7466 
G01 X17.2587 Y24.6496 
G01 X17.4620 Y24.5835 
G01 X17.6731 Y24.5501 
G01 X17.8869 Y24.5501 
G01 X18.0980 Y24.5835 
G01 X18.3012 Y24.6496 
G01 X18.4917 Y24.7466 
G01 X18.6646 Y24.8723 
G01 X18.8157 Y25.0234 
G01 X18.9414 Y25.1963 
G01 X19.0384 Y25.3867 
G01 X19.0500 Y25.4224 
G01 X19.0616 Y25.3867 
G01 X19.1586 Y25.1963 
G01 X19.2843 Y25.0234 
G01 X19.4354 Y24.8723 
G01 X19.6083 Y24.7466 
G01 X19.7987 Y24.6496 
G01 X20.0020 Y24.5835 
G01 X20.2131 Y24.5501 
G01 X20.4269 Y24.5501 
G01 X20.6380 Y24.5835 
G01 X20.8412 Y24.6496 
G01 X21.0317 Y24.7466 
G01 X21.2046 Y24.8723 
G01 X21.3557 Y25.0234 
G01 X21.4814 Y25.1963 
G01 X21.5784 Y25.3867 
G01 X21.6390 Y25.5733 
G01 X25.5344 Y21.6779 
G00 Z2.5400 
G00 X23.5563 Y21.1414 
G01 Z-0.1778 F127.00 
G01 X23.4766 Y21.0317 F254.00 
G01 X23.3819 Y20.8458 
G01 X22.3192 Y21.9085 
G01 X22.7892 Y21.9085 
G01 X23.5563 Y21.1414 
G00 Z2.5400 
G00 Z2.540000
G00 X20.3000 Y7.2000 
G01 Z-0.2794 F508.00 
G01 Z2.540000
(R2.5400  P1.000000)
G00 X17.8000 Y8.4900 
G01 Z-0.812800
G01 Z2.540000
G00 X20.3000 Y9.7000 
G01 Z-0.812800
G01 Z2.540000
G00 X17.8000 Y10.9900 
G01 Z-0.812800
G01 Z2.540000
G00 X20.3000 Y12.2000 
G01 Z-0.812800
G01 Z2.540000
G00 X17.8000 Y13.4900 
G01 Z-0.812800
G01 Z2.540000
G00 X20.3000 Y14.7000 
G01 Z-0.812800
G01 Z2.540000
G00 X17.8000 Y15.9900 
G01 Z-0.812800
G01 Z2.540000
G00 X20.3000 Y17.2000 
G01 Z-0.812800
G01 Z2.540000
G00 X17.8000 Y18.4900 
G01 Z-0.812800
G01 Z2.540000
G00 X20.3000 Y19.7000 
G01 Z-0.812800
G01 Z2.540000
G00 X17.8000 Y20.9900 
G01 Z-0.812800
G01 Z2.540000
G00 X17.7800 Y26.6700 
G01 Z-0.812800
G01 Z2.540000
G00 X20.3200 Y26.6700 
G01 Z-0.812800
G01 Z2.540000
G00 X12.7000 Y19.0500 
G01 Z-0.812800
G01 Z2.540000
G00 X12.7000 Y21.5900 
G01 Z-0.812800
G01 Z2.540000
G00 X25.4000 Y7.6200 
G01 Z-0.812800
G01 Z2.540000
G00 X25.4000 Y10.1600 
G01 Z-0.812800
G01 Z2.540000
G00 X25.4000 Y12.7000 
G01 Z-0.812800
G01 Z2.540000
G00 X25.4000 Y15.2400 
G01 Z-0.812800
G01 Z2.540000
G00 X25.4000 Y20.3200 
G01 Z-0.812800
G01 Z2.540000
G00 X25.4000 Y17.7800 
G01 Z-0.812800
G01 Z2.540000
G00 Z12.7000 
M05
M02
